;FLAVOR:Repetier
;TIME:4573
;MINX:61.431
;MINY:119.168
;MINZ:0.25
;MAXX:135.232
;MAXY:185.684
;MAXZ:32
;TARGET_MACHINE.NAME:Prusa i3 Mk2
;Generated with Cura_SteamEngine 5.6.0
M104 S240
M109 S240
M82 ;absolute extrusion mode
G28
G92 E0
G92 E0
G1 F3000 E-1
;LAYER_COUNT:128
;LAYER:0
M107
G0 F3150 X70.063 Y121.328 Z0.25
;TYPE:SKIRT
G1 F3000 E0
G1 F2100 X68.929 Y122.023 E0.08046
G1 X68.38 Y122.407 E0.12098
G1 X67.42 Y123.163 E0.1949
G1 X66.909 Y123.612 E0.23605
G1 X65.909 Y124.612 E0.3216
G1 X65.365 Y125.227 E0.37127
G1 X64.847 Y125.878 E0.42159
G1 X64.212 Y126.781 E0.48837
G1 X63.628 Y127.731 E0.55583
G1 X63.326 Y128.289 E0.59421
G1 X62.807 Y129.396 E0.66817
G1 X62.426 Y130.35 E0.73031
G1 X62.171 Y131.119 E0.77932
G1 X61.844 Y132.335 E0.85549
G1 X61.722 Y132.924 E0.89188
G1 X61.578 Y133.883 E0.95054
G1 X61.451 Y135.211 E1.03124
G1 X61.431 Y135.845 E1.06961
G1 X61.431 Y144.349 E1.58403
G1 X61.448 Y145.125 E1.63098
G1 X61.512 Y146.193 E1.6957
G1 X61.619 Y147.254 E1.76021
G1 X61.785 Y148.357 E1.82769
G1 X62.001 Y149.494 E1.8977
G1 X62.252 Y150.543 E1.96294
G1 X62.553 Y151.593 E2.02902
G1 X62.88 Y152.571 E2.0914
G1 X63.259 Y153.56 E2.15547
G1 X63.778 Y154.76 E2.23456
G1 X64.177 Y155.572 E2.28928
G1 X64.681 Y156.496 E2.35295
G1 X65.335 Y157.584 E2.42974
G1 X65.839 Y158.342 E2.48481
G1 X66.475 Y159.216 E2.55019
G1 X67.19 Y160.12 E2.61992
G1 X67.884 Y160.922 E2.68407
G1 X68.691 Y161.775 E2.7551
G1 X69.39 Y162.447 E2.81376
G1 X70.185 Y163.153 E2.87808
G1 X71.088 Y163.885 E2.94839
G1 X71.892 Y164.483 E3.00901
G1 X91.129 Y177.953 E4.4296
G1 X91.75 Y178.407 E4.47614
G1 X92.314 Y178.902 E4.52153
G1 X92.687 Y179.259 E4.55276
G1 X93.158 Y179.749 E4.59388
G1 X93.784 Y180.533 E4.65457
G1 X94.363 Y181.398 E4.71753
G1 X94.934 Y182.442 E4.78952
G1 X95.708 Y183.441 E4.86596
G1 X96.816 Y184.471 E4.95747
G1 X98.525 Y185.319 E5.07288
G1 X100.249 Y185.684 E5.17948
G1 X128.716 Y185.684 E6.9015
G1 X129.683 Y185.528 E6.96076
G1 X131.156 Y185.117 E7.05326
G1 X132.433 Y184.306 E7.14477
G1 X133.28 Y183.605 E7.21128
G1 X134.168 Y182.483 E7.29784
G1 X134.872 Y181.042 E7.39485
G1 X135.232 Y179.324 E7.50104
G1 X135.231 Y136.068 E10.11767
G1 X135.214 Y135.309 E10.1636
G1 X135.097 Y133.924 E10.24768
G1 X135.01 Y133.331 E10.28393
G1 X134.751 Y132.063 E10.36222
G1 X134.571 Y131.384 E10.40471
G1 X134.238 Y130.365 E10.46956
G1 X133.85 Y129.378 E10.53372
G1 X133.456 Y128.526 E10.5905
G1 X133.028 Y127.726 E10.64538
G1 X132.394 Y126.692 E10.71875
G1 X131.989 Y126.112 E10.76155
G1 X131.247 Y125.171 E10.83404
G1 X130.55 Y124.39 E10.89736
G1 X130.005 Y123.845 E10.94398
G1 X129.242 Y123.164 E11.00585
G1 X128.275 Y122.402 E11.08032
G1 X127.725 Y122.017 E11.12093
G1 X126.643 Y121.351 E11.19779
G1 X126.055 Y121.035 E11.23817
G1 X125.065 Y120.571 E11.30431
G1 X123.999 Y120.146 E11.37373
G1 X123.399 Y119.945 E11.41201
G1 X122.06 Y119.58 E11.49596
G1 X121.471 Y119.458 E11.53235
G1 X120.513 Y119.314 E11.59095
G1 X119.228 Y119.19 E11.66904
G1 X118.561 Y119.168 E11.70941
G1 X102.144 Y119.168 E12.70251
G1 X101.542 Y119.239 E12.73918
G1 X100.895 Y119.17 E12.77854
G1 X78.331 Y119.168 E14.14348
G1 X77.578 Y119.185 E14.18904
G1 X76.421 Y119.279 E14.25926
G1 X75.262 Y119.448 E14.33011
G1 X74.638 Y119.576 E14.36864
G1 X73.355 Y119.917 E14.44895
G1 X72.654 Y120.149 E14.49361
G1 X71.648 Y120.546 E14.55904
G1 X70.79 Y120.943 E14.61623
G1 X70.063 Y121.328 E14.66599
G0 F3150 X70.344 Y121.858
G1 F2100 X71.042 Y121.488 E14.71378
G1 X71.9 Y121.091 E14.77097
G1 X72.843 Y120.719 E14.83229
G1 X73.544 Y120.487 E14.87696
G1 X74.759 Y120.164 E14.95301
G1 X75.349 Y120.042 E14.98945
G1 X76.508 Y119.873 E15.0603
G1 X77.592 Y119.785 E15.12609
G1 X78.331 Y119.768 E15.17081
G1 X100.831 Y119.767 E16.53187
G1 X101.544 Y119.843 E16.57525
G1 X102.144 Y119.768 E16.61183
G1 X118.541 Y119.768 E17.60371
G1 X119.208 Y119.79 E17.64408
G1 X120.424 Y119.907 E17.71798
G1 X121.349 Y120.046 E17.77456
G1 X121.938 Y120.168 E17.81095
G1 X123.208 Y120.514 E17.89057
G1 X123.808 Y120.715 E17.92885
G1 X124.842 Y121.128 E17.9962
G1 X125.771 Y121.564 E18.05828
G1 X126.359 Y121.88 E18.09866
G1 X127.381 Y122.509 E18.17126
G1 X127.931 Y122.894 E18.21187
G1 X128.842 Y123.612 E18.28203
G1 X129.605 Y124.293 E18.3439
G1 X130.102 Y124.79 E18.38642
G1 X130.799 Y125.571 E18.44974
G1 X131.497 Y126.456 E18.51792
G1 X131.882 Y127.006 E18.55853
G1 X132.516 Y128.04 E18.6319
G1 X132.911 Y128.778 E18.68254
G1 X133.305 Y129.63 E18.73932
G1 X133.679 Y130.584 E18.80131
G1 X133.991 Y131.539 E18.86208
G1 X134.163 Y132.184 E18.90246
G1 X134.416 Y133.418 E18.97866
G1 X134.503 Y134.011 E19.01492
G1 X134.614 Y135.323 E19.09457
G1 X134.631 Y136.068 E19.13965
G1 X134.632 Y179.263 E21.75259
G1 X134.3 Y180.846 E21.85043
G1 X133.658 Y182.16 E21.9389
G1 X132.848 Y183.184 E22.01788
G1 X132.111 Y183.799 E22.07595
G1 X130.906 Y184.564 E22.16229
G1 X129.587 Y184.936 E22.24519
G1 X128.67 Y185.084 E22.30138
G1 X100.312 Y185.084 E24.01681
G1 X98.723 Y184.748 E24.11505
G1 X97.161 Y183.973 E24.22053
G1 X96.153 Y183.035 E24.30383
G1 X95.436 Y182.11 E24.37462
G1 X94.872 Y181.079 E24.44571
G1 X94.273 Y180.184 E24.51086
G1 X93.61 Y179.354 E24.57512
G1 X93.11 Y178.834 E24.61876
G1 X92.71 Y178.451 E24.65226
G1 X92.13 Y177.942 E24.69894
G1 X91.483 Y177.469 E24.74742
G1 X72.25 Y164.002 E26.16771
G1 X71.466 Y163.419 E26.22681
G1 X70.583 Y162.704 E26.29554
G1 X69.806 Y162.015 E26.35836
G1 X69.127 Y161.362 E26.41535
G1 X68.338 Y160.529 E26.48476
G1 X67.644 Y159.727 E26.54891
G1 X66.96 Y158.863 E26.61557
G1 X66.339 Y158.01 E26.6794
G1 X65.835 Y157.252 E26.73446
G1 X65.208 Y156.209 E26.80808
G1 X64.716 Y155.307 E26.87023
G1 X64.317 Y154.495 E26.92496
G1 X63.819 Y153.345 E27.00077
G1 X63.449 Y152.381 E27.06323
G1 X63.13 Y151.428 E27.12402
G1 X62.836 Y150.403 E27.18853
G1 X62.585 Y149.354 E27.25377
G1 X62.378 Y148.268 E27.32065
G1 X62.216 Y147.194 E27.38635
G1 X62.111 Y146.157 E27.4494
G1 X62.048 Y145.112 E27.51273
G1 X62.031 Y144.336 E27.55969
G1 X62.031 Y135.864 E28.07217
G1 X62.051 Y135.23 E28.11054
G1 X62.171 Y133.972 E28.18699
G1 X62.31 Y133.046 E28.24363
G1 X62.432 Y132.457 E28.28002
G1 X62.741 Y131.308 E28.35199
G1 X62.996 Y130.539 E28.401
G1 X63.35 Y129.651 E28.45883
G1 X63.854 Y128.575 E28.53071
G1 X64.156 Y128.017 E28.56909
G1 X64.723 Y127.096 E28.63451
G1 X65.317 Y126.252 E28.69694
G1 X65.835 Y125.601 E28.74727
G1 X66.358 Y125.01 E28.79501
G1 X67.305 Y124.063 E28.87602
G1 X67.816 Y123.614 E28.91717
G1 X68.724 Y122.899 E28.98708
G1 X69.273 Y122.515 E29.02761
G1 X70.344 Y121.858 E29.10362
G0 F3150 X70.626 Y122.388
G1 F2100 X71.294 Y122.033 E29.14938
G1 X72.152 Y121.636 E29.20656
G1 X73.032 Y121.289 E29.26379
G1 X73.733 Y121.057 E29.30845
G1 X74.88 Y120.752 E29.38025
G1 X75.47 Y120.63 E29.41669
G1 X76.594 Y120.467 E29.4854
G1 X77.606 Y120.385 E29.54682
G1 X78.331 Y120.368 E29.59068
G1 X100.831 Y120.367 E30.95175
G1 X101.553 Y120.448 E30.9957
G1 X102.144 Y120.368 E31.03178
G1 X118.521 Y120.368 E32.02245
G1 X119.188 Y120.39 E32.06282
G1 X120.335 Y120.5 E32.13253
G1 X121.227 Y120.634 E32.18709
G1 X121.816 Y120.756 E32.22348
G1 X123.017 Y121.083 E32.29877
G1 X123.617 Y121.284 E32.33705
G1 X124.587 Y121.671 E32.40022
G1 X125.487 Y122.093 E32.46035
G1 X126.075 Y122.409 E32.50073
G1 X127.037 Y123.001 E32.56906
G1 X127.587 Y123.386 E32.60968
G1 X128.442 Y124.06 E32.67553
G1 X129.205 Y124.741 E32.7374
G1 X129.654 Y125.19 E32.77581
G1 X130.351 Y125.971 E32.83913
G1 X131.005 Y126.8 E32.90301
G1 X131.39 Y127.35 E32.94362
G1 X131.987 Y128.323 E33.01267
G1 X132.366 Y129.03 E33.0612
G1 X132.76 Y129.882 E33.11798
G1 X133.109 Y130.77 E33.1757
G1 X133.411 Y131.694 E33.2345
G1 X133.583 Y132.339 E33.27488
G1 X133.822 Y133.505 E33.34688
G1 X133.909 Y134.098 E33.38314
G1 X134.014 Y135.337 E33.45836
G1 X134.031 Y136.068 E33.50259
G1 X134.032 Y179.202 E36.11185
G1 X133.728 Y180.65 E36.20135
G1 X133.148 Y181.837 E36.28126
G1 X132.417 Y182.761 E36.35254
G1 X131.726 Y183.338 E36.40699
G1 X130.659 Y184.01 E36.48327
G1 X129.424 Y184.358 E36.56089
G1 X128.62 Y184.484 E36.61012
G1 X100.374 Y184.484 E38.31877
G1 X98.921 Y184.177 E38.40861
G1 X97.507 Y183.475 E38.5041
G1 X96.598 Y182.629 E38.57922
G1 X95.938 Y181.778 E38.64437
G1 X95.381 Y180.76 E38.71456
G1 X94.758 Y179.829 E38.78233
G1 X94.062 Y178.958 E38.84977
G1 X93.534 Y178.408 E38.89589
G1 X93.125 Y178.017 E38.93012
G1 X92.504 Y177.473 E38.98006
G1 X91.837 Y176.985 E39.03005
G1 X72.608 Y163.521 E40.45004
G1 X71.843 Y162.952 E40.50772
G1 X70.981 Y162.255 E40.57478
G1 X70.222 Y161.582 E40.63614
G1 X69.563 Y160.949 E40.69141
G1 X68.774 Y160.116 E40.76082
G1 X68.114 Y159.355 E40.82175
G1 X67.445 Y158.51 E40.88695
G1 X66.839 Y157.678 E40.94922
G1 X66.335 Y156.92 E41.00428
G1 X65.735 Y155.922 E41.07472
G1 X65.255 Y155.042 E41.13536
G1 X64.856 Y154.23 E41.19009
G1 X64.379 Y153.13 E41.26261
G1 X64.018 Y152.19 E41.32353
G1 X63.707 Y151.262 E41.38273
G1 X63.42 Y150.263 E41.44561
G1 X63.169 Y149.214 E41.51085
G1 X62.971 Y148.178 E41.57466
G1 X62.813 Y147.133 E41.63859
G1 X62.71 Y146.121 E41.70012
G1 X62.648 Y145.099 E41.76206
G1 X62.631 Y144.323 E41.80901
G1 X62.631 Y135.883 E42.31956
G1 X62.651 Y135.249 E42.35794
G1 X62.764 Y134.061 E42.43012
G1 X62.898 Y133.168 E42.48475
G1 X63.02 Y132.579 E42.52113
G1 X63.311 Y131.497 E42.58891
G1 X63.566 Y130.728 E42.63792
G1 X63.894 Y129.905 E42.69151
G1 X64.382 Y128.861 E42.76123
G1 X64.684 Y128.303 E42.79961
G1 X65.214 Y127.441 E42.86082
G1 X65.787 Y126.626 E42.92109
G1 X66.305 Y125.975 E42.97141
G1 X66.807 Y125.408 E43.01722
G1 X67.701 Y124.514 E43.0937
G1 X68.212 Y124.065 E43.13485
G1 X69.068 Y123.391 E43.20076
G1 X69.617 Y123.007 E43.24128
G1 X70.626 Y122.388 E43.31289
G0 F3150 X70.908 Y122.918
G1 F2100 X71.546 Y122.578 E43.35662
G1 X72.404 Y122.181 E43.41381
G1 X73.221 Y121.859 E43.46693
G1 X73.922 Y121.627 E43.5116
G1 X75.001 Y121.34 E43.57914
G1 X75.591 Y121.218 E43.61559
G1 X76.68 Y121.061 E43.68214
G1 X77.62 Y120.985 E43.73919
G1 X78.331 Y120.968 E43.78221
G1 X100.831 Y120.967 E45.14328
G1 X101.563 Y121.054 E45.18787
G1 X102.144 Y120.968 E45.2234
G1 X118.501 Y120.968 E46.21287
G1 X119.168 Y120.99 E46.25324
G1 X120.246 Y121.093 E46.31874
G1 X121.105 Y121.222 E46.37129
G1 X121.694 Y121.344 E46.40767
G1 X122.826 Y121.652 E46.47864
G1 X123.426 Y121.853 E46.51692
G1 X124.332 Y122.214 E46.57591
G1 X125.203 Y122.622 E46.6341
G1 X125.791 Y122.938 E46.67448
G1 X126.693 Y123.493 E46.73854
G1 X127.243 Y123.878 E46.77915
G1 X128.042 Y124.508 E46.8407
G1 X128.805 Y125.189 E46.90257
G1 X129.229 Y125.614 E46.93888
G1 X129.903 Y126.37 E47.00015
G1 X130.513 Y127.144 E47.05977
G1 X130.898 Y127.694 E47.10038
G1 X131.475 Y128.636 E47.1672
G1 X131.821 Y129.282 E47.21153
G1 X132.215 Y130.134 E47.26831
G1 X132.55 Y130.989 E47.32386
G1 X132.831 Y131.849 E47.37859
G1 X133.003 Y132.494 E47.41897
G1 X133.228 Y133.592 E47.48677
G1 X133.315 Y134.185 E47.52303
G1 X133.414 Y135.351 E47.59382
G1 X133.431 Y136.068 E47.6372
G1 X133.432 Y179.141 E50.24277
G1 X133.156 Y180.454 E50.32393
G1 X132.638 Y181.514 E50.3953
G1 X131.985 Y182.34 E50.45899
G1 X131.406 Y182.83 E50.50488
G1 X130.412 Y183.456 E50.57594
G1 X129.331 Y183.765 E50.64395
G1 X128.572 Y183.884 E50.69042
G1 X100.436 Y183.884 E52.39242
G1 X99.119 Y183.606 E52.47384
G1 X97.853 Y182.977 E52.55936
G1 X97.04 Y182.221 E52.62651
G1 X96.442 Y181.449 E52.68559
G1 X95.89 Y180.441 E52.75511
G1 X95.243 Y179.474 E52.82549
G1 X94.519 Y178.568 E52.89564
G1 X93.949 Y177.974 E52.94544
G1 X93.54 Y177.583 E52.97967
G1 X93.077 Y177.177 E53.01692
G1 X92.681 Y176.859 E53.04764
G1 X92.181 Y176.493 E53.08513
G1 X72.966 Y163.04 E54.50404
G1 X72.22 Y162.485 E54.56029
G1 X71.379 Y161.806 E54.62567
G1 X70.638 Y161.149 E54.68558
G1 X69.979 Y160.516 E54.74086
G1 X69.227 Y159.723 E54.80697
G1 X68.584 Y158.982 E54.86631
G1 X67.93 Y158.157 E54.93
G1 X67.339 Y157.346 E54.9907
G1 X66.835 Y156.588 E55.04576
G1 X66.262 Y155.635 E55.11303
G1 X65.794 Y154.777 E55.17215
G1 X65.395 Y153.965 E55.22688
G1 X64.939 Y152.915 E55.29613
G1 X64.587 Y151.999 E55.35549
G1 X64.284 Y151.096 E55.41311
G1 X64.004 Y150.123 E55.47435
G1 X63.753 Y149.074 E55.5396
G1 X63.564 Y148.088 E55.60033
G1 X63.41 Y147.072 E55.66249
G1 X63.309 Y146.084 E55.72257
G1 X63.248 Y145.086 E55.78306
G1 X63.231 Y144.31 E55.83001
G1 X63.231 Y135.902 E56.33862
G1 X63.251 Y135.268 E56.377
G1 X63.357 Y134.15 E56.44493
G1 X63.486 Y133.29 E56.49753
G1 X63.608 Y132.701 E56.53392
G1 X63.881 Y131.686 E56.5975
G1 X64.136 Y130.917 E56.64651
G1 X64.451 Y130.127 E56.69796
G1 X64.91 Y129.147 E56.76342
G1 X65.212 Y128.589 E56.8018
G1 X65.725 Y127.756 E56.86098
G1 X66.257 Y127 E56.9169
G1 X66.775 Y126.349 E56.96723
G1 X67.256 Y125.806 E57.01111
G1 X68.097 Y124.965 E57.08305
G1 X68.608 Y124.516 E57.1242
G1 X69.412 Y123.883 E57.1861
G1 X69.961 Y123.499 E57.22663
G1 X70.908 Y122.918 E57.29384
G0 F3150 X71.191 Y123.447
G1 F2100 X71.798 Y123.123 E57.33546
G1 X72.656 Y122.726 E57.39265
G1 X73.41 Y122.429 E57.44167
G1 X74.111 Y122.197 E57.48634
G1 X75.122 Y121.928 E57.54962
G1 X75.712 Y121.806 E57.58607
G1 X76.765 Y121.655 E57.65042
G1 X77.635 Y121.585 E57.70321
G1 X78.331 Y121.568 E57.74533
G1 X100.831 Y121.567 E59.1064
G1 X101.573 Y121.66 E59.15163
G1 X102.144 Y121.568 E59.18662
G1 X118.481 Y121.568 E60.17487
G1 X119.148 Y121.59 E60.21524
G1 X120.157 Y121.686 E60.27656
G1 X120.983 Y121.81 E60.32708
G1 X121.572 Y121.932 E60.36347
G1 X122.635 Y122.221 E60.43011
G1 X123.235 Y122.422 E60.46838
G1 X124.109 Y122.771 E60.52531
G1 X124.919 Y123.151 E60.57943
G1 X125.507 Y123.467 E60.61981
G1 X126.349 Y123.985 E60.67962
G1 X126.899 Y124.37 E60.72023
G1 X127.643 Y124.956 E60.77752
G1 X128.38 Y125.613 E60.83724
G1 X128.804 Y126.038 E60.87356
G1 X129.455 Y126.769 E60.93277
G1 X130.021 Y127.488 E60.98812
G1 X130.406 Y128.038 E61.02874
G1 X130.946 Y128.92 E61.0913
G1 X131.276 Y129.534 E61.13346
G1 X131.67 Y130.386 E61.19024
G1 X131.98 Y131.175 E61.24152
G1 X132.251 Y132.004 E61.29428
G1 X132.423 Y132.649 E61.33466
G1 X132.634 Y133.679 E61.39827
G1 X132.721 Y134.272 E61.43452
G1 X132.814 Y135.366 E61.50094
G1 X132.831 Y136.068 E61.54342
G1 X132.832 Y179.08 E64.14529
G1 X132.585 Y180.256 E64.21798
G1 X132.127 Y181.192 E64.28102
G1 X131.55 Y181.922 E64.33731
G1 X131.086 Y182.322 E64.37436
G1 X130.163 Y182.903 E64.44034
G1 X129.238 Y183.172 E64.49861
G1 X128.524 Y183.284 E64.54233
G1 X100.498 Y183.284 E66.23768
G1 X99.317 Y183.035 E66.31069
G1 X98.199 Y182.479 E66.38622
G1 X97.485 Y181.815 E66.4452
G1 X96.944 Y181.117 E66.49862
G1 X96.399 Y180.122 E66.56725
G1 X95.728 Y179.119 E66.64025
G1 X94.976 Y178.178 E66.71311
G1 X94.364 Y177.54 E66.76659
G1 X93.955 Y177.149 E66.80082
G1 X93.46 Y176.715 E66.84064
G1 X93.057 Y176.391 E66.87192
G1 X92.535 Y176.009 E66.91105
G1 X73.324 Y162.558 E68.3297
G1 X72.597 Y162.018 E68.38448
G1 X71.777 Y161.357 E68.4482
G1 X71.053 Y160.716 E68.50669
G1 X70.414 Y160.103 E68.56026
G1 X69.68 Y159.33 E68.62474
G1 X69.054 Y158.609 E68.6825
G1 X68.415 Y157.804 E68.74467
G1 X67.839 Y157.014 E68.80381
G1 X67.335 Y156.256 E68.85888
G1 X66.789 Y155.348 E68.92297
G1 X66.333 Y154.512 E68.98057
G1 X65.934 Y153.7 E69.0353
G1 X65.499 Y152.7 E69.10127
G1 X65.156 Y151.808 E69.15908
G1 X64.861 Y150.93 E69.21511
G1 X64.581 Y149.957 E69.27636
G1 X64.342 Y148.961 E69.33832
G1 X64.157 Y147.998 E69.39764
G1 X64.007 Y147.011 E69.45803
G1 X63.908 Y146.047 E69.51665
G1 X63.848 Y145.073 E69.57568
G1 X63.831 Y144.297 E69.62263
G1 X63.831 Y135.921 E70.12931
G1 X63.851 Y135.287 E70.16768
G1 X63.95 Y134.239 E70.23136
G1 X64.074 Y133.412 E70.28195
G1 X64.196 Y132.823 E70.31833
G1 X64.451 Y131.875 E70.37772
G1 X64.706 Y131.106 E70.42673
G1 X65.008 Y130.35 E70.47597
G1 X65.438 Y129.433 E70.53724
G1 X65.74 Y128.875 E70.57562
G1 X66.216 Y128.101 E70.63059
G1 X66.727 Y127.374 E70.68434
G1 X67.245 Y126.723 E70.73467
G1 X67.705 Y126.204 E70.77662
G1 X68.493 Y125.416 E70.84403
G1 X69.004 Y124.967 E70.88518
G1 X69.756 Y124.375 E70.94307
G1 X70.305 Y123.991 E70.9836
G1 X71.191 Y123.447 E71.04649
G0 F3150 X71.474 Y123.976
G1 F2100 X72.05 Y123.668 E71.08601
G1 X72.908 Y123.271 E71.1432
G1 X73.629 Y122.988 E71.19005
G1 X74.299 Y122.767 E71.23273
G1 X75.243 Y122.516 E71.29182
