;FLAVOR:Repetier
;TIME:3435
;MINX:45.112
;MINY:130.388
;MINZ:0.25
;MAXX:125.162
;MAXY:169.534
;MAXZ:28
;TARGET_MACHINE.NAME:Prusa i3 Mk2
;Generated with Cura_SteamEngine 5.6.0
M104 S240
M109 S240
M82 ;absolute extrusion mode
G28
G92 E0
G92 E0
G1 F3000 E-1
;LAYER_COUNT:112
;LAYER:0
M107
G0 F3150 X55.739 Y131.594 Z0.25
;TYPE:SKIRT
G1 F3000 E0
G1 F2100 X55.073 Y131.879 E0.04382
G1 X53.957 Y132.427 E0.11903
G1 X53.471 Y132.701 E0.15278
G1 X52.395 Y133.386 E0.22994
G1 X51.943 Y133.71 E0.26358
G1 X51.132 Y134.36 E0.32645
G1 X50.276 Y135.124 E0.39586
G1 X49.881 Y135.518 E0.42961
G1 X49.035 Y136.459 E0.50615
G1 X48.674 Y136.908 E0.541
G1 X48.1 Y137.697 E0.60003
G1 X47.522 Y138.592 E0.66447
G1 X47.164 Y139.22 E0.7082
G1 X46.61 Y140.321 E0.78276
G1 X46.382 Y140.847 E0.81744
G1 X46.003 Y141.876 E0.88377
G1 X45.716 Y142.797 E0.94213
G1 X45.55 Y143.45 E0.98289
G1 X45.304 Y144.726 E1.0615
G1 X45.229 Y145.28 E1.09531
G1 X45.145 Y146.194 E1.15084
G1 X45.112 Y147.049 E1.2026
G1 X45.112 Y163.028 E2.16919
G1 X45.382 Y164.739 E2.27398
G1 X46.168 Y166.3 E2.3797
G1 X47.241 Y167.684 E2.48563
G1 X48.764 Y168.725 E2.59723
G1 X49.854 Y169.181 E2.6687
G1 X51.382 Y169.534 E2.76357
G1 X118.656 Y169.534 E6.8331
G1 X120.367 Y169.264 E6.93788
G1 X121.928 Y168.478 E7.0436
G1 X123.312 Y167.405 E7.14954
G1 X124.353 Y165.882 E7.26113
G1 X124.809 Y164.792 E7.33261
G1 X125.162 Y163.264 E7.42747
G1 X125.162 Y150.389 E8.2063
G1 X125.093 Y149.814 E8.24134
G1 X125.162 Y149.24 E8.27631
G1 X125.151 Y144.88 E8.54006
G1 X125.088 Y143.869 E8.60133
G1 X124.712 Y141.702 E8.73438
G1 X124.215 Y140.085 E8.83671
G1 X123.663 Y138.787 E8.92203
G1 X122.48 Y136.778 E9.06306
G1 X121.456 Y135.468 E9.16364
G1 X120.307 Y134.295 E9.26297
G1 X119.011 Y133.239 E9.3641
G1 X117.252 Y132.142 E9.4895
G1 X115.899 Y131.504 E9.57999
G1 X113.656 Y130.79 E9.72238
G1 X112.363 Y130.542 E9.80202
G1 X111.203 Y130.417 E9.8726
G1 X62.004 Y130.388 E12.84874
G1 X61.309 Y130.403 E12.89079
G1 X60.017 Y130.503 E12.96918
G1 X59.456 Y130.579 E13.00343
G1 X58.331 Y130.795 E13.07272
G1 X57.604 Y130.974 E13.11801
G1 X56.729 Y131.238 E13.1733
G1 X55.739 Y131.594 E13.23694
G0 F3150 X55.975 Y132.146
G1 F2100 X56.902 Y131.812 E13.29655
G1 X57.747 Y131.557 E13.34994
G1 X58.474 Y131.378 E13.39523
G1 X59.537 Y131.174 E13.46071
G1 X60.098 Y131.098 E13.49495
G1 X61.322 Y131.003 E13.56922
G1 X62.004 Y130.988 E13.61048
G1 X111.139 Y131.014 E16.58275
G1 X112.299 Y131.139 E16.65333
G1 X113.474 Y131.362 E16.72568
G1 X115.717 Y132.076 E16.86807
G1 X116.936 Y132.652 E16.94962
G1 X118.633 Y133.705 E17.07044
G1 X119.879 Y134.716 E17.1675
G1 X120.983 Y135.838 E17.26272
G1 X122.007 Y137.148 E17.3633
G1 X123.111 Y139.023 E17.49492
G1 X123.641 Y140.261 E17.57639
G1 X124.138 Y141.878 E17.67872
G1 X124.489 Y143.906 E17.80322
G1 X124.552 Y144.917 E17.86449
G1 X124.562 Y149.241 E18.12606
G1 X124.488 Y149.814 E18.16101
G1 X124.562 Y150.389 E18.19608
G1 X124.562 Y163.194 E18.97068
G1 X124.235 Y164.611 E19.05865
G1 X123.824 Y165.593 E19.12305
G1 X122.869 Y166.99 E19.22541
G1 X121.609 Y167.966 E19.32182
G1 X120.182 Y168.685 E19.41848
G1 X118.606 Y168.934 E19.515
G1 X51.452 Y168.934 E23.57727
G1 X50.035 Y168.607 E23.66524
G1 X49.053 Y168.196 E23.72964
G1 X47.656 Y167.241 E23.832
G1 X46.68 Y165.981 E23.92841
G1 X45.961 Y164.554 E24.02507
G1 X45.712 Y162.978 E24.12159
G1 X45.712 Y147.072 E25.08378
G1 X45.745 Y146.217 E25.13554
G1 X45.824 Y145.36 E25.1876
G1 X45.899 Y144.806 E25.22142
G1 X46.132 Y143.598 E25.29584
G1 X46.298 Y142.945 E25.33659
G1 X46.566 Y142.083 E25.3912
G1 X46.933 Y141.086 E25.45547
G1 X47.161 Y140.56 E25.49015
G1 X47.7 Y139.49 E25.56262
G1 X48.026 Y138.918 E25.60245
G1 X48.604 Y138.023 E25.6669
G1 X49.142 Y137.284 E25.72219
G1 X49.503 Y136.835 E25.75704
G1 X50.305 Y135.943 E25.8296
G1 X50.7 Y135.549 E25.86335
G1 X51.507 Y134.828 E25.92881
G1 X52.293 Y134.198 E25.98975
G1 X52.745 Y133.874 E26.02339
G1 X53.766 Y133.224 E26.09661
G1 X54.252 Y132.95 E26.13036
G1 X55.309 Y132.431 E26.20159
G1 X55.975 Y132.146 E26.24541
G0 F3150 X56.211 Y132.698
G1 F2100 X57.076 Y132.386 E26.30104
G1 X57.89 Y132.14 E26.35247
G1 X58.617 Y131.961 E26.39777
G1 X59.618 Y131.769 E26.45942
G1 X60.179 Y131.693 E26.49367
G1 X61.335 Y131.603 E26.56381
G1 X62.004 Y131.588 E26.60429
G1 X111.139 Y131.614 E29.57656
G1 X112.189 Y131.729 E29.64045
G1 X113.293 Y131.934 E29.70838
G1 X115.462 Y132.619 E29.84597
G1 X116.621 Y133.163 E29.92342
G1 X118.256 Y134.172 E30.03964
G1 X119.452 Y135.138 E30.13264
G1 X120.51 Y136.208 E30.22367
G1 X121.534 Y137.518 E30.32425
G1 X122.56 Y139.261 E30.4466
G1 X123.067 Y140.437 E30.52406
G1 X123.564 Y142.054 E30.6264
G1 X123.89 Y143.943 E30.74235
G1 X123.953 Y144.954 E30.80363
G1 X123.962 Y149.242 E31.06302
G1 X123.882 Y149.814 E31.09796
G1 X123.962 Y150.389 E31.13308
G1 X123.962 Y163.124 E31.90344
G1 X123.661 Y164.43 E31.98451
G1 X123.295 Y165.304 E32.04183
G1 X122.427 Y166.573 E32.13484
G1 X121.288 Y167.456 E32.22202
G1 X119.996 Y168.107 E32.30953
G1 X118.557 Y168.334 E32.39766
G1 X51.522 Y168.334 E36.45273
G1 X50.216 Y168.033 E36.5338
G1 X49.342 Y167.667 E36.59112
G1 X48.073 Y166.799 E36.68412
G1 X47.19 Y165.66 E36.7713
G1 X46.539 Y164.368 E36.85882
G1 X46.312 Y162.929 E36.94694
G1 X46.312 Y147.095 E37.90477
G1 X46.343 Y146.272 E37.95459
G1 X46.419 Y145.44 E38.00513
G1 X46.494 Y144.886 E38.03895
G1 X46.714 Y143.746 E38.10918
G1 X46.88 Y143.093 E38.14994
G1 X47.139 Y142.262 E38.20259
G1 X47.484 Y141.325 E38.263
G1 X47.712 Y140.799 E38.29767
G1 X48.222 Y139.786 E38.36628
G1 X48.53 Y139.244 E38.40399
G1 X49.108 Y138.349 E38.46844
G1 X49.61 Y137.66 E38.52001
G1 X49.971 Y137.211 E38.55486
G1 X50.729 Y136.368 E38.62344
G1 X51.124 Y135.974 E38.65719
G1 X51.883 Y135.296 E38.71875
G1 X52.643 Y134.686 E38.7777
G1 X53.095 Y134.362 E38.81134
G1 X54.061 Y133.747 E38.88062
G1 X54.547 Y133.473 E38.91436
G1 X55.545 Y132.983 E38.98162
G1 X56.211 Y132.698 E39.02544
G0 F3150 X56.447 Y133.25
G1 F2100 X57.25 Y132.96 E39.07709
G1 X58.033 Y132.723 E39.12657
G1 X58.76 Y132.544 E39.17186
G1 X59.699 Y132.364 E39.2297
G1 X60.26 Y132.288 E39.26395
G1 X61.349 Y132.203 E39.33002
G1 X62.004 Y132.188 E39.36966
G1 X111.075 Y132.211 E42.33805
G1 X112.079 Y132.319 E42.39914
G1 X113.183 Y132.524 E42.46706
G1 X115.209 Y133.163 E42.59557
G1 X116.307 Y133.674 E42.66883
G1 X117.88 Y134.639 E42.78046
G1 X119.026 Y135.561 E42.86944
G1 X120.037 Y136.578 E42.95618
G1 X121.061 Y137.888 E43.05677
G1 X122.01 Y139.5 E43.16992
G1 X122.493 Y140.613 E43.24331
G1 X122.99 Y142.23 E43.34565
G1 X123.291 Y143.98 E43.45306
G1 X123.354 Y144.991 E43.51434
G1 X123.362 Y149.243 E43.77155
G1 X123.275 Y149.814 E43.80649
G1 X123.362 Y150.389 E43.84167
G1 X123.362 Y163.054 E44.6078
G1 X123.087 Y164.249 E44.68197
G1 X122.766 Y165.015 E44.73222
G1 X121.985 Y166.156 E44.81586
G1 X120.966 Y166.946 E44.89385
G1 X119.81 Y167.529 E44.97217
G1 X118.508 Y167.734 E45.0519
G1 X51.592 Y167.734 E49.09978
G1 X50.397 Y167.459 E49.17395
G1 X49.631 Y167.138 E49.22419
G1 X48.49 Y166.357 E49.30784
G1 X47.7 Y165.338 E49.38583
G1 X47.117 Y164.182 E49.46415
G1 X46.912 Y162.88 E49.54388
G1 X46.912 Y147.118 E50.49735
G1 X46.943 Y146.295 E50.54717
G1 X47.014 Y145.52 E50.59425
G1 X47.089 Y144.966 E50.62807
G1 X47.296 Y143.894 E50.69411
G1 X47.462 Y143.241 E50.73487
G1 X47.702 Y142.469 E50.78378
G1 X48.035 Y141.564 E50.84211
G1 X48.263 Y141.038 E50.87679
G1 X48.744 Y140.082 E50.94153
G1 X49.052 Y139.54 E50.97924
G1 X49.593 Y138.702 E51.03958
G1 X50.078 Y138.036 E51.08941
G1 X50.439 Y137.587 E51.12427
G1 X51.153 Y136.793 E51.18886
G1 X51.548 Y136.399 E51.22261
G1 X52.282 Y135.744 E51.28212
G1 X52.993 Y135.174 E51.33724
G1 X53.445 Y134.85 E51.37088
G1 X54.356 Y134.27 E51.43621
G1 X54.842 Y133.996 E51.46996
G1 X55.781 Y133.535 E51.53324
G1 X56.447 Y133.25 E51.57706
G0 F3150 X56.683 Y133.802
G1 F2100 X57.454 Y133.524 E51.62664
G1 X58.176 Y133.306 E51.67226
G1 X58.903 Y133.127 E51.71755
G1 X59.78 Y132.959 E51.77157
G1 X60.341 Y132.883 E51.80582
G1 X61.363 Y132.803 E51.86783
G1 X62.004 Y132.788 E51.90661
G1 X111.012 Y132.808 E54.8712
G1 X111.969 Y132.909 E54.92941
G1 X113.073 Y133.114 E54.99734
G1 X114.958 Y133.708 E55.11689
G1 X115.994 Y134.186 E55.18591
G1 X117.505 Y135.108 E55.29299
G1 X118.6 Y135.984 E55.37781
G1 X119.611 Y137.001 E55.46456
G1 X120.587 Y138.256 E55.56073
G1 X121.46 Y139.741 E55.66493
G1 X121.919 Y140.789 E55.73414
G1 X122.416 Y142.406 E55.83647
G1 X122.692 Y144.017 E55.93535
G1 X122.755 Y145.028 E55.99662
G1 X122.762 Y149.244 E56.25166
G1 X122.666 Y149.814 E56.28662
G1 X122.762 Y150.389 E56.32189
G1 X122.762 Y162.984 E57.08378
G1 X122.513 Y164.065 E57.15089
G1 X122.236 Y164.728 E57.19435
G1 X121.542 Y165.741 E57.26863
G1 X120.647 Y166.434 E57.3371
G1 X119.624 Y166.95 E57.40641
G1 X118.458 Y167.134 E57.47782
G1 X51.662 Y167.134 E61.51844
G1 X50.581 Y166.885 E61.58554
G1 X49.918 Y166.608 E61.62901
G1 X48.905 Y165.914 E61.70329
G1 X48.212 Y165.019 E61.77176
G1 X47.696 Y163.996 E61.84107
G1 X47.512 Y162.83 E61.91247
G1 X47.512 Y147.14 E62.86159
G1 X47.541 Y146.349 E62.90947
G1 X47.609 Y145.6 E62.95497
G1 X47.684 Y145.046 E62.98879
G1 X47.878 Y144.042 E63.05064
G1 X48.044 Y143.389 E63.0914
G1 X48.275 Y142.648 E63.13835
G1 X48.586 Y141.803 E63.19282
G1 X48.814 Y141.277 E63.2275
G1 X49.266 Y140.378 E63.28837
G1 X49.574 Y139.836 E63.32608
G1 X50.078 Y139.055 E63.38231
G1 X50.546 Y138.412 E63.43041
G1 X50.907 Y137.963 E63.46527
G1 X51.577 Y137.218 E63.52588
G1 X51.972 Y136.824 E63.55962
G1 X52.657 Y136.212 E63.61519
G1 X53.343 Y135.662 E63.66838
G1 X53.795 Y135.338 E63.70202
G1 X54.651 Y134.793 E63.76341
G1 X55.137 Y134.519 E63.79716
G1 X56.017 Y134.087 E63.85646
G1 X56.683 Y133.802 E63.90028
G0 F3150 X56.919 Y134.354
G1 F2100 X56.253 Y134.639 E63.9441
G1 X55.432 Y135.042 E63.99942
G1 X54.946 Y135.316 E64.03317
G1 X54.145 Y135.826 E64.09061
G1 X53.693 Y136.15 E64.12426
G1 X53.033 Y136.68 E64.17546
G1 X52.396 Y137.249 E64.22713
G1 X52.001 Y137.643 E64.26088
G1 X51.375 Y138.339 E64.3175
G1 X51.014 Y138.788 E64.35235
G1 X50.563 Y139.408 E64.39873
G1 X50.096 Y140.132 E64.45085
G1 X49.788 Y140.674 E64.48856
G1 X49.365 Y141.516 E64.54556
G1 X49.137 Y142.042 E64.58024
G1 X48.838 Y142.855 E64.63264
G1 X48.626 Y143.537 E64.67584
G1 X48.46 Y144.19 E64.7166
G1 X48.279 Y145.126 E64.77427
G1 X48.204 Y145.68 E64.80809
G1 X48.139 Y146.403 E64.852
G1 X48.112 Y147.161 E64.89788
G1 X48.112 Y162.781 E65.84276
G1 X48.274 Y163.81 E65.90578
G1 X48.723 Y164.7 E65.96608
G1 X49.32 Y165.471 E66.02507
G1 X50.205 Y166.077 E66.08995
G1 X50.765 Y166.311 E66.12666
G1 X51.732 Y166.534 E66.18669
G1 X118.409 Y166.534 E70.22011
G1 X119.438 Y166.372 E70.28312
G1 X120.328 Y165.923 E70.34342
G1 X121.099 Y165.326 E70.40241
G1 X121.705 Y164.441 E70.46729
G1 X121.939 Y163.881 E70.50401
G1 X122.162 Y162.914 E70.56404
G1 X122.162 Y150.439 E71.31867
G1 X122.058 Y149.813 E71.35706
G1 X122.162 Y149.193 E71.39509
G1 X122.156 Y145.065 E71.6448
G1 X122.093 Y144.054 E71.70608
G1 X121.842 Y142.582 E71.79641
G1 X121.345 Y140.965 E71.89874
G1 X120.911 Y139.984 E71.96363
G1 X120.07 Y138.561 E72.06362
G1 X119.185 Y137.424 E72.15078
G1 X118.174 Y136.407 E72.23752
G1 X117.131 Y135.577 E72.31815
G1 X115.683 Y134.699 E72.42059
G1 X114.709 Y134.254 E72.48537
G1 X112.963 Y133.704 E72.5961
G1 X111.859 Y133.499 E72.66403
G1 X110.95 Y133.405 E72.71931
G1 X62.004 Y133.388 E75.68014
G1 X61.377 Y133.403 E75.71808
G1 X60.422 Y133.478 E75.77603
G1 X59.861 Y133.554 E75.81028
G1 X59.046 Y133.71 E75.86047
G1 X58.319 Y133.889 E75.90576
G1 X57.628 Y134.098 E75.94943
G1 X56.919 Y134.354 E75.99503
G0 F3150 X57.155 Y134.906
G1 F2100 X57.802 Y134.672 E76.03665
G1 X58.462 Y134.472 E76.07837
G1 X59.189 Y134.293 E76.12366
G1 X59.942 Y134.149 E76.17004
G1 X60.503 Y134.073 E76.20428
G1 X61.392 Y134.003 E76.25823
G1 X62.004 Y133.988 E76.29526
G1 X110.89 Y134.002 E79.25246
G1 X111.749 Y134.089 E79.30469
G1 X112.853 Y134.294 E79.37262
G1 X114.462 Y134.801 E79.47467
G1 X115.373 Y135.213 E79.53515
G1 X116.759 Y136.048 E79.63303
G1 X117.748 Y136.83 E79.7093
G1 X118.759 Y137.847 E79.79604
G1 X119.554 Y138.868 E79.87432
G1 X120.362 Y140.227 E79.96996
G1 X120.796 Y141.208 E80.03485
G1 X121.251 Y142.684 E80.12829
G1 X121.494 Y144.091 E80.21466
G1 X121.557 Y145.102 E80.27593
G1 X121.562 Y149.142 E80.52032
G1 X121.45 Y149.812 E80.56141
G1 X121.562 Y150.489 E80.60292
G1 X121.562 Y162.844 E81.3503
G1 X121.354 Y163.746 E81.40629
G1 X121.21 Y164.102 E81.42953
G1 X120.657 Y164.909 E81.4887
G1 X120.007 Y165.413 E81.53846
G1 X119.252 Y165.793 E81.58959
G1 X118.359 Y165.934 E81.64428
G1 X51.802 Y165.934 E85.67043
G1 X50.9 Y165.726 E85.72643
G1 X50.544 Y165.582 E85.74966
G1 X49.737 Y165.029 E85.80884
G1 X49.233 Y164.379 E85.85859
G1 X48.853 Y163.624 E85.90972
G1 X48.712 Y162.731 E85.96441
G1 X48.712 Y147.182 E86.905
G1 X48.737 Y146.456 E86.94894
G1 X48.799 Y145.76 E86.99121
G1 X48.874 Y145.206 E87.02503
G1 X49.042 Y144.338 E87.07851
G1 X49.208 Y143.685 E87.11927
G1 X49.411 Y143.034 E87.16052
G1 X49.688 Y142.281 E87.20905
G1 X49.916 Y141.755 E87.24373
G1 X50.31 Y140.97 E87.29687
G1 X50.618 Y140.428 E87.33458
G1 X51.048 Y139.761 E87.38258
G1 X51.482 Y139.164 E87.42723
G1 X51.843 Y138.715 E87.46208
G1 X52.425 Y138.068 E87.51472
G1 X52.82 Y137.674 E87.54847
G1 X53.432 Y137.128 E87.59809
G1 X54.043 Y136.638 E87.64546
G1 X54.495 Y136.314 E87.67911
G1 X55.241 Y135.839 E87.7326
G1 X55.727 Y135.565 E87.76635
G1 X56.489 Y135.191 E87.8177
G1 X57.155 Y134.906 E87.86152
G0 F3150 X57.36 Y135.47
G1 F2100 X56.726 Y135.742 E87.90325
G1 X56.022 Y136.088 E87.95071
G1 X55.536 Y136.362 E87.98446
G1 X54.845 Y136.802 E88.03401
G1 X54.393 Y137.126 E88.06765
G1 X53.807 Y137.596 E88.11309
G1 X53.244 Y138.099 E88.15876
G1 X52.849 Y138.493 E88.19251
G1 X52.311 Y139.091 E88.24117
G1 X51.95 Y139.54 E88.27602
G1 X51.533 Y140.114 E88.31894
G1 X51.14 Y140.724 E88.36283
G1 X50.832 Y141.266 E88.40055
G1 X50.467 Y141.994 E88.44981
G1 X50.239 Y142.52 E88.48449
G1 X49.974 Y143.241 E88.53095
G1 X49.79 Y143.833 E88.56846
G1 X49.624 Y144.486 E88.60921
G1 X49.469 Y145.286 E88.65851
G1 X49.394 Y145.84 E88.69233
G1 X49.335 Y146.509 E88.73295
G1 X49.312 Y147.202 E88.7749
G1 X49.312 Y162.682 E89.71131
G1 X49.431 Y163.438 E89.7576
G1 X49.743 Y164.057 E89.79954
G1 X50.154 Y164.587 E89.84011
G1 X50.831 Y165.051 E89.88976
G1 X51.035 Y165.141 E89.90324
G1 X51.872 Y165.334 E89.9552
G1 X118.31 Y165.334 E93.97416
G1 X119.066 Y165.215 E94.02046
G1 X119.685 Y164.903 E94.06239
G1 X120.215 Y164.492 E94.10296
G1 X120.679 Y163.815 E94.15261
G1 X120.769 Y163.611 E94.1661
G1 X120.962 Y162.774 E94.21806
G1 X120.962 Y150.54 E94.95812
G1 X120.871 Y149.961 E94.99357
G1 X120.818 Y149.787 E95.00457
G1 X120.876 Y149.603 E95.01624
G1 X120.962 Y149.091 E95.04765
G1 X120.958 Y145.139 E95.28671
G1 X120.895 Y144.128 E95.34799
G1 X120.66 Y142.788 E95.43029
G1 X120.247 Y141.451 E95.51493
G1 X119.813 Y140.47 E95.57982
G1 X119.039 Y139.176 E95.67104
G1 X118.333 Y138.27 E95.74052
G1 X117.322 Y137.253 E95.82726
G1 X116.448 Y136.561 E95.8947
G1 X115.126 Y135.76 E95.9882
G1 X114.215 Y135.348 E96.04868
G1 X112.743 Y134.884 E96.14205
G1 X111.639 Y134.679 E96.20997
G1 X110.831 Y134.599 E96.25909
G1 X62.004 Y134.588 E99.21272
G1 X61.407 Y134.603 E99.24885
G1 X60.584 Y134.668 E99.29879
G1 X60.023 Y134.744 E99.33304
G1 X59.332 Y134.876 E99.37559
G1 X58.605 Y135.055 E99.42088
G1 X57.977 Y135.246 E99.46059
G1 X57.36 Y135.47 E99.5003
G0 F3150 X57.565 Y136.034
G1 F2100 X58.153 Y135.82 E99.53815
G1 X58.748 Y135.638 E99.57579
G1 X59.475 Y135.459 E99.62108
G1 X60.104 Y135.339 E99.65981
G1 X60.665 Y135.263 E99.69406
G1 X61.422 Y135.203 E99.73999
G1 X62.004 Y135.188 E99.77521
G1 X110.773 Y135.196 E102.72534
G1 X111.529 Y135.269 E102.77129
G1 X112.633 Y135.474 E102.83921
G1 X113.968 Y135.895 E102.92389
G1 X114.879 Y136.307 E102.98437
G1 X116.077 Y137.033 E103.06911
G1 X116.896 Y137.676 E103.13209
G1 X117.907 Y138.693 E103.21884
G1 X118.525 Y139.485 E103.27961
G1 X119.265 Y140.715 E103.36644
G1 X119.674 Y141.63 E103.42707
G1 X120.069 Y142.893 E103.50712
G1 X120.296 Y144.165 E103.58528
G1 X120.359 Y145.176 E103.64656
G1 X120.362 Y149.04 E103.8803
G1 X120.284 Y149.504 E103.90876
