;FLAVOR:Repetier
;TIME:4660
;MINX:50.35
;MINY:120.585
;MINZ:0.25
;MAXX:124.15
;MAXY:187.102
;MAXZ:32
;TARGET_MACHINE.NAME:Prusa i3 Mk2
;Generated with Cura_SteamEngine 5.6.0
M104 S240
M109 S240
M82 ;absolute extrusion mode
G28
G92 E0
G92 E0
G1 F3000 E-1
;LAYER_COUNT:128
;LAYER:0
M107
G0 F3150 X85.11 Y122.322 Z0.25
;TYPE:SKIRT
G1 F3000 E0
G1 F2100 X86.641 Y121.265 E0.11254
G1 X88.092 Y120.779 E0.20511
G1 X89.318 Y120.585 E0.28019
G1 X117.88 Y120.585 E2.00796
G1 X119.408 Y120.938 E2.10283
G1 X120.498 Y121.394 E2.1743
G1 X122.021 Y122.435 E2.2859
G1 X123.094 Y123.819 E2.39183
G1 X123.88 Y125.38 E2.49755
G1 X124.15 Y127.091 E2.60234
G1 X124.15 Y170.442 E5.22472
G1 X124.118 Y171.282 E5.27557
G1 X124.03 Y172.21 E5.33196
G1 X123.877 Y173.241 E5.39501
G1 X123.713 Y174.032 E5.44387
G1 X123.474 Y174.935 E5.50038
G1 X123.111 Y176.028 E5.57005
G1 X122.776 Y176.871 E5.62492
G1 X122.259 Y177.975 E5.69866
G1 X121.97 Y178.509 E5.73539
G1 X121.278 Y179.626 E5.81488
G1 X120.786 Y180.318 E5.86624
G1 X120.061 Y181.224 E5.93643
G1 X119.594 Y181.747 E5.97885
G1 X118.9 Y182.444 E6.03835
G1 X118.008 Y183.234 E6.11043
G1 X117.294 Y183.795 E6.16535
G1 X116.668 Y184.236 E6.21168
G1 X115.609 Y184.885 E6.28681
G1 X114.655 Y185.394 E6.35222
G1 X114.115 Y185.646 E6.38827
G1 X112.828 Y186.153 E6.47194
G1 X112.127 Y186.382 E6.51655
G1 X111.115 Y186.652 E6.57991
G1 X110.085 Y186.862 E6.6435
G1 X109.321 Y186.974 E6.69021
G1 X108.041 Y187.082 E6.76791
G1 X107.203 Y187.101 E6.81862
G1 X90.845 Y187.102 E7.80815
G1 X90.467 Y187.042 E7.8313
G1 X90.023 Y187.096 E7.85835
G1 X67.027 Y187.101 E9.24943
G1 X66.392 Y187.081 E9.28786
G1 X65.065 Y186.954 E9.3685
G1 X64.105 Y186.81 E9.42722
G1 X63.516 Y186.688 E9.4636
G1 X62.3 Y186.361 E9.53978
G1 X61.531 Y186.106 E9.58878
G1 X60.578 Y185.725 E9.65087
G1 X59.471 Y185.206 E9.72483
G1 X58.913 Y184.904 E9.76321
G1 X57.908 Y184.285 E9.83461
G1 X57.238 Y183.816 E9.88408
G1 X56.23 Y183.014 E9.962
G1 X55.689 Y182.531 E10.00588
G1 X54.976 Y181.818 E10.06687
G1 X54.249 Y180.999 E10.13312
G1 X53.665 Y180.256 E10.19028
G1 X53.108 Y179.455 E10.2493
G1 X52.61 Y178.642 E10.30697
G1 X52.06 Y177.61 E10.37771
G1 X51.715 Y176.859 E10.42771
G1 X51.392 Y176.046 E10.48063
G1 X51.039 Y174.97 E10.54913
G1 X50.757 Y173.905 E10.61577
G1 X50.635 Y173.316 E10.65216
G1 X50.444 Y171.956 E10.73524
G1 X50.367 Y170.982 E10.79434
G1 X50.35 Y170.408 E10.82908
G1 X50.35 Y161.893 E11.34417
G1 X50.379 Y160.818 E11.40922
G1 X50.432 Y160.023 E11.45742
G1 X50.588 Y158.637 E11.54179
G1 X50.747 Y157.64 E11.60286
G1 X50.983 Y156.503 E11.6731
G1 X51.248 Y155.455 E11.7385
G1 X51.557 Y154.416 E11.80407
G1 X51.882 Y153.469 E11.86463
G1 X52.287 Y152.438 E11.93164
G1 X52.698 Y151.511 E11.99298
G1 X53.208 Y150.487 E12.06218
G1 X53.777 Y149.465 E12.13294
G1 X54.336 Y148.553 E12.19765
G1 X54.842 Y147.798 E12.25263
G1 X55.573 Y146.81 E12.32697
G1 X56.274 Y145.948 E12.39418
G1 X56.996 Y145.133 E12.46005
G1 X57.608 Y144.495 E12.51353
G1 X58.525 Y143.623 E12.59007
G1 X59.184 Y143.047 E12.64302
G1 X60.226 Y142.212 E12.72379
G1 X60.939 Y141.692 E12.77717
G1 X80.052 Y128.311 E14.18854
G1 X80.547 Y127.947 E14.22571
G1 X81.038 Y127.552 E14.26383
G1 X81.779 Y126.844 E14.32582
G1 X82.307 Y126.24 E14.37435
G1 X82.681 Y125.776 E14.4104
G1 X83.124 Y125.116 E14.45849
G1 X83.957 Y123.713 E14.55719
G1 X84.697 Y122.732 E14.63152
G1 X85.11 Y122.322 E14.66673
G0 F3150 X85.492 Y122.787
G1 F2100 X86.912 Y121.807 E14.77109
G1 X88.234 Y121.364 E14.85544
G1 X89.368 Y121.185 E14.92488
G1 X117.81 Y121.185 E16.64539
G1 X119.227 Y121.512 E16.73336
G1 X120.209 Y121.923 E16.79776
G1 X121.606 Y122.878 E16.90012
G1 X122.582 Y124.138 E16.99654
G1 X123.301 Y125.565 E17.0932
G1 X123.55 Y127.141 E17.18971
G1 X123.55 Y170.419 E19.80768
G1 X123.518 Y171.259 E19.85853
G1 X123.437 Y172.122 E19.91096
G1 X123.289 Y173.119 E19.97194
G1 X123.125 Y173.91 E20.0208
G1 X122.894 Y174.781 E20.07531
G1 X122.542 Y175.838 E20.1427
G1 X122.232 Y176.617 E20.19342
G1 X121.731 Y177.689 E20.265
G1 X121.442 Y178.223 E20.30173
G1 X120.789 Y179.278 E20.37679
G1 X120.297 Y179.97 E20.42815
G1 X119.613 Y180.824 E20.49434
G1 X119.146 Y181.347 E20.53675
G1 X118.475 Y182.02 E20.59424
G1 X117.637 Y182.762 E20.66195
G1 X116.948 Y183.304 E20.71498
G1 X116.322 Y183.745 E20.7613
G1 X115.326 Y184.356 E20.83198
G1 X114.401 Y184.85 E20.89541
G1 X113.861 Y185.102 E20.93146
G1 X112.641 Y185.583 E21.01079
G1 X111.972 Y185.802 E21.05337
G1 X110.96 Y186.072 E21.11673
G1 X109.998 Y186.268 E21.17612
G1 X109.234 Y186.38 E21.22283
G1 X108.027 Y186.482 E21.2961
G1 X107.203 Y186.501 E21.34596
G1 X90.895 Y186.502 E22.33246
G1 X90.474 Y186.435 E22.35825
G1 X90.023 Y186.496 E22.38578
G1 X67.046 Y186.501 E23.7757
G1 X66.411 Y186.481 E23.81414
G1 X65.154 Y186.361 E23.89052
G1 X64.227 Y186.222 E23.94722
G1 X63.638 Y186.1 E23.98361
G1 X62.489 Y185.791 E24.05558
G1 X61.72 Y185.536 E24.10459
G1 X60.833 Y185.182 E24.16236
G1 X59.757 Y184.678 E24.23424
G1 X59.199 Y184.376 E24.27262
G1 X58.252 Y183.793 E24.33989
G1 X57.582 Y183.324 E24.38936
G1 X56.63 Y182.566 E24.46298
G1 X56.089 Y182.083 E24.50685
G1 X55.401 Y181.394 E24.56575
G1 X54.698 Y180.601 E24.62985
G1 X54.158 Y179.913 E24.68276
G1 X53.601 Y179.112 E24.74178
G1 X53.139 Y178.359 E24.79522
G1 X52.605 Y177.359 E24.8638
G1 X52.273 Y176.637 E24.91187
G1 X51.95 Y175.824 E24.96479
G1 X51.619 Y174.816 E25.02897
G1 X51.345 Y173.783 E25.09361
G1 X51.223 Y173.194 E25.13
G1 X51.042 Y171.909 E25.2085
G1 X50.967 Y170.964 E25.26584
G1 X50.95 Y170.39 E25.30058
G1 X50.95 Y161.909 E25.81361
G1 X50.978 Y160.858 E25.87721
G1 X51.031 Y160.063 E25.92541
G1 X51.18 Y158.732 E26.00643
G1 X51.335 Y157.762 E26.06585
G1 X51.565 Y156.65 E26.13454
G1 X51.823 Y155.626 E26.19842
G1 X52.124 Y154.611 E26.26246
G1 X52.441 Y153.688 E26.3215
G1 X52.836 Y152.681 E26.38693
G1 X53.247 Y151.754 E26.44827
G1 X53.732 Y150.779 E26.51415
G1 X54.288 Y149.779 E26.58336
G1 X54.835 Y148.887 E26.64666
G1 X55.325 Y148.155 E26.69994
G1 X56.039 Y147.189 E26.77261
G1 X56.74 Y146.327 E26.83982
G1 X57.429 Y145.548 E26.90273
G1 X58.021 Y144.93 E26.95449
G1 X58.92 Y144.075 E27.02954
G1 X59.579 Y143.499 E27.08249
G1 X60.58 Y142.697 E27.16008
G1 X61.283 Y142.184 E27.21272
G1 X80.396 Y128.803 E28.62409
G1 X80.903 Y128.43 E28.66216
G1 X81.436 Y128.001 E28.70355
G1 X82.217 Y127.255 E28.76889
G1 X82.759 Y126.635 E28.8187
G1 X83.165 Y126.131 E28.85785
G1 X83.629 Y125.439 E28.90825
G1 X84.436 Y124.074 E29.00417
G1 X85.176 Y123.093 E29.07851
G1 X85.492 Y122.787 E29.10511
G0 F3150 X85.833 Y123.281
G1 F2100 X87.183 Y122.349 E29.20435
G1 X88.377 Y121.949 E29.28052
G1 X89.417 Y121.785 E29.34421
G1 X117.74 Y121.785 E31.05752
G1 X119.046 Y122.086 E31.1386
G1 X119.92 Y122.452 E31.19591
G1 X121.189 Y123.32 E31.28892
G1 X122.072 Y124.459 E31.3761
G1 X122.723 Y125.751 E31.46361
G1 X122.95 Y127.19 E31.55174
G1 X122.95 Y170.396 E34.16535
G1 X122.918 Y171.236 E34.2162
G1 X122.844 Y172.034 E34.26468
G1 X122.701 Y172.997 E34.32357
G1 X122.537 Y173.788 E34.37244
G1 X122.314 Y174.627 E34.42495
G1 X121.973 Y175.648 E34.49007
G1 X121.675 Y176.395 E34.53872
G1 X121.203 Y177.403 E34.60605
G1 X120.914 Y177.937 E34.64278
G1 X120.3 Y178.931 E34.71345
G1 X119.829 Y179.595 E34.7627
G1 X119.165 Y180.424 E34.82695
G1 X118.698 Y180.947 E34.86937
G1 X118.077 Y181.571 E34.92262
G1 X117.239 Y182.313 E34.99033
G1 X116.602 Y182.813 E35.03931
G1 X115.976 Y183.254 E35.08563
G1 X115.013 Y183.844 E35.15395
G1 X114.147 Y184.306 E35.21333
G1 X113.607 Y184.558 E35.24937
G1 X112.454 Y185.013 E35.32436
G1 X111.817 Y185.222 E35.36491
G1 X110.805 Y185.492 E35.42827
G1 X109.911 Y185.674 E35.48346
G1 X109.147 Y185.786 E35.53017
G1 X108.013 Y185.882 E35.59901
G1 X107.203 Y185.901 E35.64802
G1 X90.945 Y185.902 E36.6315
G1 X90.481 Y185.828 E36.65992
G1 X89.942 Y185.901 E36.69283
G1 X67.065 Y185.901 E38.0767
G1 X66.43 Y185.881 E38.11513
G1 X65.243 Y185.768 E38.18726
G1 X64.349 Y185.634 E38.24194
G1 X63.76 Y185.512 E38.27833
G1 X62.678 Y185.221 E38.34611
G1 X61.909 Y184.966 E38.39511
G1 X61.087 Y184.638 E38.44865
G1 X60.043 Y184.15 E38.51836
G1 X59.485 Y183.848 E38.55674
G1 X58.567 Y183.282 E38.62198
G1 X57.927 Y182.833 E38.66927
G1 X57.03 Y182.118 E38.73867
G1 X56.489 Y181.635 E38.78254
G1 X55.85 Y180.996 E38.8372
G1 X55.147 Y180.203 E38.90131
G1 X54.651 Y179.57 E38.94995
G1 X54.094 Y178.769 E39.00897
G1 X53.65 Y178.045 E39.06035
G1 X53.15 Y177.108 E39.12459
G1 X52.831 Y176.415 E39.17074
G1 X52.508 Y175.602 E39.22366
G1 X52.189 Y174.629 E39.2856
G1 X51.933 Y173.661 E39.34617
G1 X51.811 Y173.072 E39.38256
G1 X51.64 Y171.861 E39.45654
G1 X51.567 Y170.946 E39.51207
G1 X51.55 Y170.372 E39.5468
G1 X51.55 Y161.925 E40.05778
G1 X51.577 Y160.898 E40.11992
G1 X51.63 Y160.103 E40.16812
G1 X51.772 Y158.827 E40.24579
G1 X51.923 Y157.883 E40.30362
G1 X52.147 Y156.796 E40.37075
G1 X52.398 Y155.796 E40.43312
G1 X52.691 Y154.806 E40.49558
G1 X53 Y153.907 E40.55308
G1 X53.385 Y152.924 E40.61694
G1 X53.796 Y151.997 E40.67828
G1 X54.257 Y151.07 E40.74091
G1 X54.8 Y150.092 E40.80858
G1 X55.333 Y149.221 E40.87035
G1 X55.808 Y148.512 E40.92197
G1 X56.522 Y147.546 E40.99464
G1 X57.19 Y146.724 E41.05871
G1 X57.862 Y145.963 E41.12012
G1 X58.435 Y145.365 E41.17022
G1 X59.315 Y144.527 E41.24373
G1 X59.974 Y143.951 E41.29668
G1 X60.933 Y143.182 E41.37104
G1 X61.627 Y142.676 E41.42299
G1 X80.74 Y129.295 E42.83436
G1 X81.259 Y128.913 E42.87334
G1 X81.834 Y128.45 E42.918
G1 X82.655 Y127.666 E42.98667
G1 X83.211 Y127.03 E43.03777
G1 X83.649 Y126.486 E43.08002
G1 X84.143 Y125.75 E43.13364
G1 X84.953 Y124.379 E43.22997
G1 X85.604 Y123.514 E43.29545
G1 X85.833 Y123.281 E43.31522
G0 F3150 X86.221 Y123.743
G1 F2100 X87.455 Y122.89 E43.40596
G1 X88.517 Y122.535 E43.4737
G1 X89.467 Y122.385 E43.53188
G1 X117.67 Y122.385 E45.23793
G1 X118.865 Y122.66 E45.31211
G1 X119.631 Y122.981 E45.36235
G1 X120.772 Y123.762 E45.44599
G1 X121.562 Y124.781 E45.52399
G1 X122.145 Y125.937 E45.6023
G1 X122.35 Y127.239 E45.68204
G1 X122.35 Y170.374 E48.29135
G1 X122.32 Y171.181 E48.3402
G1 X122.25 Y171.946 E48.38667
G1 X122.113 Y172.875 E48.44348
G1 X121.949 Y173.666 E48.49234
G1 X121.734 Y174.472 E48.54281
G1 X121.404 Y175.457 E48.60564
G1 X121.131 Y176.141 E48.6502
G1 X120.675 Y177.117 E48.71536
G1 X120.386 Y177.651 E48.75209
G1 X119.81 Y178.584 E48.81842
G1 X119.36 Y179.22 E48.86555
G1 X118.717 Y180.024 E48.92782
G1 X118.25 Y180.547 E48.97024
G1 X117.652 Y181.147 E49.02148
G1 X116.868 Y181.841 E49.08482
G1 X116.256 Y182.322 E49.13191
G1 X115.63 Y182.763 E49.17823
G1 X114.73 Y183.315 E49.24209
G1 X113.893 Y183.762 E49.29949
G1 X113.353 Y184.014 E49.33554
G1 X112.267 Y184.443 E49.40618
G1 X111.662 Y184.642 E49.4447
G1 X110.65 Y184.912 E49.50806
G1 X109.824 Y185.08 E49.55905
G1 X109.06 Y185.192 E49.60576
G1 X107.999 Y185.282 E49.67017
G1 X107.203 Y185.301 E49.71834
G1 X90.995 Y185.302 E50.69879
G1 X90.485 Y185.221 E50.73003
G1 X89.942 Y185.301 E50.76323
G1 X67.084 Y185.301 E52.14595
G1 X66.449 Y185.281 E52.18438
G1 X65.332 Y185.175 E52.25226
G1 X64.471 Y185.046 E52.30492
G1 X63.882 Y184.924 E52.34131
G1 X62.867 Y184.651 E52.40489
G1 X62.098 Y184.396 E52.4539
G1 X61.309 Y184.081 E52.50529
G1 X60.329 Y183.622 E52.57075
G1 X59.771 Y183.32 E52.60913
G1 X58.911 Y182.79 E52.67024
G1 X58.301 Y182.363 E52.71528
G1 X57.43 Y181.67 E52.78261
G1 X56.889 Y181.187 E52.82649
G1 X56.275 Y180.572 E52.87906
G1 X55.619 Y179.832 E52.93888
G1 X55.144 Y179.227 E52.98541
G1 X54.587 Y178.426 E53.04442
G1 X54.162 Y177.732 E53.09365
G1 X53.695 Y176.857 E53.15365
G1 X53.389 Y176.193 E53.19787
G1 X53.066 Y175.38 E53.25079
G1 X52.769 Y174.475 E53.30841
G1 X52.521 Y173.539 E53.36699
G1 X52.399 Y172.95 E53.40337
G1 X52.238 Y171.813 E53.47284
G1 X52.167 Y170.928 E53.52654
G1 X52.15 Y170.354 E53.56128
G1 X52.15 Y161.941 E54.0702
G1 X52.176 Y160.938 E54.13089
G1 X52.229 Y160.143 E54.17909
G1 X52.364 Y158.922 E54.2534
G1 X52.511 Y158.004 E54.30964
G1 X52.729 Y156.942 E54.37522
G1 X52.973 Y155.966 E54.43608
G1 X53.258 Y155.001 E54.49695
G1 X53.559 Y154.126 E54.55292
G1 X53.934 Y153.167 E54.61521
G1 X54.345 Y152.24 E54.67655
G1 X54.782 Y151.361 E54.73593
G1 X55.312 Y150.405 E54.80206
G1 X55.832 Y149.555 E54.86233
G1 X56.291 Y148.869 E54.91226
G1 X57.005 Y147.903 E54.98493
G1 X57.64 Y147.121 E55.04586
G1 X58.296 Y146.378 E55.10582
G1 X58.849 Y145.8 E55.15421
G1 X59.729 Y144.962 E55.22772
G1 X60.349 Y144.419 E55.27757
G1 X61.287 Y143.667 E55.3503
G1 X61.971 Y143.168 E55.40151
G1 X81.084 Y129.786 E56.81291
G1 X81.635 Y129.381 E56.85428
G1 X82.033 Y129.061 E56.88517
G1 X82.413 Y128.728 E56.91574
G1 X83.081 Y128.089 E56.97166
G1 X83.671 Y127.415 E57.02584
G1 X84.133 Y126.841 E57.07041
G1 X84.652 Y126.067 E57.12679
G1 X85.432 Y124.74 E57.2199
G1 X86.083 Y123.875 E57.28539
G1 X86.221 Y123.743 E57.29694
G0 F3150 X86.562 Y124.236
G1 F2100 X87.724 Y123.432 E57.38242
G1 X88.657 Y123.121 E57.44191
G1 X89.517 Y122.985 E57.49458
G1 X117.6 Y122.985 E59.19337
G1 X118.681 Y123.234 E59.26048
G1 X119.344 Y123.511 E59.30394
G1 X120.357 Y124.205 E59.37822
G1 X121.05 Y125.1 E59.44669
G1 X121.566 Y126.123 E59.516
G1 X121.75 Y127.289 E59.58741
G1 X121.75 Y170.352 E62.19237
G1 X121.722 Y171.126 E62.23922
G1 X121.652 Y171.891 E62.28569
G1 X121.525 Y172.753 E62.3384
G1 X121.361 Y173.544 E62.38727
G1 X121.165 Y174.281 E62.4334
G1 X120.835 Y175.266 E62.49624
G1 X120.574 Y175.918 E62.53872
G1 X120.147 Y176.831 E62.59969
G1 X119.858 Y177.365 E62.63642
G1 X119.32 Y178.237 E62.6984
G1 X118.87 Y178.873 E62.74553
G1 X118.269 Y179.624 E62.80372
G1 X117.802 Y180.147 E62.84613
G1 X117.227 Y180.723 E62.89536
G1 X116.471 Y181.391 E62.95639
G1 X115.91 Y181.831 E62.99952
G1 X115.284 Y182.272 E63.04584
G1 X114.447 Y182.786 E63.10526
G1 X113.639 Y183.218 E63.16068
G1 X113.099 Y183.47 E63.19673
G1 X112.079 Y183.873 E63.26307
G1 X111.507 Y184.062 E63.29951
G1 X110.495 Y184.332 E63.36287
G1 X109.737 Y184.486 E63.40966
G1 X108.973 Y184.598 E63.45637
G1 X107.984 Y184.682 E63.51641
G1 X107.203 Y184.701 E63.56367
G1 X91.044 Y184.702 E64.54116
G1 X90.486 Y184.614 E64.57533
G1 X89.942 Y184.701 E64.60866
G1 X67.103 Y184.701 E65.99023
G1 X66.468 Y184.681 E66.02866
G1 X65.421 Y184.582 E66.09228
G1 X64.593 Y184.458 E66.14293
G1 X64.004 Y184.336 E66.17931
G1 X63.056 Y184.081 E66.2387
G1 X62.287 Y183.826 E66.28771
G1 X61.532 Y183.524 E66.3369
G1 X60.615 Y183.094 E66.39816
G1 X60.057 Y182.792 E66.43654
G1 X59.255 Y182.298 E66.49352
G1 X58.645 Y181.871 E66.53857
G1 X57.83 Y181.222 E66.60159
G1 X57.289 Y180.739 E66.64546
G1 X56.7 Y180.148 E66.69593
G1 X56.091 Y179.461 E66.75147
G1 X55.616 Y178.856 E66.798
G1 X55.098 Y178.112 E66.85284
G1 X54.691 Y177.449 E66.8999
G1 X54.24 Y176.606 E66.95773
G1 X53.947 Y175.971 E67.00004
G1 X53.624 Y175.158 E67.05296
G1 X53.349 Y174.321 E67.10625
G1 X53.109 Y173.417 E67.16283
G1 X52.987 Y172.828 E67.19921
G1 X52.836 Y171.765 E67.26416
G1 X52.767 Y170.91 E67.31605
G1 X52.75 Y170.336 E67.35079
G1 X52.75 Y161.956 E67.85771
G1 X52.775 Y160.978 E67.91689
G1 X52.828 Y160.183 E67.96509
G1 X52.957 Y159.016 E68.03611
G1 X53.099 Y158.124 E68.09075
G1 X53.311 Y157.087 E68.15478
G1 X53.548 Y156.136 E68.21407
G1 X53.826 Y155.196 E68.27336
G1 X54.118 Y154.345 E68.32779
G1 X54.493 Y153.386 E68.39008
G1 X54.883 Y152.507 E68.44825
G1 X55.307 Y151.652 E68.50598
G1 X55.824 Y150.718 E68.57056
G1 X56.331 Y149.889 E68.62934
G1 X56.79 Y149.203 E68.67927
G1 X57.471 Y148.281 E68.74861
G1 X58.09 Y147.518 E68.80804
G1 X58.73 Y146.793 E68.86654
G1 X59.283 Y146.215 E68.91493
G1 X60.125 Y145.413 E68.98527
G1 X60.725 Y144.887 E69.03354
G1 X61.641 Y144.152 E69.10458
G1 X62.315 Y143.66 E69.15506
G1 X81.428 Y130.278 E70.56646
G1 X82.007 Y129.852 E70.60994
G1 X82.409 Y129.529 E70.64114
G1 X82.828 Y129.162 E70.67483
G1 X83.514 Y128.506 E70.73225
G1 X84.123 Y127.81 E70.7882
G1 X84.617 Y127.196 E70.83587
G1 X85.165 Y126.378 E70.89543
G1 X85.438 Y125.925 E70.92742
G1 X85.911 Y125.101 E70.98489
G1 X86.562 Y124.236 E71.05038
G0 F3150 X86.982 Y124.675
G1 F2100 X87.996 Y123.974 E71.12495
G1 X88.797 Y123.707 E71.17603
G1 X89.567 Y123.585 E71.22319
G1 X117.53 Y123.585 E72.91472
G1 X118.497 Y123.808 E72.97475
G1 X119.057 Y124.042 E73.01147
