;FLAVOR:Repetier
;TIME:3557
;MINX:51.836
;MINY:138.553
;MINZ:0.25
;MAXX:131.887
;MAXY:177.698
;MAXZ:28
;TARGET_MACHINE.NAME:Prusa i3 Mk2
;Generated with Cura_SteamEngine 5.6.0
M104 S240
M109 S240
M82 ;absolute extrusion mode
G28
G92 E0
G92 E0
G1 F3000 E-1
;LAYER_COUNT:112
;LAYER:0
M107
G0 F3150 X55.912 Y139.12 Z0.25
;TYPE:SKIRT
G1 F3000 E0
G1 F2100 X57.385 Y138.709 E0.09251
G1 X58.352 Y138.553 E0.15176
G1 X125.617 Y138.553 E4.22075
G1 X127.145 Y138.906 E4.31561
G1 X128.235 Y139.362 E4.38709
G1 X129.758 Y140.403 E4.49868
G1 X130.831 Y141.787 E4.60461
G1 X131.617 Y143.348 E4.71034
G1 X131.887 Y145.059 E4.81512
G1 X131.887 Y157.807 E5.58627
G1 X131.818 Y158.339 E5.61872
G1 X131.887 Y158.913 E5.65369
G1 X131.86 Y163.689 E5.94261
G1 X131.721 Y164.976 E6.02091
G1 X131.382 Y166.602 E6.12139
G1 X130.841 Y168.263 E6.22706
G1 X130.131 Y169.792 E6.32904
G1 X129.057 Y171.514 E6.4518
G1 X127.802 Y173.037 E6.57118
G1 X126.927 Y173.889 E6.64506
G1 X125.103 Y175.281 E6.78386
G1 X123.732 Y176.072 E6.87961
G1 X121.963 Y176.83 E6.99603
G1 X120.118 Y177.362 E7.11218
G1 X118.428 Y177.666 E7.21605
G1 X117.049 Y177.698 E7.29949
G1 X68.497 Y177.698 E10.23649
G1 X67.602 Y177.661 E10.29068
G1 X67.047 Y177.614 E10.32437
G1 X65.815 Y177.443 E10.39961
G1 X64.979 Y177.277 E10.45117
G1 X64.153 Y177.067 E10.50273
G1 X63.381 Y176.827 E10.55163
G1 X62.36 Y176.452 E10.61743
G1 X61.68 Y176.158 E10.66224
G1 X60.781 Y175.708 E10.72306
G1 X59.838 Y175.171 E10.7887
G1 X59.367 Y174.868 E10.82258
G1 X58.347 Y174.126 E10.89888
G1 X57.859 Y173.732 E10.93682
G1 X56.961 Y172.922 E11.00998
G1 X56.521 Y172.479 E11.04775
G1 X55.74 Y171.603 E11.11874
G1 X55.33 Y171.09 E11.15847
G1 X54.698 Y170.204 E11.2243
G1 X54.168 Y169.366 E11.28428
G1 X53.844 Y168.791 E11.3242
G1 X53.332 Y167.741 E11.39487
G1 X53.008 Y166.984 E11.44468
G1 X52.713 Y166.171 E11.497
G1 X52.409 Y165.155 E11.56115
G1 X52.204 Y164.298 E11.61445
G1 X52.027 Y163.34 E11.67339
G1 X51.948 Y162.759 E11.70885
G1 X51.852 Y161.501 E11.78518
G1 X51.837 Y160.798 E11.82771
G1 X51.836 Y144.913 E12.78862
G1 X52.196 Y143.195 E12.89481
G1 X52.9 Y141.754 E12.99182
G1 X53.788 Y140.632 E13.07838
G1 X54.635 Y139.931 E13.14489
G1 X55.912 Y139.12 E13.2364
G0 F3150 X56.162 Y139.673
G1 F2100 X57.481 Y139.301 E13.3193
G1 X58.398 Y139.153 E13.37549
G1 X125.547 Y139.153 E17.43746
G1 X126.964 Y139.48 E17.52543
G1 X127.946 Y139.891 E17.58982
G1 X129.343 Y140.846 E17.69219
G1 X130.319 Y142.106 E17.7886
G1 X131.038 Y143.533 E17.88526
G1 X131.287 Y145.109 E17.98178
G1 X131.287 Y157.807 E18.7499
G1 X131.213 Y158.337 E18.78227
G1 X131.287 Y158.91 E18.81722
G1 X131.263 Y163.625 E19.10245
G1 X131.124 Y164.912 E19.18075
G1 X130.811 Y166.416 E19.27368
G1 X130.27 Y168.077 E19.37935
G1 X129.621 Y169.476 E19.47264
G1 X128.593 Y171.133 E19.5906
G1 X127.383 Y172.607 E19.70596
G1 X126.508 Y173.459 E19.77984
G1 X124.803 Y174.761 E19.90961
G1 X123.432 Y175.552 E20.00536
G1 X121.796 Y176.254 E20.11305
G1 X120.012 Y176.771 E20.22541
G1 X118.366 Y177.067 E20.32658
G1 X117.035 Y177.098 E20.40711
G1 X68.521 Y177.098 E23.34181
G1 X67.653 Y177.063 E23.39436
G1 X67.098 Y177.016 E23.42806
G1 X65.898 Y176.849 E23.50135
G1 X65.127 Y176.695 E23.54891
G1 X64.301 Y176.485 E23.60046
G1 X63.56 Y176.254 E23.64742
G1 X62.567 Y175.889 E23.71141
G1 X61.949 Y175.621 E23.75216
G1 X61.05 Y175.171 E23.81298
G1 X60.163 Y174.666 E23.87472
G1 X59.692 Y174.363 E23.9086
G1 X58.724 Y173.659 E23.981
G1 X58.236 Y173.265 E24.01894
G1 X57.387 Y172.499 E24.08811
G1 X56.947 Y172.056 E24.12588
G1 X56.209 Y171.228 E24.19298
G1 X55.799 Y170.715 E24.2327
G1 X55.205 Y169.883 E24.29454
G1 X54.691 Y169.071 E24.35268
G1 X54.367 Y168.496 E24.3926
G1 X53.884 Y167.505 E24.45929
G1 X53.56 Y166.748 E24.5091
G1 X53.288 Y165.999 E24.5573
G1 X52.993 Y165.015 E24.61945
G1 X52.788 Y164.158 E24.67275
G1 X52.622 Y163.259 E24.72805
G1 X52.543 Y162.678 E24.76352
G1 X52.452 Y161.488 E24.83572
G1 X52.437 Y160.798 E24.87747
G1 X52.436 Y144.974 E25.83469
G1 X52.768 Y143.391 E25.93253
G1 X53.41 Y142.077 E26.021
G1 X54.22 Y141.053 E26.09998
G1 X54.957 Y140.438 E26.15804
G1 X56.162 Y139.673 E26.24438
G0 F3150 X56.409 Y140.227
G1 F2100 X57.644 Y139.879 E26.322
G1 X58.448 Y139.753 E26.37123
G1 X125.477 Y139.753 E30.42594
G1 X126.783 Y140.054 E30.50701
G1 X127.657 Y140.42 E30.56433
G1 X128.926 Y141.288 E30.65734
G1 X129.809 Y142.427 E30.74452
G1 X130.46 Y143.719 E30.83203
G1 X130.687 Y145.158 E30.92016
G1 X130.687 Y157.807 E31.68532
G1 X130.607 Y158.333 E31.7175
G1 X130.687 Y158.907 E31.75256
G1 X130.666 Y163.561 E32.03409
G1 X130.527 Y164.848 E32.1124
G1 X130.24 Y166.23 E32.19778
G1 X129.699 Y167.891 E32.30345
G1 X129.11 Y169.161 E32.38814
G1 X128.128 Y170.753 E32.50129
G1 X126.964 Y172.177 E32.61255
G1 X126.089 Y173.029 E32.68642
G1 X124.502 Y174.242 E32.80725
G1 X123.194 Y175.001 E32.89873
G1 X121.628 Y175.678 E33.00194
G1 X119.906 Y176.18 E33.11044
G1 X118.304 Y176.468 E33.2089
G1 X117.021 Y176.498 E33.28653
G1 X68.545 Y176.498 E36.21894
G1 X67.704 Y176.465 E36.26985
G1 X67.149 Y176.418 E36.30354
G1 X66.016 Y176.261 E36.37274
G1 X65.275 Y176.113 E36.41845
G1 X64.449 Y175.903 E36.47
G1 X63.767 Y175.691 E36.5132
G1 X62.774 Y175.326 E36.5772
G1 X62.218 Y175.084 E36.61388
G1 X61.319 Y174.634 E36.6747
G1 X60.488 Y174.161 E36.73254
G1 X60.017 Y173.858 E36.76642
G1 X59.101 Y173.192 E36.83493
G1 X58.613 Y172.798 E36.87287
G1 X57.813 Y172.076 E36.93806
G1 X57.373 Y171.633 E36.97582
G1 X56.678 Y170.853 E37.03902
G1 X56.268 Y170.34 E37.07875
G1 X55.694 Y169.535 E37.13855
G1 X55.214 Y168.776 E37.19288
G1 X54.89 Y168.201 E37.2328
G1 X54.436 Y167.269 E37.29552
G1 X54.112 Y166.512 E37.34533
G1 X53.863 Y165.826 E37.38947
G1 X53.577 Y164.875 E37.44955
G1 X53.372 Y164.018 E37.50285
G1 X53.217 Y163.178 E37.55452
G1 X53.138 Y162.597 E37.58999
G1 X53.052 Y161.475 E37.65806
G1 X53.037 Y160.798 E37.69902
G1 X53.036 Y145.035 E38.65256
G1 X53.34 Y143.587 E38.74206
G1 X53.92 Y142.4 E38.82198
G1 X54.651 Y141.476 E38.89325
G1 X55.342 Y140.899 E38.9477
G1 X56.409 Y140.227 E39.02398
G0 F3150 X56.656 Y140.781
G1 F2100 X57.737 Y140.472 E39.09199
G1 X58.496 Y140.353 E39.13847
G1 X125.407 Y140.353 E43.18604
G1 X126.602 Y140.628 E43.26022
G1 X127.368 Y140.949 E43.31046
G1 X128.509 Y141.73 E43.3941
G1 X129.299 Y142.749 E43.4721
G1 X129.882 Y143.905 E43.55041
G1 X130.087 Y145.207 E43.63014
G1 X130.087 Y157.807 E44.39234
G1 X130 Y158.326 E44.42417
G1 X130.087 Y158.904 E44.45953
G1 X130.066 Y163.558 E44.74107
G1 X129.939 Y164.728 E44.81226
G1 X129.669 Y166.046 E44.89364
G1 X129.154 Y167.64 E44.99497
G1 X128.599 Y168.846 E45.07528
G1 X127.617 Y170.438 E45.18843
G1 X126.545 Y171.747 E45.29078
G1 X125.67 Y172.599 E45.36466
G1 X124.2 Y173.724 E45.47663
G1 X122.956 Y174.45 E45.56376
G1 X121.39 Y175.127 E45.66697
G1 X119.8 Y175.589 E45.76713
G1 X118.242 Y175.869 E45.86288
G1 X117.007 Y175.898 E45.93761
G1 X68.568 Y175.898 E48.86778
G1 X67.755 Y175.867 E48.91699
G1 X67.2 Y175.82 E48.95068
G1 X66.133 Y175.672 E49.01585
G1 X65.423 Y175.531 E49.05963
G1 X64.597 Y175.321 E49.11119
G1 X63.946 Y175.118 E49.15244
G1 X63.013 Y174.775 E49.21257
G1 X62.487 Y174.547 E49.24725
G1 X61.588 Y174.097 E49.30807
G1 X60.813 Y173.656 E49.36201
G1 X60.342 Y173.353 E49.39589
G1 X59.478 Y172.725 E49.4605
G1 X58.99 Y172.331 E49.49844
G1 X58.239 Y171.653 E49.55964
G1 X57.799 Y171.21 E49.59741
G1 X57.147 Y170.478 E49.65671
G1 X56.737 Y169.965 E49.69644
G1 X56.183 Y169.187 E49.75421
G1 X55.737 Y168.481 E49.80473
G1 X55.413 Y167.906 E49.84465
G1 X54.987 Y167.032 E49.90347
G1 X54.676 Y166.307 E49.95119
G1 X54.438 Y165.653 E49.99329
G1 X54.152 Y164.702 E50.05336
G1 X53.962 Y163.909 E50.10269
G1 X53.812 Y163.097 E50.15264
G1 X53.733 Y162.516 E50.18811
G1 X53.652 Y161.461 E50.25212
G1 X53.637 Y160.798 E50.29223
G1 X53.636 Y145.096 E51.24208
G1 X53.912 Y143.783 E51.32324
G1 X54.43 Y142.723 E51.3946
G1 X55.083 Y141.897 E51.4583
G1 X55.662 Y141.407 E51.50418
G1 X56.656 Y140.781 E51.57524
G0 F3150 X56.905 Y141.334
G1 F2100 X55.982 Y141.915 E51.64122
G1 X55.518 Y142.315 E51.67828
G1 X54.941 Y143.045 E51.73456
G1 X54.483 Y143.981 E51.7976
G1 X54.236 Y145.157 E51.87029
G1 X54.237 Y160.798 E52.81644
G1 X54.252 Y161.447 E52.85571
G1 X54.328 Y162.435 E52.91565
G1 X54.407 Y163.016 E52.95112
G1 X54.552 Y163.8 E52.99935
G1 X54.727 Y164.529 E53.04471
G1 X55.013 Y165.48 E53.10478
G1 X55.24 Y166.101 E53.14477
G1 X55.538 Y166.795 E53.19046
G1 X55.936 Y167.611 E53.24538
G1 X56.26 Y168.186 E53.28531
G1 X56.69 Y168.866 E53.33398
G1 X57.206 Y169.59 E53.38776
G1 X57.616 Y170.103 E53.42748
G1 X58.225 Y170.787 E53.48288
G1 X58.665 Y171.23 E53.52065
G1 X59.367 Y171.864 E53.57787
G1 X59.855 Y172.258 E53.61581
G1 X60.667 Y172.848 E53.67653
G1 X61.138 Y173.151 E53.71041
G1 X61.884 Y173.575 E53.76231
G1 X62.726 Y173.996 E53.81926
G1 X63.252 Y174.224 E53.85394
G1 X64.153 Y174.555 E53.912
G1 X64.745 Y174.739 E53.94951
G1 X65.571 Y174.949 E54.00106
G1 X66.249 Y175.083 E54.04287
G1 X67.251 Y175.222 E54.10406
G1 X67.806 Y175.269 E54.13775
G1 X68.59 Y175.298 E54.18521
G1 X116.993 Y175.298 E57.1132
G1 X118.18 Y175.27 E57.18502
G1 X119.694 Y174.998 E57.27808
G1 X121.152 Y174.576 E57.36989
G1 X122.718 Y173.899 E57.4731
G1 X123.896 Y173.207 E57.55574
G1 X125.251 Y172.169 E57.65899
G1 X126.126 Y171.317 E57.73287
G1 X127.152 Y170.059 E57.83107
G1 X128.087 Y168.533 E57.93933
G1 X128.608 Y167.391 E58.01526
G1 X129.098 Y165.863 E58.11233
G1 X129.351 Y164.609 E58.18972
G1 X129.469 Y163.495 E58.25748
G1 X129.487 Y158.902 E58.53532
G1 X129.391 Y158.324 E58.57077
G1 X129.487 Y157.755 E58.60567
G1 X129.487 Y145.257 E59.3617
G1 X129.303 Y144.091 E59.43311
G1 X128.787 Y143.068 E59.50241
G1 X128.094 Y142.173 E59.57089
G1 X127.081 Y141.479 E59.64517
G1 X126.418 Y141.202 E59.68863
G1 X125.337 Y140.953 E59.75574
G1 X58.544 Y140.953 E63.79617
G1 X57.83 Y141.065 E63.83989
G1 X56.905 Y141.334 E63.89816
G0 F3150 X57.155 Y141.886
G1 F2100 X57.923 Y141.658 E63.94662
G1 X58.592 Y141.553 E63.98759
G1 X125.267 Y141.553 E68.02088
G1 X126.234 Y141.776 E68.08092
G1 X126.794 Y142.01 E68.11763
G1 X127.679 Y142.616 E68.18251
G1 X128.276 Y143.387 E68.2415
G1 X128.725 Y144.277 E68.3018
G1 X128.887 Y145.306 E68.36481
G1 X128.887 Y157.703 E69.11473
G1 X128.783 Y158.323 E69.15276
G1 X128.887 Y158.951 E69.19127
G1 X128.872 Y163.433 E69.46239
G1 X128.762 Y164.492 E69.5268
G1 X128.526 Y165.681 E69.60013
G1 X128.061 Y167.144 E69.69299
G1 X127.574 Y168.221 E69.76449
G1 X126.686 Y169.681 E69.86786
G1 X125.707 Y170.887 E69.96182
G1 X124.832 Y171.739 E70.0357
G1 X123.59 Y172.691 E70.13037
G1 X122.478 Y173.349 E70.20853
G1 X120.984 Y174 E70.30711
G1 X119.588 Y174.407 E70.39507
G1 X118.118 Y174.671 E70.48542
G1 X116.979 Y174.698 E70.55434
G1 X68.611 Y174.698 E73.48021
G1 X67.857 Y174.671 E73.52585
G1 X67.302 Y174.624 E73.55954
G1 X66.365 Y174.494 E73.61676
G1 X65.719 Y174.367 E73.65659
G1 X64.893 Y174.157 E73.70815
G1 X64.332 Y173.982 E73.74369
G1 X63.491 Y173.673 E73.79789
G1 X62.965 Y173.445 E73.83257
G1 X62.18 Y173.053 E73.88565
G1 X61.463 Y172.646 E73.93552
G1 X60.992 Y172.343 E73.9694
G1 X60.232 Y171.791 E74.02622
G1 X59.744 Y171.397 E74.06416
G1 X59.091 Y170.807 E74.1174
G1 X58.651 Y170.364 E74.15517
G1 X58.085 Y169.728 E74.20667
G1 X57.675 Y169.215 E74.2464
G1 X57.179 Y168.518 E74.29815
G1 X56.783 Y167.891 E74.34301
G1 X56.459 Y167.316 E74.38293
G1 X56.077 Y166.532 E74.43569
G1 X55.804 Y165.895 E74.47761
G1 X55.577 Y165.274 E74.51761
G1 X55.31 Y164.389 E74.57352
G1 X55.142 Y163.691 E74.61695
G1 X55.002 Y162.935 E74.66346
G1 X54.923 Y162.354 E74.69893
G1 X54.852 Y161.433 E74.75481
G1 X54.837 Y160.798 E74.79323
G1 X54.836 Y145.218 E75.7357
G1 X55.054 Y144.179 E75.79992
G1 X55.453 Y143.363 E75.85486
G1 X55.951 Y142.734 E75.90339
G1 X56.302 Y142.423 E75.93176
G1 X57.155 Y141.886 E75.99273
G0 F3150 X57.403 Y142.438
G1 F2100 X58.016 Y142.251 E76.0315
G1 X58.64 Y142.153 E76.06971
G1 X125.197 Y142.153 E80.09587
G1 X126.099 Y142.361 E80.15187
G1 X126.455 Y142.505 E80.1751
G1 X127.262 Y143.058 E80.23427
G1 X127.766 Y143.708 E80.28403
G1 X128.146 Y144.463 E80.33516
G1 X128.287 Y145.356 E80.38985
G1 X128.287 Y157.652 E81.13366
G1 X128.175 Y158.322 E81.17475
G1 X128.287 Y159 E81.21632
G1 X128.275 Y163.372 E81.48079
G1 X128.173 Y164.377 E81.5419
G1 X127.954 Y165.499 E81.61105
G1 X127.489 Y166.962 E81.70391
G1 X127.028 Y167.972 E81.77107
G1 X126.219 Y169.304 E81.86534
G1 X125.288 Y170.457 E81.95499
G1 X124.413 Y171.309 E82.02887
G1 X123.282 Y172.176 E82.11507
G1 X122.237 Y172.8 E82.1887
G1 X120.815 Y173.424 E82.28264
G1 X119.482 Y173.816 E82.36669
G1 X118.056 Y174.072 E82.45433
G1 X116.965 Y174.098 E82.52034
G1 X68.632 Y174.098 E85.44409
G1 X67.908 Y174.073 E85.48792
G1 X67.353 Y174.026 E85.52161
G1 X66.481 Y173.905 E85.57486
G1 X65.835 Y173.778 E85.61469
G1 X65.072 Y173.584 E85.66231
G1 X64.511 Y173.409 E85.69786
G1 X63.73 Y173.122 E85.7482
G1 X63.204 Y172.894 E85.78288
G1 X62.476 Y172.531 E85.83208
G1 X61.788 Y172.141 E85.87992
G1 X61.317 Y171.838 E85.9138
G1 X60.609 Y171.324 E85.96673
G1 X60.121 Y170.93 E86.00467
G1 X59.516 Y170.384 E86.05397
G1 X59.099 Y169.965 E86.08972
G1 X58.554 Y169.353 E86.1393
G1 X58.144 Y168.84 E86.17902
G1 X57.686 Y168.198 E86.22673
G1 X57.306 Y167.596 E86.26979
G1 X56.982 Y167.021 E86.30972
G1 X56.628 Y166.295 E86.35858
G1 X56.368 Y165.689 E86.39847
G1 X56.141 Y165.068 E86.43846
G1 X55.893 Y164.248 E86.49029
G1 X55.732 Y163.581 E86.53179
G1 X55.597 Y162.854 E86.57652
G1 X55.518 Y162.273 E86.61199
G1 X55.452 Y161.418 E86.66387
G1 X55.437 Y160.798 E86.70138
G1 X55.436 Y145.279 E87.64015
G1 X55.625 Y144.377 E87.6959
G1 X55.964 Y143.684 E87.74257
G1 X56.421 Y143.107 E87.7871
G1 X56.688 Y142.883 E87.80818
G1 X57.403 Y142.438 E87.85912
G0 F3150 X57.652 Y142.989
G1 F2100 X57.005 Y143.392 E87.90523
G1 X56.852 Y143.528 E87.91762
G1 X56.476 Y144.003 E87.95426
G1 X56.196 Y144.575 E87.99279
G1 X56.036 Y145.34 E88.04006
G1 X56.037 Y160.798 E88.97515
G1 X56.052 Y161.403 E89.01176
G1 X56.113 Y162.192 E89.05963
G1 X56.192 Y162.773 E89.0951
G1 X56.322 Y163.471 E89.13805
G1 X56.476 Y164.107 E89.17763
G1 X56.705 Y164.862 E89.22536
G1 X56.932 Y165.483 E89.26535
G1 X57.179 Y166.058 E89.30321
G1 X57.505 Y166.726 E89.34817
G1 X57.829 Y167.301 E89.3881
G1 X58.193 Y167.877 E89.42932
G1 X58.613 Y168.465 E89.47303
G1 X59.023 Y168.978 E89.51275
G1 X59.547 Y169.565 E89.56035
G1 X59.941 Y169.96 E89.5941
G1 X60.498 Y170.463 E89.6395
G1 X60.986 Y170.857 E89.67744
G1 X61.642 Y171.333 E89.72647
G1 X62.113 Y171.636 E89.76035
G1 X62.772 Y172.009 E89.80615
G1 X63.443 Y172.343 E89.85149
G1 X63.969 Y172.571 E89.88617
G1 X64.69 Y172.836 E89.93264
G1 X65.251 Y173.011 E89.96819
G1 X65.951 Y173.189 E90.01188
G1 X66.597 Y173.316 E90.05171
G1 X67.404 Y173.428 E90.10099
G1 X67.959 Y173.475 E90.13468
G1 X68.652 Y173.498 E90.17663
G1 X116.951 Y173.498 E93.09833
G1 X117.994 Y173.473 E93.16144
G1 X119.376 Y173.225 E93.24637
G1 X120.644 Y172.849 E93.32638
G1 X121.931 Y172.284 E93.4114
G1 X122.918 Y171.699 E93.48081
G1 X123.994 Y170.879 E93.56264
G1 X124.869 Y170.027 E93.63652
G1 X125.751 Y168.928 E93.72176
G1 X126.514 Y167.662 E93.81118
G1 X126.942 Y166.715 E93.87404
G1 X127.382 Y165.319 E93.96259
G1 X127.584 Y164.264 E94.02756
G1 X127.678 Y163.313 E94.08537
G1 X127.687 Y159.05 E94.34325
G1 X127.596 Y158.471 E94.3787
G1 X127.543 Y158.297 E94.38971
G1 X127.601 Y158.113 E94.40138
G1 X127.687 Y157.601 E94.43278
G1 X127.687 Y145.405 E95.17054
G1 X127.568 Y144.649 E95.21684
G1 X127.256 Y144.03 E95.25877
G1 X126.845 Y143.5 E95.29934
G1 X126.168 Y143.036 E95.34899
G1 X125.964 Y142.946 E95.36248
G1 X125.127 Y142.753 E95.41444
G1 X58.688 Y142.753 E99.43346
G1 X58.109 Y142.844 E99.46891
G1 X57.652 Y142.989 E99.49791
G0 F3150 X57.905 Y143.538
G1 F2100 X58.202 Y143.437 E99.51689
G1 X58.736 Y143.353 E99.54959
G1 X125.057 Y143.353 E103.56147
G1 X125.829 Y143.531 E103.6094
G1 X126.429 Y143.942 E103.65339
G1 X126.72 Y144.3 E103.6813
G1 X126.99 Y144.835 E103.71755
G1 X127.087 Y145.453 E103.75539
G1 X127.087 Y157.55 E104.48716
G1 X127.009 Y158.014 E104.51562
G1 X126.899 Y158.296 E104.53393
G1 X127.003 Y158.564 E104.55132
G1 X127.087 Y159.098 E104.58402
G1 X127.081 Y163.255 E104.83549
