;FLAVOR:Repetier
;TIME:5362
;MINX:59.636
;MINY:121.758
;MINZ:0.25
;MAXX:143.836
;MAXY:197.748
;MAXZ:25
;TARGET_MACHINE.NAME:Prusa i3 Mk2
;Generated with Cura_SteamEngine 5.6.0
M104 S240
M109 S240
M82 ;absolute extrusion mode
G28
G92 E0
G92 E0
G1 F3000 E-1
;LAYER_COUNT:100
;LAYER:0
M107
G0 F3150 X62.87 Y122.814 Z0.25
;TYPE:SKIRT
G1 F3000 E0
G1 F2100 X64.431 Y122.028 E0.10572
G1 X66.142 Y121.758 E0.21051
G1 X99.616 Y121.758 E2.23541
G1 X101.151 Y122.113 E2.33072
G1 X101.731 Y122.355 E2.36873
G1 X102.381 Y122.028 E2.41275
G1 X104.092 Y121.758 E2.51753
G1 X137.566 Y121.758 E4.54243
G1 X139.094 Y122.111 E4.6373
G1 X140.184 Y122.567 E4.70877
G1 X141.707 Y123.608 E4.82037
G1 X142.78 Y124.992 E4.9263
G1 X143.566 Y126.553 E5.03203
G1 X143.836 Y128.264 E5.13681
G1 X143.836 Y173.238 E7.85737
G1 X143.468 Y175.001 E7.96632
G1 X142.828 Y176.273 E8.05245
G1 X142.127 Y177.247 E8.12504
G1 X141.097 Y178.199 E8.20989
G1 X140.211 Y178.786 E8.27418
G1 X138.869 Y179.342 E8.36205
G1 X137.108 Y179.641 E8.4701
G1 X135.975 Y179.563 E8.5388
G1 X128.836 Y179.566 E8.97065
G1 X128.836 Y191.124 E9.66982
G1 X128.474 Y192.846 E9.77626
G1 X127.658 Y194.513 E9.88853
G1 X126.653 Y195.618 E9.97889
G1 X125.554 Y196.48 E10.06338
G1 X124.297 Y197.109 E10.14841
G1 X123.658 Y197.309 E10.18891
G1 X122.156 Y197.528 E10.28073
G1 X121.354 Y197.615 E10.32953
G1 X120.408 Y197.683 E10.3869
G1 X119.591 Y197.726 E10.43639
G1 X118.813 Y197.744 E10.48347
G1 X118.015 Y197.748 E10.53174
G1 X116.553 Y197.726 E10.62019
G1 X112.688 Y197.577 E10.85416
G1 X111.621 Y197.558 E10.91872
G1 X91.317 Y197.563 E12.14695
G1 X86.729 Y197.726 E12.42466
G1 X85.289 Y197.748 E12.51178
G1 X84.466 Y197.744 E12.56156
G1 X82.827 Y197.671 E12.66081
G1 X82.023 Y197.6 E12.70963
G1 X81.038 Y197.488 E12.7696
G1 X79.932 Y197.283 E12.83764
G1 X78.719 Y196.919 E12.91425
G1 X77.053 Y195.865 E13.03351
G1 X76.181 Y194.88 E13.11309
G1 X75.495 Y193.913 E13.18481
G1 X74.906 Y192.649 E13.26916
G1 X74.783 Y192.227 E13.29575
G1 X74.648 Y191.097 E13.36459
G1 X74.636 Y179.558 E14.06261
G1 X67.483 Y179.563 E14.49531
G1 X66.636 Y179.62 E14.54666
G1 X65.013 Y179.48 E14.6452
G1 X64.831 Y179.434 E14.65656
G1 X63.406 Y178.825 E14.7503
G1 X62.384 Y178.217 E14.82224
G1 X61.405 Y177.285 E14.904
G1 X60.739 Y176.491 E14.96669
G1 X60.064 Y175.115 E15.05941
G1 X59.636 Y173.329 E15.1705
G1 X59.636 Y128.028 E17.91085
G1 X59.989 Y126.5 E18.00571
G1 X60.445 Y125.41 E18.07719
G1 X61.486 Y123.887 E18.18878
G1 X62.87 Y122.814 E18.29471
G0 F3150 X63.189 Y123.326
G1 F2100 X64.616 Y122.607 E18.39137
G1 X66.192 Y122.358 E18.48789
G1 X99.546 Y122.358 E20.50554
G1 X100.965 Y122.686 E20.59364
G1 X101.754 Y123.016 E20.64537
G1 X102.566 Y122.607 E20.70037
G1 X104.142 Y122.358 E20.79689
G1 X137.496 Y122.358 E22.81454
G1 X138.913 Y122.685 E22.90251
G1 X139.895 Y123.096 E22.9669
G1 X141.292 Y124.051 E23.06927
G1 X142.268 Y125.311 E23.16568
G1 X142.987 Y126.738 E23.26234
G1 X143.236 Y128.314 E23.35886
G1 X143.236 Y173.178 E26.07276
G1 X142.898 Y174.799 E26.17293
G1 X142.312 Y175.963 E26.25176
G1 X141.677 Y176.846 E26.31756
G1 X140.726 Y177.725 E26.39589
G1 X139.925 Y178.256 E26.45403
G1 X138.707 Y178.76 E26.53376
G1 X137.077 Y179.037 E26.63378
G1 X136.001 Y178.963 E26.69902
G1 X128.236 Y178.966 E27.16874
G1 X128.236 Y191.063 E27.90051
G1 X127.903 Y192.648 E27.99849
G1 X127.157 Y194.172 E28.10113
G1 X126.241 Y195.179 E28.18347
G1 X125.235 Y195.968 E28.26081
G1 X124.07 Y196.551 E28.33962
G1 X123.524 Y196.722 E28.37423
G1 X122.091 Y196.931 E28.46183
G1 X121.289 Y197.018 E28.51063
G1 X120.377 Y197.084 E28.56594
G1 X119.577 Y197.126 E28.6144
G1 X118.81 Y197.144 E28.66081
G1 X118.024 Y197.148 E28.70836
G1 X116.576 Y197.126 E28.79596
G1 X112.711 Y196.977 E29.02994
G1 X111.632 Y196.958 E29.09522
G1 X91.296 Y196.963 E30.32538
G1 X86.72 Y197.126 E30.60237
G1 X85.292 Y197.148 E30.68876
G1 X84.488 Y197.144 E30.7374
G1 X83.714 Y197.116 E30.78425
G1 X82.879 Y197.073 E30.83482
G1 X82.09 Y197.004 E30.88273
G1 X81.146 Y196.898 E30.9402
G1 X80.105 Y196.708 E31.00421
G1 X78.969 Y196.367 E31.07596
G1 X77.445 Y195.403 E31.18504
G1 X76.67 Y194.533 E31.25552
G1 X76.016 Y193.612 E31.32385
G1 X75.478 Y192.467 E31.40038
G1 X75.379 Y192.156 E31.42013
G1 X75.244 Y191.026 E31.48897
G1 X75.236 Y178.958 E32.21898
G1 X67.458 Y178.963 E32.68949
G1 X66.641 Y179.018 E32.73902
G1 X65.065 Y178.882 E32.83471
G1 X63.713 Y178.309 E32.92354
G1 X62.747 Y177.734 E32.99154
G1 X61.865 Y176.899 E33.06501
G1 X61.245 Y176.16 E33.12337
G1 X60.631 Y174.908 E33.20772
G1 X60.236 Y173.26 E33.31023
G1 X60.236 Y128.098 E36.04217
G1 X60.563 Y126.681 E36.13014
G1 X60.974 Y125.699 E36.19453
G1 X61.929 Y124.302 E36.2969
G1 X63.189 Y123.326 E36.39331
G0 F3150 X63.51 Y123.836
G1 F2100 X64.802 Y123.185 E36.48083
G1 X66.241 Y122.958 E36.56895
G1 X99.476 Y122.958 E38.5794
G1 X100.779 Y123.259 E38.6603
G1 X101.544 Y123.579 E38.71046
G1 X101.741 Y123.695 E38.72429
G1 X102.752 Y123.185 E38.79278
G1 X104.191 Y122.958 E38.88091
G1 X137.426 Y122.958 E40.89136
G1 X138.732 Y123.259 E40.97243
G1 X139.606 Y123.625 E41.02975
G1 X140.875 Y124.493 E41.12275
G1 X141.758 Y125.632 E41.20993
G1 X142.409 Y126.924 E41.29745
G1 X142.636 Y128.363 E41.38557
G1 X142.636 Y173.117 E44.09283
G1 X142.327 Y174.598 E44.18434
G1 X141.796 Y175.653 E44.25579
G1 X141.224 Y176.448 E44.31503
G1 X140.358 Y177.249 E44.38639
G1 X139.639 Y177.726 E44.43859
G1 X138.544 Y178.179 E44.51027
G1 X137.047 Y178.433 E44.60212
G1 X136.027 Y178.363 E44.66397
G1 X127.636 Y178.366 E45.17156
G1 X127.636 Y191.002 E45.93593
G1 X127.332 Y192.45 E46.02543
G1 X126.656 Y193.831 E46.11844
G1 X125.829 Y194.74 E46.19278
G1 X124.916 Y195.456 E46.26297
G1 X123.801 Y196.014 E46.33839
G1 X123.437 Y196.128 E46.36147
G1 X122.026 Y196.334 E46.44773
G1 X121.224 Y196.421 E46.49652
G1 X120.346 Y196.485 E46.54978
G1 X119.563 Y196.526 E46.59721
G1 X118.807 Y196.544 E46.64295
G1 X118.033 Y196.548 E46.68977
G1 X116.599 Y196.526 E46.77653
G1 X112.734 Y196.377 E47.0105
G1 X111.642 Y196.358 E47.07657
G1 X91.275 Y196.363 E48.30861
G1 X86.711 Y196.526 E48.58487
G1 X85.295 Y196.548 E48.67054
G1 X84.509 Y196.544 E48.71808
G1 X83.745 Y196.517 E48.76433
G1 X82.931 Y196.475 E48.81363
G1 X82.157 Y196.408 E48.86063
G1 X81.252 Y196.307 E48.91572
G1 X80.278 Y196.133 E48.97557
G1 X79.219 Y195.815 E49.04245
G1 X77.836 Y194.94 E49.14145
G1 X77.159 Y194.186 E49.20275
G1 X76.537 Y193.31 E49.26774
G1 X76.021 Y192.212 E49.34113
G1 X75.968 Y192.028 E49.35271
G1 X75.84 Y190.955 E49.41808
G1 X75.836 Y178.358 E50.1801
G1 X67.433 Y178.363 E50.68841
G1 X66.646 Y178.416 E50.73613
G1 X65.213 Y178.292 E50.82313
G1 X64.02 Y177.793 E50.90136
G1 X63.109 Y177.251 E50.96548
G1 X62.325 Y176.513 E51.03062
G1 X61.751 Y175.829 E51.08463
G1 X61.198 Y174.701 E51.16062
G1 X60.836 Y173.191 E51.25455
G1 X60.836 Y128.168 E53.97808
G1 X61.137 Y126.862 E54.05915
G1 X61.503 Y125.988 E54.11647
G1 X62.371 Y124.719 E54.20948
G1 X63.51 Y123.836 E54.29666
G0 F3150 X63.832 Y124.346
G1 F2100 X64.988 Y123.763 E54.37497
G1 X66.29 Y123.558 E54.45471
G1 X99.406 Y123.558 E56.45795
G1 X100.598 Y123.833 E56.53195
G1 X101.312 Y124.132 E56.57878
G1 X101.726 Y124.4 E56.60861
G1 X101.88 Y124.297 E56.61982
G1 X102.938 Y123.763 E56.69151
G1 X104.24 Y123.558 E56.77124
G1 X137.356 Y123.558 E58.77449
G1 X138.551 Y123.833 E58.84867
G1 X139.317 Y124.154 E58.89891
G1 X140.458 Y124.935 E58.98255
G1 X141.248 Y125.954 E59.06055
G1 X141.831 Y127.11 E59.13886
G1 X142.036 Y128.412 E59.21859
G1 X142.036 Y173.057 E61.91925
G1 X141.757 Y174.396 E62.00199
G1 X141.28 Y175.343 E62.06614
G1 X140.774 Y176.047 E62.11858
G1 X139.986 Y176.775 E62.18348
G1 X139.357 Y177.193 E62.22916
G1 X138.377 Y177.598 E62.29331
G1 X137.017 Y177.829 E62.37675
G1 X136.053 Y177.763 E62.4352
G1 X127.036 Y177.766 E62.98066
G1 X127.036 Y190.941 E63.77764
G1 X126.761 Y192.252 E63.85867
G1 X126.155 Y193.49 E63.94205
G1 X125.417 Y194.301 E64.00838
G1 X124.597 Y194.944 E64.07142
G1 X123.532 Y195.477 E64.14346
G1 X123.35 Y195.534 E64.15499
G1 X121.961 Y195.737 E64.23991
G1 X121.159 Y195.824 E64.28871
G1 X120.315 Y195.886 E64.3399
G1 X119.549 Y195.926 E64.3863
G1 X118.804 Y195.944 E64.43138
G1 X118.042 Y195.948 E64.47748
G1 X116.622 Y195.926 E64.56339
G1 X112.757 Y195.777 E64.79736
G1 X111.652 Y195.758 E64.86421
G1 X91.254 Y195.763 E66.09813
G1 X86.702 Y195.926 E66.37366
G1 X85.298 Y195.948 E66.4586
G1 X84.53 Y195.944 E66.50506
G1 X83.776 Y195.918 E66.5507
G1 X82.982 Y195.877 E66.59879
G1 X82.223 Y195.812 E66.64488
G1 X81.355 Y195.716 E66.6977
G1 X80.451 Y195.558 E66.75322
G1 X79.469 Y195.263 E66.81524
G1 X78.228 Y194.478 E66.90407
G1 X77.606 Y193.785 E66.9604
G1 X77.057 Y193.007 E67.018
G1 X76.564 Y191.957 E67.08817
G1 X76.436 Y190.884 E67.15354
G1 X76.436 Y177.758 E67.94755
G1 X67.408 Y177.763 E68.49368
G1 X66.651 Y177.814 E68.53957
G1 X65.359 Y177.702 E68.61802
G1 X64.252 Y177.239 E68.69061
G1 X63.471 Y176.768 E68.74578
G1 X62.736 Y176.076 E68.80684
G1 X62.259 Y175.502 E68.85199
G1 X61.765 Y174.494 E68.91989
G1 X61.436 Y173.122 E69.00524
G1 X61.436 Y128.238 E71.72036
G1 X61.711 Y127.043 E71.79454
G1 X62.032 Y126.277 E71.84478
G1 X62.813 Y125.136 E71.92842
G1 X63.832 Y124.346 E72.00642
G0 F3150 X64.151 Y124.858
G1 F2100 X65.174 Y124.342 E72.07572
G1 X66.34 Y124.158 E72.14713
G1 X99.336 Y124.158 E74.14312
G1 X100.417 Y124.407 E74.21022
G1 X101.08 Y124.685 E74.25371
G1 X101.74 Y125.137 E74.3021
G1 X102.15 Y124.833 E74.33298
G1 X103.124 Y124.342 E74.39896
G1 X104.29 Y124.158 E74.47037
G1 X137.286 Y124.158 E76.46636
G1 X138.367 Y124.407 E76.53346
G1 X139.03 Y124.684 E76.57693
G1 X140.043 Y125.378 E76.65121
G1 X140.736 Y126.273 E76.71968
G1 X141.252 Y127.296 E76.78899
G1 X141.436 Y128.462 E76.8604
G1 X141.436 Y172.997 E79.5544
G1 X141.187 Y174.194 E79.62836
G1 X140.766 Y175.03 E79.68498
G1 X140.321 Y175.648 E79.73105
G1 X139.614 Y176.301 E79.78927
G1 X139.07 Y176.663 E79.8288
G1 X138.214 Y177.017 E79.88483
G1 X136.987 Y177.225 E79.96011
G1 X136.079 Y177.163 E80.01517
G1 X126.436 Y177.166 E80.59849
G1 X126.436 Y190.88 E81.42808
G1 X126.19 Y192.054 E81.50064
G1 X125.654 Y193.149 E81.57438
G1 X125.005 Y193.862 E81.63271
G1 X124.278 Y194.432 E81.68859
G1 X123.263 Y194.94 E81.75725
G1 X121.896 Y195.14 E81.84082
G1 X121.094 Y195.227 E81.88962
G1 X120.284 Y195.287 E81.93875
G1 X119.534 Y195.326 E81.98418
G1 X118.801 Y195.344 E82.02854
G1 X118.051 Y195.348 E82.07391
G1 X116.645 Y195.326 E82.15897
G1 X112.78 Y195.177 E82.39294
G1 X111.662 Y195.158 E82.46058
G1 X91.232 Y195.163 E83.69643
G1 X86.693 Y195.326 E83.97118
G1 X85.301 Y195.348 E84.0554
G1 X84.55 Y195.344 E84.10083
G1 X83.807 Y195.319 E84.1458
G1 X83.033 Y195.279 E84.19268
G1 X82.288 Y195.216 E84.23791
G1 X81.456 Y195.125 E84.28854
G1 X80.623 Y194.983 E84.33966
G1 X79.72 Y194.712 E84.39669
G1 X78.618 Y194.014 E84.4756
G1 X78.096 Y193.439 E84.52257
G1 X77.578 Y192.705 E84.57692
G1 X77.148 Y191.789 E84.63813
G1 X77.036 Y190.884 E84.69329
G1 X77.036 Y177.158 E85.5236
G1 X67.383 Y177.163 E86.10753
G1 X66.656 Y177.212 E86.15161
G1 X65.505 Y177.112 E86.2215
G1 X64.484 Y176.685 E86.28844
G1 X63.837 Y176.288 E86.33436
G1 X63.198 Y175.693 E86.38718
G1 X62.767 Y175.174 E86.42799
G1 X62.332 Y174.287 E86.48775
G1 X62.036 Y173.053 E86.56452
G1 X62.036 Y128.308 E89.27122
G1 X62.285 Y127.227 E89.33833
G1 X62.562 Y126.564 E89.38179
G1 X63.256 Y125.551 E89.45607
G1 X64.151 Y124.858 E89.52455
G0 F3150 X64.47 Y125.369
G1 F2100 X65.36 Y124.92 E89.58485
G1 X66.389 Y124.758 E89.64786
G1 X99.266 Y124.758 E91.63665
G1 X100.233 Y124.981 E91.69668
G1 X100.793 Y125.215 E91.7334
G1 X101.601 Y125.769 E91.79266
G1 X101.737 Y125.898 E91.804
G1 X102.42 Y125.369 E91.85626
G1 X103.31 Y124.92 E91.91656
G1 X104.339 Y124.758 E91.97957
G1 X137.216 Y124.758 E93.96836
G1 X138.183 Y124.981 E94.02839
G1 X138.743 Y125.215 E94.06511
G1 X139.628 Y125.821 E94.12999
G1 X140.225 Y126.592 E94.18898
G1 X140.674 Y127.482 E94.24928
G1 X140.836 Y128.511 E94.31229
G1 X140.836 Y172.938 E96.99976
G1 X140.617 Y173.992 E97.06488
G1 X140.25 Y174.72 E97.1142
G1 X139.871 Y175.247 E97.15347
G1 X139.207 Y175.86 E97.20813
G1 X138.79 Y176.129 E97.23815
G1 X138.047 Y176.436 E97.28678
G1 X136.957 Y176.621 E97.35366
G1 X136.105 Y176.563 E97.40532
G1 X125.836 Y176.566 E98.02651
G1 X125.836 Y190.819 E98.8887
G1 X125.619 Y191.856 E98.95279
G1 X125.153 Y192.808 E99.01691
G1 X124.593 Y193.423 E99.06722
G1 X123.955 Y193.923 E99.11626
G1 X123.083 Y194.36 E99.17526
G1 X121.831 Y194.543 E99.2518
G1 X121.029 Y194.63 E99.3006
G1 X120.253 Y194.688 E99.34767
G1 X119.519 Y194.726 E99.39213
G1 X118.798 Y194.744 E99.43576
G1 X118.06 Y194.748 E99.4804
G1 X116.668 Y194.726 E99.56462
G1 X112.803 Y194.577 E99.79859
G1 X111.672 Y194.558 E99.86702
G1 X91.217 Y194.563 E101.10438
G1 X90.626 Y194.578 E101.14014
G1 X86.683 Y194.726 E101.37883
G1 X85.304 Y194.748 E101.46226
G1 X84.57 Y194.744 E101.50666
G1 X83.838 Y194.72 E101.55097
G1 X83.083 Y194.681 E101.5967
G1 X82.353 Y194.62 E101.64101
G1 X81.554 Y194.533 E101.68963
G1 X80.796 Y194.408 E101.7361
G1 X79.97 Y194.16 E101.78827
G1 X79.006 Y193.549 E101.85731
G1 X78.586 Y193.093 E101.89481
G1 X78.099 Y192.403 E101.9459
G1 X77.732 Y191.621 E101.99816
G1 X77.636 Y190.884 E102.04312
G1 X77.636 Y176.558 E102.90972
G1 X67.358 Y176.563 E103.53146
G1 X66.661 Y176.61 E103.57372
G1 X65.648 Y176.522 E103.63523
G1 X64.759 Y176.15 E103.69352
G1 X64.203 Y175.809 E103.73298
G1 X63.607 Y175.254 E103.78224
G1 X63.275 Y174.847 E103.81401
G1 X62.899 Y174.08 E103.86569
G1 X62.636 Y172.984 E103.93387
G1 X62.636 Y128.378 E106.63217
G1 X62.859 Y127.411 E106.6922
G1 X63.093 Y126.851 E106.72891
G1 X63.699 Y125.966 E106.7938
G1 X64.47 Y125.369 E106.85278
G0 F3150 X64.791 Y125.879
G1 F2100 X65.546 Y125.499 E106.90391
G1 X66.439 Y125.358 E106.9586
G1 X99.196 Y125.358 E108.94013
G1 X100.098 Y125.566 E108.99613
G1 X100.454 Y125.71 E109.01936
G1 X101.262 Y126.264 E109.07862
G1 X101.744 Y126.89 E109.12641
G1 X102.091 Y126.383 E109.16358
G1 X102.741 Y125.879 E109.21333
G1 X103.496 Y125.499 E109.26446
G1 X104.389 Y125.358 E109.31915
G1 X137.146 Y125.358 E111.30068
G1 X138.048 Y125.566 E111.35668
G1 X138.404 Y125.71 E111.37991
G1 X139.211 Y126.263 E111.43909
G1 X139.715 Y126.913 E111.48884
G1 X140.095 Y127.668 E111.53997
G1 X140.236 Y128.561 E111.59466
G1 X140.236 Y172.879 E114.27554
G1 X140.047 Y173.79 E114.33182
G1 X139.714 Y174.45 E114.37654
G1 X139.42 Y174.847 E114.40642
G1 X138.867 Y175.365 E114.45226
G1 X138.561 Y175.575 E114.47471
G1 X137.884 Y175.855 E114.51903
G1 X136.927 Y176.017 E114.57774
G1 X136.131 Y175.963 E114.626
G1 X125.236 Y175.966 E115.28506
G1 X125.236 Y190.758 E116.17986
G1 X125.048 Y191.658 E116.23548
G1 X124.651 Y192.469 E116.2901
G1 X124.184 Y192.981 E116.33202
G1 X123.632 Y193.414 E116.37446
G1 X122.902 Y193.78 E116.42386
G1 X121.766 Y193.946 E116.4933
G1 X120.964 Y194.033 E116.5421
G1 X120.222 Y194.089 E116.58712
G1 X119.504 Y194.126 E116.63061
G1 X118.795 Y194.144 E116.67351
G1 X118.07 Y194.148 E116.71737
G1 X116.691 Y194.126 E116.8008
G1 X112.826 Y193.977 E117.03477
G1 X111.682 Y193.958 E117.10398
G1 X91.202 Y193.963 E118.34286
G1 X90.603 Y193.978 E118.3791
G1 X86.673 Y194.126 E118.617
G1 X85.307 Y194.148 E118.69965
G1 X84.589 Y194.144 E118.74308
G1 X83.869 Y194.121 E118.78666
G1 X83.132 Y194.083 E118.8313
G1 X82.418 Y194.024 E118.87464
G1 X81.647 Y193.94 E118.92155
G1 X80.968 Y193.833 E118.96313
G1 X80.221 Y193.609 E119.01031
G1 X79.394 Y193.085 E119.06953
G1 X79.028 Y192.687 E119.10224
G1 X78.62 Y192.101 E119.14543
G1 X78.315 Y191.45 E119.18892
G1 X78.236 Y190.884 E119.22349
G1 X78.236 Y175.958 E120.12639
G1 X67.333 Y175.963 E120.78594
G1 X66.666 Y176.008 E120.82638
G1 X65.791 Y175.932 E120.87951
G1 X64.991 Y175.597 E120.93197
G1 X64.57 Y175.331 E120.9621
G1 X64.016 Y174.815 E121.00789
G1 X63.784 Y174.521 E121.03055
G1 X63.466 Y173.873 E121.07421
G1 X63.236 Y172.915 E121.13381
G1 X63.236 Y128.448 E123.8237
G1 X63.444 Y127.546 E123.8797
G1 X63.588 Y127.19 E123.90293
G1 X64.141 Y126.383 E123.96211
G1 X64.791 Y125.879 E124.01186
G0 F3150 X65.113 Y126.389
G1 F2100 X65.732 Y126.077 E124.05379
G1 X66.488 Y125.958 E124.10009
G1 X99.126 Y125.958 E126.07442
