;FLAVOR:Repetier
;TIME:4389
;MINX:62.879
;MINY:121.054
;MINZ:0.25
;MAXX:122.679
;MAXY:201.354
;MAXZ:24.5
;TARGET_MACHINE.NAME:Prusa i3 Mk2
;Generated with Cura_SteamEngine 5.6.0
M104 S240
M109 S240
M82 ;absolute extrusion mode
G28
G92 E0
G92 E0
G1 F3000 E-1
;LAYER_COUNT:98
;LAYER:0
M107
G0 F3150 X81.477 Y122.103 Z0.25
;TYPE:SKIRT
G1 F3000 E0
G1 F2100 X83.599 Y121.26 E0.13812
G1 X85.248 Y121.083 E0.23845
G1 X116.409 Y121.054 E2.12343
G1 X117.937 Y121.407 E2.2183
G1 X119.027 Y121.863 E2.28977
G1 X120.55 Y122.904 E2.40137
G1 X121.623 Y124.288 E2.5073
G1 X122.409 Y125.849 E2.61303
G1 X122.679 Y127.56 E2.71781
G1 X122.674 Y184.966 E6.1904
G1 X122.384 Y186.615 E6.29169
G1 X121.631 Y188.502 E6.41459
G1 X120.414 Y190.245 E6.54318
G1 X109.684 Y199.668 E7.40702
G1 X108.208 Y200.53 E7.51042
G1 X106.619 Y201.097 E7.61248
G1 X105.055 Y201.354 E7.70835
G1 X71.038 Y201.308 E9.76611
G1 X69.621 Y201.121 E9.85257
G1 X67.654 Y200.398 E9.97934
G1 X65.92 Y199.203 E10.10673
G1 X64.386 Y197.52 E10.24448
G1 X63.386 Y195.533 E10.37904
G1 X62.879 Y193.425 E10.5102
G1 X62.879 Y155.491 E12.80489
G1 X63.385 Y153.326 E12.93939
G1 X64.433 Y151.331 E13.07571
G1 X65.822 Y149.809 E13.20035
G1 X67.477 Y148.607 E13.32409
G1 X69.623 Y147.756 E13.46374
G1 X71.274 Y147.579 E13.56418
G1 X76.879 Y147.562 E13.90324
G1 X76.879 Y128.991 E15.02663
G1 X77.385 Y126.826 E15.16113
G1 X78.433 Y124.831 E15.29745
G1 X79.822 Y123.309 E15.42209
G1 X81.477 Y122.103 E15.54597
G0 F3150 X81.767 Y122.634
G1 F2100 X83.745 Y121.848 E15.67472
G1 X85.312 Y121.68 E15.77005
G1 X116.339 Y121.654 E17.64694
G1 X117.756 Y121.981 E17.73491
G1 X118.738 Y122.392 E17.7993
G1 X120.135 Y123.347 E17.90167
G1 X121.111 Y124.607 E17.99808
G1 X121.83 Y126.034 E18.09474
G1 X122.079 Y127.61 E18.19126
G1 X122.074 Y184.913 E21.65762
G1 X121.804 Y186.451 E21.75208
G1 X121.1 Y188.214 E21.86692
G1 X119.963 Y189.842 E21.98704
G1 X109.331 Y199.179 E22.84299
G1 X107.953 Y199.984 E22.93953
G1 X106.468 Y200.514 E23.03491
G1 X105.007 Y200.754 E23.12447
G1 X71.116 Y200.713 E25.17461
G1 X69.764 Y200.535 E25.2571
G1 X67.934 Y199.862 E25.37505
G1 X66.315 Y198.746 E25.49399
G1 X64.886 Y197.179 E25.62228
G1 X63.952 Y195.323 E25.74797
G1 X63.479 Y193.356 E25.87035
G1 X63.479 Y155.56 E28.1567
G1 X63.952 Y153.537 E28.28238
G1 X64.929 Y151.677 E28.40947
G1 X66.223 Y150.259 E28.52559
G1 X67.767 Y149.137 E28.64105
G1 X69.767 Y148.344 E28.7712
G1 X71.338 Y148.176 E28.86677
G1 X77.479 Y148.161 E29.23825
G1 X77.479 Y129.06 E30.39371
G1 X77.952 Y127.037 E30.51938
G1 X78.929 Y125.177 E30.64647
G1 X80.223 Y123.759 E30.7626
G1 X81.767 Y122.634 E30.87816
G0 F3150 X82.057 Y123.165
G1 F2100 X83.894 Y122.435 E30.99774
G1 X85.313 Y122.28 E31.08409
G1 X116.269 Y122.254 E32.95667
G1 X117.575 Y122.555 E33.03775
G1 X118.449 Y122.921 E33.09507
G1 X119.718 Y123.789 E33.18807
G1 X120.601 Y124.928 E33.27525
G1 X121.252 Y126.22 E33.36277
G1 X121.479 Y127.659 E33.45089
G1 X121.474 Y184.86 E36.91109
G1 X121.223 Y186.288 E36.99879
G1 X120.569 Y187.927 E37.10554
G1 X119.514 Y189.438 E37.21702
G1 X108.978 Y198.69 E38.06521
G1 X107.698 Y199.438 E38.1549
G1 X106.317 Y199.931 E38.2436
G1 X104.959 Y200.154 E38.32685
G1 X71.195 Y200.118 E40.3693
G1 X69.907 Y199.948 E40.44788
G1 X68.212 Y199.325 E40.55713
G1 X66.711 Y198.291 E40.66738
G1 X65.386 Y196.838 E40.78634
G1 X64.518 Y195.113 E40.90315
G1 X64.079 Y193.287 E41.01675
G1 X64.079 Y155.629 E43.29476
G1 X64.519 Y153.748 E43.41161
G1 X65.423 Y152.026 E43.52926
G1 X66.627 Y150.707 E43.63729
G1 X68.057 Y149.667 E43.74426
G1 X69.914 Y148.931 E43.86509
G1 X71.339 Y148.776 E43.9518
G1 X78.079 Y148.76 E44.35952
G1 X78.079 Y129.129 E45.54703
G1 X78.519 Y127.248 E45.66389
G1 X79.423 Y125.526 E45.78154
G1 X80.627 Y124.207 E45.88957
G1 X82.057 Y123.165 E45.9966
G0 F3150 X82.347 Y123.696
G1 F2100 X84.043 Y123.022 E46.107
G1 X85.314 Y122.88 E46.18436
G1 X116.199 Y122.854 E48.05266
G1 X117.394 Y123.129 E48.12683
G1 X118.16 Y123.45 E48.17707
G1 X119.301 Y124.231 E48.26072
G1 X120.091 Y125.25 E48.33871
G1 X120.674 Y126.406 E48.41703
G1 X120.879 Y127.708 E48.49676
G1 X120.874 Y184.807 E51.95079
G1 X120.643 Y186.124 E52.03167
G1 X120.038 Y187.639 E52.13035
G1 X119.063 Y189.035 E52.23336
G1 X108.625 Y198.201 E53.07367
G1 X107.443 Y198.892 E53.15649
G1 X106.166 Y199.348 E53.23851
G1 X104.911 Y199.554 E53.31545
G1 X71.273 Y199.523 E55.35027
G1 X70.05 Y199.362 E55.42489
G1 X68.489 Y198.788 E55.5255
G1 X67.107 Y197.836 E55.62702
G1 X65.886 Y196.497 E55.73664
G1 X65.084 Y194.903 E55.84458
G1 X64.679 Y193.218 E55.94941
G1 X64.679 Y155.698 E58.21906
G1 X65.086 Y153.959 E58.3271
G1 X65.919 Y152.372 E58.43552
G1 X67.028 Y151.157 E58.53503
G1 X68.348 Y150.197 E58.63377
G1 X70.058 Y149.519 E58.74504
G1 X71.404 Y149.373 E58.82694
G1 X78.679 Y149.359 E59.26702
G1 X78.679 Y129.198 E60.4866
G1 X79.086 Y127.459 E60.59464
G1 X79.919 Y125.872 E60.70306
G1 X81.028 Y124.657 E60.80257
G1 X82.347 Y123.696 E60.90129
G0 F3150 X82.637 Y124.227
G1 F2100 X84.192 Y123.609 E61.00251
G1 X85.315 Y123.48 E61.07089
G1 X116.129 Y123.454 E62.93489
G1 X117.21 Y123.703 E63.00199
G1 X117.873 Y123.98 E63.04546
G1 X118.886 Y124.674 E63.11974
G1 X119.579 Y125.569 E63.18821
G1 X120.095 Y126.592 E63.25752
G1 X120.279 Y127.758 E63.32892
G1 X120.274 Y184.754 E66.77672
G1 X120.062 Y185.961 E66.85085
G1 X119.507 Y187.352 E66.94144
G1 X118.614 Y188.631 E67.03581
G1 X108.272 Y197.712 E67.86836
G1 X107.188 Y198.346 E67.94432
G1 X106.015 Y198.765 E68.01967
G1 X104.863 Y198.954 E68.09029
G1 X71.352 Y198.928 E70.11743
G1 X70.193 Y198.775 E70.18815
G1 X68.766 Y198.251 E70.28011
G1 X67.503 Y197.381 E70.37288
G1 X66.386 Y196.156 E70.47317
G1 X65.65 Y194.693 E70.57223
G1 X65.279 Y193.149 E70.66829
G1 X65.279 Y155.767 E72.9296
G1 X65.653 Y154.17 E73.02882
G1 X66.415 Y152.718 E73.12801
G1 X67.429 Y151.607 E73.219
G1 X68.639 Y150.727 E73.30951
G1 X70.202 Y150.107 E73.41122
G1 X71.469 Y149.97 E73.48831
G1 X79.279 Y149.958 E73.96076
G1 X79.279 Y129.267 E75.21239
G1 X79.653 Y127.67 E75.31161
G1 X80.415 Y126.218 E75.41081
G1 X81.429 Y125.107 E75.5018
G1 X82.637 Y124.227 E75.59221
G0 F3150 X82.93 Y124.756
G1 F2100 X84.337 Y124.196 E75.68381
G1 X85.316 Y124.08 E75.74345
G1 X116.059 Y124.054 E77.60315
G1 X117.026 Y124.277 E77.66318
G1 X117.586 Y124.511 E77.69989
G1 X118.471 Y125.117 E77.76478
G1 X119.068 Y125.888 E77.82376
G1 X119.517 Y126.778 E77.88406
G1 X119.679 Y127.807 E77.94708
G1 X119.674 Y184.701 E81.3887
G1 X119.482 Y185.797 E81.45601
G1 X118.976 Y187.064 E81.53854
G1 X118.163 Y188.228 E81.62443
G1 X107.919 Y197.223 E82.44909
G1 X106.933 Y197.8 E82.5182
G1 X105.864 Y198.182 E82.58687
G1 X104.815 Y198.354 E82.65117
G1 X71.43 Y198.333 E84.6707
G1 X70.336 Y198.189 E84.73744
G1 X69.043 Y197.714 E84.82077
G1 X67.899 Y196.926 E84.9048
G1 X66.886 Y195.815 E84.99575
G1 X66.216 Y194.483 E85.08595
G1 X65.879 Y193.08 E85.17323
G1 X65.879 Y155.836 E87.42619
G1 X66.22 Y154.381 E87.51659
G1 X66.911 Y153.064 E87.60656
G1 X67.83 Y152.057 E87.68903
G1 X68.93 Y151.257 E87.7713
G1 X70.347 Y150.695 E87.86352
G1 X71.533 Y150.567 E87.93568
G1 X79.879 Y150.557 E88.44054
G1 X79.879 Y129.336 E89.72424
G1 X80.22 Y127.881 E89.81464
G1 X80.911 Y126.564 E89.90461
G1 X81.83 Y125.557 E89.98708
G1 X82.93 Y124.756 E90.06939
G0 F3150 X83.22 Y125.287
G1 F2100 X84.487 Y124.783 E90.15187
G1 X85.387 Y124.676 E90.2067
G1 X115.989 Y124.654 E92.05787
G1 X116.891 Y124.862 E92.11387
G1 X117.247 Y125.006 E92.1371
G1 X118.054 Y125.559 E92.19628
G1 X118.558 Y126.209 E92.24603
G1 X118.938 Y126.964 E92.29716
G1 X119.079 Y127.857 E92.35185
G1 X119.074 Y184.648 E95.78725
G1 X118.901 Y185.634 E95.8478
G1 X118.446 Y186.774 E95.92205
G1 X117.712 Y187.825 E95.9996
G1 X107.566 Y196.734 E96.81638
G1 X106.678 Y197.254 E96.87863
G1 X105.713 Y197.599 E96.94062
G1 X104.767 Y197.754 E96.99861
G1 X71.509 Y197.738 E99.01045
G1 X70.479 Y197.602 E99.07329
G1 X69.32 Y197.177 E99.14797
G1 X68.295 Y196.471 E99.22326
G1 X67.386 Y195.474 E99.30487
G1 X66.782 Y194.273 E99.38619
G1 X66.479 Y193.011 E99.4647
G1 X66.479 Y155.905 E101.70932
G1 X66.787 Y154.592 E101.7909
G1 X67.407 Y153.41 E101.87164
G1 X68.231 Y152.507 E101.94559
G1 X69.221 Y151.787 E102.01964
G1 X70.492 Y151.283 E102.10235
G1 X71.597 Y151.164 E102.16958
G1 X80.479 Y151.156 E102.70686
G1 X80.479 Y129.405 E104.02262
G1 X80.787 Y128.092 E104.1042
G1 X81.407 Y126.91 E104.18495
G1 X82.231 Y126.007 E104.25889
G1 X83.22 Y125.287 E104.3329
G0 F3150 X83.513 Y125.816
G1 F2100 X84.634 Y125.37 E104.40588
G1 X85.458 Y125.272 E104.45607
G1 X115.919 Y125.254 E106.29872
G1 X116.756 Y125.447 E106.35068
G1 X116.96 Y125.537 E106.36416
G1 X117.637 Y126.001 E106.41381
G1 X118.048 Y126.531 E106.45438
G1 X118.36 Y127.15 E106.49632
G1 X118.479 Y127.906 E106.54261
G1 X118.474 Y184.595 E109.97183
G1 X118.32 Y185.471 E110.02564
G1 X117.916 Y186.484 E110.09161
G1 X117.261 Y187.422 E110.16082
G1 X107.213 Y196.245 E110.96971
G1 X106.423 Y196.708 E111.0251
G1 X105.562 Y197.016 E111.08041
G1 X104.719 Y197.154 E111.13209
G1 X71.587 Y197.143 E113.1363
G1 X70.622 Y197.016 E113.19518
G1 X69.597 Y196.64 E113.26123
G1 X68.691 Y196.016 E113.32777
G1 X67.886 Y195.133 E113.40005
G1 X67.348 Y194.063 E113.4725
G1 X67.079 Y192.942 E113.54224
G1 X67.079 Y155.974 E115.7785
G1 X67.354 Y154.803 E115.85126
G1 X67.903 Y153.756 E115.92278
G1 X68.632 Y152.957 E115.98821
G1 X69.512 Y152.317 E116.05403
G1 X70.639 Y151.87 E116.12737
G1 X71.598 Y151.764 E116.18573
G1 X81.079 Y151.755 E116.75926
G1 X81.079 Y129.474 E118.10708
G1 X81.354 Y128.303 E118.17984
G1 X81.903 Y127.256 E118.25135
G1 X82.632 Y126.457 E118.31678
G1 X83.513 Y125.816 E118.38269
G0 F3150 X83.803 Y126.347
G1 F2100 X84.784 Y125.957 E118.44655
G1 X85.529 Y125.868 E118.49193
G1 X115.849 Y125.854 E120.32605
G1 X116.621 Y126.032 E120.37397
G1 X117.221 Y126.443 E120.41797
G1 X117.512 Y126.801 E120.44588
G1 X117.782 Y127.336 E120.48213
G1 X117.879 Y127.954 E120.51997
G1 X117.874 Y184.542 E123.94308
G1 X117.74 Y185.307 E123.99006
G1 X117.385 Y186.196 E124.04797
G1 X116.81 Y187.019 E124.1087
G1 X106.86 Y195.756 E124.90971
G1 X106.167 Y196.162 E124.95829
G1 X105.411 Y196.433 E125.00687
G1 X104.671 Y196.554 E125.05223
G1 X71.665 Y196.548 E127.04883
G1 X70.763 Y196.429 E127.10386
G1 X69.875 Y196.104 E127.16106
G1 X69.09 Y195.563 E127.21873
G1 X68.385 Y194.789 E127.28207
G1 X67.914 Y193.853 E127.34545
G1 X67.679 Y192.873 E127.40641
G1 X67.679 Y156.043 E129.63433
G1 X67.921 Y155.014 E129.69827
G1 X68.399 Y154.102 E129.76056
G1 X69.033 Y153.407 E129.81747
G1 X69.803 Y152.847 E129.87506
G1 X70.786 Y152.457 E129.93903
G1 X71.599 Y152.364 E129.98853
G1 X81.679 Y152.354 E130.59829
G1 X81.679 Y129.543 E131.97817
G1 X81.921 Y128.514 E132.04212
G1 X82.399 Y127.602 E132.1044
G1 X83.033 Y126.907 E132.16131
G1 X83.803 Y126.347 E132.21891
G0 F3150 X84.094 Y126.877
G1 F2100 X84.933 Y126.544 E132.27351
G1 X85.6 Y126.464 E132.31415
G1 X115.779 Y126.454 E134.13973
G1 X116.377 Y126.592 E134.17686
G1 X116.772 Y126.841 E134.2051
G1 X116.976 Y127.071 E134.2237
G1 X117.204 Y127.523 E134.25432
G1 X117.279 Y127.954 E134.28079
G1 X117.274 Y184.49 E137.70075
G1 X117.16 Y185.142 E137.74079
G1 X116.853 Y185.91 E137.79083
G1 X116.361 Y186.615 E137.84283
G1 X106.507 Y195.267 E138.63608
G1 X105.913 Y195.615 E138.67772
G1 X105.258 Y195.85 E138.71982
G1 X104.623 Y195.954 E138.75874
G1 X71.665 Y195.948 E140.75243
G1 X70.91 Y195.843 E140.79854
G1 X70.152 Y195.566 E140.84736
G1 X69.488 Y195.108 E140.89616
G1 X68.884 Y194.445 E140.95041
G1 X68.48 Y193.643 E141.00473
G1 X68.279 Y192.804 E141.05692
G1 X68.279 Y156.112 E143.27649
G1 X68.488 Y155.223 E143.33173
G1 X68.892 Y154.452 E143.38439
G1 X69.437 Y153.855 E143.43329
G1 X70.094 Y153.377 E143.48244
G1 X70.933 Y153.044 E143.53704
G1 X71.6 Y152.964 E143.57768
G1 X81.684 Y152.954 E144.18768
G1 X82.005 Y152.888 E144.2075
G1 X82.158 Y152.759 E144.21961
G1 X82.279 Y152.496 E144.23712
G1 X82.279 Y129.612 E145.62142
G1 X82.488 Y128.723 E145.67666
G1 X82.892 Y127.952 E145.72931
G1 X83.437 Y127.355 E145.77821
G1 X84.094 Y126.877 E145.82736
G1 F3000 E144.82736
G0 F3150 X84.676 Y127.937
G1 F3000 E145.82736
G1 F2100 X85.229 Y127.718 E145.86334
G1 X85.744 Y127.656 E145.89472
G1 X115.779 Y127.654 E147.71159
G1 X115.928 Y127.693 E147.72091
G1 X116.037 Y127.801 E147.73019
G1 X116.079 Y127.954 E147.73979
G1 X116.074 Y184.437 E151.15655
G1 X116 Y184.812 E151.17967
G1 X115.792 Y185.334 E151.21366
G1 X115.461 Y185.808 E151.24864
G1 X105.758 Y194.327 E152.02971
G1 X105.447 Y194.507 E152.05145
G1 X104.996 Y194.677 E152.0806
G1 X104.575 Y194.754 E152.10649
G1 X71.738 Y194.752 E154.09287
G1 X71.264 Y194.694 E154.12175
G1 X70.705 Y194.491 E154.15773
G1 X70.283 Y194.199 E154.18877
G1 X69.883 Y193.76 E154.2247
G1 X69.616 Y193.231 E154.26054
G1 X69.479 Y192.658 E154.29618
G1 X69.479 Y156.252 E156.49845
G1 X69.622 Y155.647 E156.53605
G1 X69.884 Y155.146 E156.57025
G1 X70.284 Y154.708 E156.60614
G1 X70.676 Y154.437 E156.63496
G1 X71.229 Y154.218 E156.67094
G1 X71.744 Y154.156 E156.70232
G1 X81.763 Y154.154 E157.30839
G1 X82.188 Y154.102 E157.33429
G1 X82.568 Y153.958 E157.35887
G1 X82.905 Y153.725 E157.38366
G1 X83.174 Y153.421 E157.40821
G1 X83.426 Y152.874 E157.44464
G1 X83.479 Y152.434 E157.47145
G1 X83.479 Y129.752 E158.84353
G1 X83.622 Y129.147 E158.88113
G1 X83.884 Y128.646 E158.91534
G1 X84.284 Y128.208 E158.95122
G1 X84.676 Y127.937 E158.98004
G0 F3150 X84.385 Y127.407
G1 F2100 X85.081 Y127.131 E159.02534
G1 X85.672 Y127.06 E159.06134
G1 X115.779 Y127.054 E160.88257
G1 X116.08 Y127.113 E160.90113
G1 X116.35 Y127.267 E160.91993
G1 X116.459 Y127.375 E160.92921
G1 X116.616 Y127.642 E160.94795
G1 X116.679 Y127.954 E160.9672
G1 X116.674 Y184.437 E164.38397
G1 X116.579 Y184.979 E164.41725
G1 X116.322 Y185.623 E164.4592
G1 X115.912 Y186.211 E164.50256
G1 X106.154 Y194.778 E165.28805
G1 X105.659 Y195.068 E165.32275
G1 X105.104 Y195.267 E165.35842
G1 X104.575 Y195.354 E165.39085
G1 X71.665 Y195.348 E167.38164
G1 X71.059 Y195.258 E167.4187
G1 X70.43 Y195.029 E167.45919
G1 X69.883 Y194.651 E167.49941
G1 X69.384 Y194.104 E167.5442
G1 X69.048 Y193.437 E167.58938
G1 X68.879 Y192.731 E167.63329
G1 X68.879 Y156.182 E169.84421
G1 X69.055 Y155.435 E169.89063
G1 X69.388 Y154.799 E169.93406
G1 X69.841 Y154.303 E169.9747
G1 X70.385 Y153.907 E170.0154
G1 X71.081 Y153.631 E170.06069
G1 X71.672 Y153.56 E170.0967
G1 X81.723 Y153.554 E170.7047
G1 X82.045 Y153.515 E170.72432
G1 X82.286 Y153.423 E170.73993
G1 X82.505 Y153.272 E170.75602
G1 X82.666 Y153.09 E170.77072
G1 X82.841 Y152.71 E170.79603
G1 X82.879 Y152.395 E170.81522
G1 X82.879 Y129.682 E172.18917
G1 X83.055 Y128.935 E172.2356
G1 X83.388 Y128.299 E172.27902
G1 X83.841 Y127.803 E172.31966
G1 X84.385 Y127.407 E172.36036
G1 F3000 E171.36036
;MESH:suporte eixo z esquerdo.stl
G0 F3150 X84.399 Y129.859
G0 X96.178 Y151.318
G0 X98.48 Y151.315
G0 X99.314 Y151.677
G0 X99.814 Y152.364
G0 X99.918 Y156.179
G0 X99.573 Y158.828
;TYPE:WALL-INNER
G1 F3000 E172.36036
G1 F2100 X98.845 Y159.044 E172.4063
G1 X97.941 Y159.126 E172.46121
G1 X97.209 Y159.222 E172.50586
G1 X96.63 Y159.332 E172.54152
G1 X96.066 Y159.461 E172.57651
G1 X95.249 Y159.692 E172.62787
G1 X94.343 Y160.037 E172.68652
G1 X93.846 Y160.256 E172.71937
G1 X92.836 Y160.748 E172.78733
G1 X92.274 Y160.881 E172.82227
G1 X91.422 Y160.896 E172.87381
G1 X90.951 Y160.806 E172.90282
G1 X90.239 Y160.512 E172.94942
G1 X89.986 Y160.345 E172.96776
G1 X89.408 Y159.818 E173.01507
G1 X89.205 Y159.537 E173.03604
G1 X88.874 Y158.943 E173.07718
G1 X88.714 Y158.324 E173.11585
G1 X88.679 Y157.962 E173.13785
G1 X88.679 Y152.664 E173.45834
G1 X88.81 Y152.067 E173.49531
G1 X89.018 Y151.564 E173.52824
G1 X89.193 Y151.262 E173.54935
G1 X89.58 Y150.755 E173.58794
G1 X90.085 Y150.368 E173.62642
G1 X90.804 Y150.01 E173.67501
G1 X91.519 Y149.857 E173.71924
G1 X98.397 Y149.854 E174.1353
G1 X99.057 Y149.94 E174.17557
G1 X99.669 Y150.194 E174.21565
G1 X100.205 Y150.524 E174.25372
G1 X100.717 Y151.039 E174.29765
G1 X101.136 Y151.72 E174.34602
G1 X101.373 Y152.566 E174.39917
G1 X101.379 Y156.282 E174.62396
G1 X101.241 Y156.898 E174.66214
G1 X101.063 Y157.329 E174.69035
G1 X100.801 Y157.786 E174.72222
