;FLAVOR:Repetier
;TIME:4305
;MINX:64.172
;MINY:103.792
;MINZ:0.25
;MAXX:123.972
;MAXY:184.092
;MAXZ:24.5
;TARGET_MACHINE.NAME:Prusa i3 Mk2
;Generated with Cura_SteamEngine 5.6.0
M104 S240
M109 S240
M82 ;absolute extrusion mode
G28
G92 E0
G92 E0
G1 F3000 E-1
;LAYER_COUNT:98
;LAYER:0
M107
G0 F3150 X67.411 Y104.846 Z0.25
;TYPE:SKIRT
G1 F3000 E0
G1 F2100 X68.969 Y104.063 E0.10548
G1 X70.686 Y103.792 E0.21063
G1 X101.811 Y103.838 E2.09344
G1 X103.231 Y104.024 E2.18007
G1 X105.204 Y104.746 E2.30716
G1 X106.932 Y105.937 E2.43412
G1 X108.461 Y107.616 E2.57149
G1 X109.462 Y109.607 E2.70629
G1 X109.972 Y111.728 E2.83825
G1 X109.972 Y130.305 E3.96201
G1 X115.811 Y130.338 E4.31523
G1 X117.231 Y130.524 E4.40186
G1 X119.204 Y131.246 E4.52895
G1 X120.932 Y132.437 E4.6559
G1 X122.461 Y134.116 E4.79327
G1 X123.462 Y136.107 E4.92808
G1 X123.972 Y138.228 E5.06004
G1 X123.967 Y176.115 E7.35189
G1 X123.61 Y177.754 E7.45336
G1 X122.945 Y179.437 E7.56283
G1 X121.768 Y181.143 E7.68821
G1 X120.132 Y182.561 E7.81917
G1 X118.604 Y183.351 E7.92323
G1 X117.47 Y183.796 E7.99692
G1 X115.823 Y184.087 E8.09809
G1 X81.798 Y184.092 E10.15633
G1 X80.21 Y183.835 E10.25364
G1 X78.514 Y183.225 E10.36267
G1 X77.026 Y182.289 E10.469
G1 X66.488 Y173.021 E11.31793
G1 X65.508 Y171.677 E11.41855
G1 X64.674 Y170.032 E11.53012
G1 X64.172 Y167.992 E11.6572
G1 X64.172 Y110.062 E15.1615
G1 X64.525 Y108.534 E15.25636
G1 X64.981 Y107.444 E15.32784
G1 X66.021 Y105.923 E15.4393
G1 X67.411 Y104.846 E15.54567
G0 F3150 X67.729 Y105.358
G1 F2100 X69.155 Y104.641 E15.64222
G1 X70.734 Y104.392 E15.73891
G1 X101.733 Y104.433 E17.6141
G1 X103.09 Y104.611 E17.69689
G1 X104.924 Y105.282 E17.81503
G1 X106.534 Y106.392 E17.93332
G1 X107.962 Y107.96 E18.06161
G1 X108.896 Y109.817 E18.18736
G1 X109.372 Y111.797 E18.31054
G1 X109.372 Y130.902 E19.46624
G1 X115.733 Y130.933 E19.85103
G1 X117.09 Y131.111 E19.93382
G1 X118.924 Y131.782 E20.05196
G1 X120.534 Y132.892 E20.17025
G1 X121.962 Y134.46 E20.29854
G1 X122.896 Y136.317 E20.42429
G1 X123.372 Y138.297 E20.54747
G1 X123.367 Y176.051 E22.83128
G1 X123.034 Y177.579 E22.92588
G1 X122.413 Y179.151 E23.02813
G1 X121.316 Y180.741 E23.14498
G1 X119.795 Y182.06 E23.26677
G1 X118.385 Y182.792 E23.36287
G1 X117.306 Y183.215 E23.43298
G1 X115.769 Y183.487 E23.5274
G1 X81.845 Y183.492 E25.57952
G1 X80.364 Y183.252 E25.67028
G1 X78.776 Y182.681 E25.77236
G1 X77.388 Y181.808 E25.87155
G1 X66.935 Y172.615 E26.71362
G1 X66.019 Y171.359 E26.80766
G1 X65.241 Y169.824 E26.91176
G1 X64.772 Y167.918 E27.0305
G1 X64.772 Y110.132 E30.52608
G1 X65.099 Y108.715 E30.61405
G1 X65.51 Y107.733 E30.67844
G1 X66.464 Y106.338 E30.78068
G1 X67.729 Y105.358 E30.87748
G0 F3150 X68.052 Y105.867
G1 F2100 X69.339 Y105.22 E30.96461
G1 X70.783 Y104.992 E31.05305
G1 X101.655 Y105.028 E32.92055
G1 X102.949 Y105.198 E32.9995
G1 X104.644 Y105.818 E33.10868
G1 X106.139 Y106.849 E33.21853
G1 X107.463 Y108.302 E33.33745
G1 X108.329 Y110.025 E33.4541
G1 X108.772 Y111.866 E33.56864
G1 X108.772 Y131.499 E34.75628
G1 X115.655 Y131.528 E35.17265
G1 X116.949 Y131.698 E35.2516
G1 X118.644 Y132.318 E35.36078
G1 X120.139 Y133.349 E35.47063
G1 X121.463 Y134.802 E35.58954
G1 X122.329 Y136.525 E35.70619
G1 X122.772 Y138.366 E35.82074
G1 X122.767 Y175.987 E38.0965
G1 X122.458 Y177.404 E38.18424
G1 X121.881 Y178.865 E38.27926
G1 X120.864 Y180.339 E38.38759
G1 X119.457 Y181.559 E38.50024
G1 X118.166 Y182.233 E38.58833
G1 X117.141 Y182.635 E38.65494
G1 X115.716 Y182.887 E38.74248
G1 X81.892 Y182.892 E40.78855
G1 X80.518 Y182.669 E40.87276
G1 X79.038 Y182.137 E40.96789
G1 X77.75 Y181.327 E41.05993
G1 X67.38 Y172.207 E41.89531
G1 X66.532 Y171.044 E41.98238
G1 X65.808 Y169.616 E42.07923
G1 X65.372 Y167.844 E42.18962
G1 X65.372 Y110.202 E45.67649
G1 X65.673 Y108.896 E45.75757
G1 X66.039 Y108.022 E45.81489
G1 X66.906 Y106.755 E45.90776
G1 X68.052 Y105.867 E45.99546
G0 F3150 X68.37 Y106.379
G1 F2100 X69.525 Y105.798 E46.07367
G1 X70.831 Y105.592 E46.15364
G1 X101.577 Y105.623 E48.01353
G1 X102.808 Y105.785 E48.08864
G1 X104.366 Y106.355 E48.18899
G1 X105.74 Y107.302 E48.28994
G1 X106.964 Y108.646 E48.3999
G1 X107.763 Y110.235 E48.50749
G1 X108.172 Y111.935 E48.61326
G1 X108.172 Y132.097 E49.8329
G1 X115.577 Y132.123 E50.28084
G1 X116.808 Y132.285 E50.35595
G1 X118.366 Y132.855 E50.45631
G1 X119.74 Y133.802 E50.55725
G1 X120.964 Y135.146 E50.66722
G1 X121.763 Y136.735 E50.7748
G1 X122.172 Y138.435 E50.88057
G1 X122.167 Y175.923 E53.14829
G1 X121.882 Y177.229 E53.22916
G1 X121.349 Y178.579 E53.31695
G1 X120.412 Y179.937 E53.41676
G1 X119.118 Y181.06 E53.5204
G1 X117.947 Y181.674 E53.60039
G1 X116.976 Y182.055 E53.66348
G1 X115.663 Y182.287 E53.74414
G1 X81.939 Y182.292 E55.78417
G1 X80.672 Y182.086 E55.86182
G1 X79.3 Y181.593 E55.95001
G1 X78.112 Y180.846 E56.0349
G1 X67.827 Y171.801 E56.86342
G1 X67.043 Y170.726 E56.94391
G1 X66.375 Y169.408 E57.03329
G1 X65.972 Y167.77 E57.13533
G1 X65.972 Y110.272 E60.61349
G1 X66.247 Y109.077 E60.68767
G1 X66.568 Y108.311 E60.73791
G1 X67.349 Y107.17 E60.82155
G1 X68.37 Y106.379 E60.89968
G0 F3150 X68.688 Y106.891
G1 F2100 X69.711 Y106.376 E60.96896
G1 X70.879 Y106.192 E61.04049
G1 X101.499 Y106.218 E62.89275
G1 X102.667 Y106.372 E62.96402
G1 X104.086 Y106.891 E63.05542
G1 X105.342 Y107.757 E63.1477
G1 X106.465 Y108.99 E63.24859
G1 X107.197 Y110.445 E63.34712
G1 X107.572 Y112.004 E63.44411
G1 X107.572 Y132.695 E64.69575
G1 X115.499 Y132.718 E65.17527
G1 X116.667 Y132.872 E65.24654
G1 X118.086 Y133.391 E65.33794
G1 X119.342 Y134.257 E65.43022
G1 X120.465 Y135.49 E65.53111
G1 X121.197 Y136.945 E65.62964
G1 X121.572 Y138.504 E65.72663
G1 X121.567 Y175.859 E67.98631
G1 X121.306 Y177.054 E68.0603
G1 X120.817 Y178.293 E68.14088
G1 X119.96 Y179.535 E68.23216
G1 X118.78 Y180.56 E68.32671
G1 X117.728 Y181.115 E68.39866
G1 X116.811 Y181.475 E68.45825
G1 X115.61 Y181.687 E68.53202
G1 X81.986 Y181.692 E70.566
G1 X80.826 Y181.503 E70.6371
G1 X79.562 Y181.049 E70.71834
G1 X78.474 Y180.365 E70.79608
G1 X68.272 Y171.393 E71.61792
G1 X67.556 Y170.411 E71.69144
G1 X66.942 Y169.2 E71.77357
G1 X66.572 Y167.696 E71.86726
G1 X66.572 Y110.342 E75.33671
G1 X66.821 Y109.261 E75.40382
G1 X67.098 Y108.598 E75.44728
G1 X67.792 Y107.585 E75.52156
G1 X68.688 Y106.891 E75.59012
G0 F3150 X69.006 Y107.403
G1 F2100 X69.896 Y106.955 E75.6504
G1 X70.928 Y106.792 E75.7136
G1 X101.421 Y106.813 E77.55818
G1 X102.521 Y106.958 E77.62529
G1 X103.809 Y107.429 E77.70825
G1 X104.947 Y108.214 E77.79188
G1 X105.965 Y109.331 E77.8833
G1 X106.631 Y110.655 E77.97296
G1 X106.972 Y112.073 E78.06118
G1 X106.972 Y133.294 E79.34488
G1 X115.421 Y133.313 E79.85597
G1 X116.521 Y133.458 E79.92309
G1 X117.809 Y133.929 E80.00605
G1 X118.947 Y134.714 E80.08968
G1 X119.965 Y135.831 E80.1811
G1 X120.631 Y137.155 E80.27075
G1 X120.972 Y138.573 E80.35898
G1 X120.967 Y175.795 E82.6106
G1 X120.731 Y176.877 E82.6776
G1 X120.284 Y178.008 E82.75116
G1 X119.509 Y179.131 E82.8337
G1 X118.437 Y180.063 E82.91963
G1 X117.509 Y180.556 E82.98319
G1 X116.647 Y180.894 E83.0392
G1 X115.556 Y181.087 E83.10623
G1 X82.034 Y181.092 E85.13403
G1 X80.979 Y180.92 E85.1987
G1 X79.824 Y180.505 E85.27294
G1 X78.836 Y179.884 E85.34353
G1 X68.719 Y170.987 E86.15851
G1 X68.067 Y170.093 E86.22544
G1 X67.509 Y168.992 E86.30011
G1 X67.172 Y167.622 E86.38545
G1 X67.172 Y110.412 E89.84619
G1 X67.395 Y109.445 E89.90623
G1 X67.629 Y108.885 E89.94294
G1 X68.235 Y108 E90.00782
G1 X69.006 Y107.403 E90.06681
G0 F3150 X69.327 Y107.913
G1 F2100 X70.082 Y107.533 E90.11794
G1 X70.976 Y107.392 E90.17269
G1 X101.342 Y107.408 E92.00958
G1 X102.38 Y107.545 E92.07292
G1 X103.531 Y107.966 E92.14706
G1 X104.551 Y108.669 E92.22199
G1 X105.465 Y109.672 E92.30408
G1 X106.065 Y110.865 E92.38486
G1 X106.372 Y112.142 E92.46431
G1 X106.372 Y133.893 E93.78007
G1 X115.342 Y133.908 E94.32268
G1 X116.38 Y134.045 E94.38602
G1 X117.531 Y134.466 E94.46015
G1 X118.551 Y135.169 E94.53509
G1 X119.465 Y136.172 E94.61718
G1 X120.065 Y137.365 E94.69796
G1 X120.372 Y138.642 E94.77741
G1 X120.367 Y175.731 E97.02099
G1 X120.155 Y176.702 E97.08111
G1 X119.752 Y177.722 E97.14745
G1 X119.058 Y178.727 E97.22133
G1 X118.095 Y179.565 E97.29856
G1 X117.29 Y179.997 E97.35382
G1 X116.482 Y180.314 E97.40632
G1 X115.503 Y180.487 E97.46646
G1 X82.082 Y180.492 E99.48816
G1 X81.133 Y180.337 E99.54633
G1 X80.086 Y179.961 E99.61363
G1 X79.198 Y179.403 E99.67707
G1 X69.164 Y170.579 E100.48536
G1 X68.58 Y169.778 E100.54533
G1 X68.076 Y168.784 E100.61274
G1 X67.772 Y167.548 E100.68974
G1 X67.772 Y110.482 E104.14177
G1 X67.98 Y109.58 E104.19776
G1 X68.124 Y109.224 E104.22099
G1 X68.677 Y108.417 E104.28017
G1 X69.327 Y107.913 E104.32993
G0 F3150 X69.649 Y108.423
G1 F2100 X70.268 Y108.111 E104.37186
G1 X71.024 Y107.992 E104.41816
G1 X101.264 Y108.003 E106.24743
G1 X102.234 Y108.131 E106.30662
G1 X103.254 Y108.504 E106.37231
G1 X104.156 Y109.126 E106.43859
G1 X104.965 Y110.013 E106.51121
G1 X105.499 Y111.075 E106.58312
G1 X105.772 Y112.211 E106.6538
G1 X105.772 Y134.492 E108.00162
G1 X115.264 Y134.503 E108.5758
G1 X116.234 Y134.631 E108.63499
G1 X117.254 Y135.004 E108.70069
G1 X118.156 Y135.626 E108.76697
G1 X118.965 Y136.513 E108.83959
G1 X119.499 Y137.575 E108.9115
G1 X119.772 Y138.711 E108.98217
G1 X119.767 Y175.667 E111.21771
G1 X119.579 Y176.527 E111.27096
G1 X119.22 Y177.436 E111.33008
G1 X118.606 Y178.326 E111.39549
G1 X117.753 Y179.067 E111.46384
G1 X117.071 Y179.438 E111.5108
G1 X116.317 Y179.734 E111.5598
G1 X115.45 Y179.887 E111.61306
G1 X82.13 Y179.892 E113.62865
G1 X81.287 Y179.754 E113.68032
G1 X80.348 Y179.417 E113.74067
G1 X79.56 Y178.922 E113.79696
G1 X69.611 Y170.173 E114.5984
G1 X69.091 Y169.46 E114.65178
G1 X68.643 Y168.576 E114.71173
G1 X68.372 Y167.474 E114.78038
G1 X68.372 Y110.552 E118.2237
G1 X68.565 Y109.715 E118.27566
G1 X68.655 Y109.511 E118.28915
G1 X69.119 Y108.834 E118.3388
G1 X69.649 Y108.423 E118.37937
G0 F3150 X69.919 Y108.959
G1 F2100 X70.454 Y108.689 E118.41562
G1 X71.072 Y108.592 E118.45346
G1 X101.186 Y108.598 E120.27511
G1 X102.088 Y108.717 E120.33015
G1 X102.977 Y109.042 E120.38741
G1 X103.759 Y109.581 E120.44486
G1 X104.466 Y110.357 E120.50836
G1 X104.933 Y111.285 E120.57121
G1 X105.172 Y112.28 E120.63311
G1 X105.172 Y135.092 E122.01305
G1 X115.186 Y135.098 E122.61881
G1 X116.088 Y135.217 E122.67385
G1 X116.977 Y135.542 E122.73111
G1 X117.759 Y136.081 E122.78856
G1 X118.466 Y136.857 E122.85206
G1 X118.933 Y137.785 E122.91491
G1 X119.172 Y138.78 E122.97681
G1 X119.167 Y175.603 E125.2043
G1 X119.004 Y176.349 E125.25049
G1 X118.687 Y177.151 E125.30266
G1 X118.155 Y177.922 E125.35932
G1 X117.408 Y178.571 E125.41918
G1 X116.852 Y178.879 E125.45763
G1 X116.153 Y179.153 E125.50305
G1 X115.396 Y179.287 E125.54955
G1 X82.178 Y179.292 E127.55897
G1 X81.441 Y179.171 E127.60415
G1 X80.61 Y178.873 E127.65755
G1 X79.922 Y178.441 E127.7067
G1 X70.056 Y169.765 E128.50145
G1 X69.604 Y169.145 E128.54786
G1 X69.21 Y168.368 E128.60056
G1 X68.972 Y167.4 E128.66086
G1 X68.972 Y110.622 E132.09547
G1 X69.15 Y109.85 E132.14339
G1 X69.561 Y109.25 E132.18739
G1 X69.919 Y108.959 E132.2153
G0 F3150 X70.189 Y109.495
G1 F2100 X70.641 Y109.267 E132.24592
G1 X71.072 Y109.192 E132.27238
G1 X101.186 Y109.198 E134.09404
G1 X101.941 Y109.303 E134.14015
G1 X102.702 Y109.581 E134.18916
G1 X103.36 Y110.034 E134.23748
G1 X103.967 Y110.701 E134.29204
G1 X104.367 Y111.495 E134.34582
G1 X104.572 Y112.349 E134.39894
G1 X104.572 Y135.265 E135.78518
G1 X104.707 Y135.517 E135.80247
G1 X104.893 Y135.646 E135.81616
G1 X105.086 Y135.692 E135.82816
G1 X115.186 Y135.698 E136.43913
G1 X115.941 Y135.803 E136.48524
G1 X116.702 Y136.081 E136.53425
G1 X117.36 Y136.534 E136.58258
G1 X117.967 Y137.201 E136.63713
G1 X118.367 Y137.995 E136.69091
G1 X118.572 Y138.849 E136.74404
G1 X118.567 Y175.539 E138.96349
G1 X118.428 Y176.174 E139.00281
G1 X118.155 Y176.865 E139.04775
G1 X117.703 Y177.52 E139.09589
G1 X117.063 Y178.076 E139.14718
G1 X116.633 Y178.32 E139.17709
G1 X115.988 Y178.573 E139.219
G1 X115.343 Y178.687 E139.25862
G1 X82.226 Y178.692 E141.26193
G1 X81.593 Y178.588 E141.30073
G1 X80.873 Y178.33 E141.347
G1 X80.284 Y177.96 E141.38908
G1 X70.503 Y169.359 E142.17697
G1 X70.115 Y168.827 E142.2168
G1 X69.777 Y168.16 E142.26203
G1 X69.572 Y167.326 E142.31399
G1 X69.572 Y110.692 E145.73988
G1 X69.71 Y110.094 E145.77701
G1 X69.959 Y109.699 E145.80525
G1 X70.189 Y109.495 E145.82385
G0 F3150 X70.919 Y110.434
G1 F2100 X71.072 Y110.392 E145.83345
G1 X101.113 Y110.394 E147.65068
G1 X101.587 Y110.452 E147.67957
G1 X102.146 Y110.655 E147.71555
G1 X102.567 Y110.946 E147.74651
G1 X102.968 Y111.386 E147.78252
G1 X103.235 Y111.915 E147.81836
G1 X103.372 Y112.487 E147.85394
G1 X103.372 Y135.179 E149.22662
G1 X103.423 Y135.598 E149.25216
G1 X103.568 Y135.981 E149.27693
G1 X103.801 Y136.318 E149.30171
G1 X104.106 Y136.588 E149.32635
G1 X104.471 Y136.78 E149.3513
G1 X104.942 Y136.892 E149.38059
G1 X115.113 Y136.894 E149.99585
G1 X115.587 Y136.952 E150.02474
G1 X116.146 Y137.155 E150.06071
G1 X116.567 Y137.446 E150.09167
G1 X116.968 Y137.886 E150.12768
G1 X117.235 Y138.415 E150.16353
G1 X117.372 Y138.987 E150.19911
G1 X117.367 Y175.409 E152.40235
G1 X117.295 Y175.775 E152.42491
G1 X117.089 Y176.295 E152.45874
G1 X116.799 Y176.715 E152.48962
G1 X116.364 Y177.094 E152.52452
G1 X116.11 Y177.243 E152.54233
G1 X115.658 Y177.414 E152.57157
G1 X115.29 Y177.487 E152.59426
G1 X82.274 Y177.492 E154.59146
G1 X81.853 Y177.415 E154.61735
G1 X81.402 Y177.245 E154.64651
G1 X81.042 Y177.028 E154.67193
G1 X71.393 Y168.543 E155.4492
G1 X71.163 Y168.241 E155.47216
G1 X70.911 Y167.744 E155.50587
G1 X70.772 Y167.178 E155.54112
G1 X70.772 Y110.692 E158.95807
G1 X70.811 Y110.543 E158.96738
G1 X70.919 Y110.434 E158.97667
G0 F3150 X70.493 Y110.012
G1 F2100 X70.76 Y109.855 E158.9954
G1 X71.072 Y109.792 E159.01466
G1 X101.186 Y109.798 E160.83631
G1 X101.792 Y109.888 E160.87337
G1 X102.424 Y110.118 E160.91405
G1 X102.962 Y110.489 E160.95359
G1 X103.468 Y111.045 E160.99906
G1 X103.801 Y111.705 E161.04378
G1 X103.972 Y112.418 E161.08814
G1 X103.972 Y135.14 E162.46263
G1 X104.01 Y135.456 E162.48188
G1 X104.102 Y135.698 E162.49755
G1 X104.254 Y135.918 E162.51372
G1 X104.45 Y136.091 E162.52954
G1 X104.682 Y136.213 E162.54539
G1 X105.014 Y136.292 E162.56604
G1 X115.186 Y136.298 E163.18136
G1 X115.792 Y136.388 E163.21842
G1 X116.424 Y136.618 E163.2591
G1 X116.962 Y136.989 E163.29864
G1 X117.468 Y137.545 E163.34411
G1 X117.801 Y138.205 E163.38883
G1 X117.972 Y138.918 E163.43319
G1 X117.967 Y175.475 E165.64459
G1 X117.853 Y175.996 E165.67685
G1 X117.622 Y176.58 E165.71484
G1 X117.252 Y177.116 E165.75424
G1 X116.712 Y177.586 E165.79754
G1 X116.414 Y177.761 E165.81845
G1 X115.823 Y177.993 E165.85685
G1 X115.29 Y178.087 E165.88959
G1 X82.274 Y178.092 E167.88679
G1 X81.745 Y178.005 E167.91922
G1 X81.136 Y177.787 E167.95835
G1 X80.646 Y177.479 E167.99336
G1 X70.948 Y168.951 E168.77457
G1 X70.628 Y168.512 E168.80743
G1 X70.344 Y167.952 E168.84542
G1 X70.172 Y167.252 E168.88902
G1 X70.172 Y110.692 E172.31044
G1 X70.231 Y110.391 E172.32899
G1 X70.385 Y110.121 E172.3478
G1 X70.493 Y110.012 E172.35708
G1 F3000 E171.35708
;MESH:suporte eixo z direito.stl
G0 F3150 X71.686 Y111.306
G0 X73.444 Y127.32
G0 X87.693 Y140.117
G0 X95.993 Y143.517
;TYPE:WALL-INNER
G1 F3000 E172.35708
G1 F2100 X95.341 Y143.646 E172.39728
G1 X95.053 Y143.659 E172.41472
G1 X94.36 Y143.569 E172.457
G1 X93.905 Y143.441 E172.48559
G1 X93.076 Y143.026 E172.54167
G1 X92.515 Y142.778 E172.57877
G1 X91.947 Y142.558 E172.61562
G1 X91.375 Y142.366 E172.65212
G1 X90.79 Y142.201 E172.68889
G1 X90.194 Y142.063 E172.72589
G1 X89.643 Y141.962 E172.75978
G1 X88.915 Y141.862 E172.80423
G1 X88.014 Y141.785 E172.85893
G1 X87.596 Y141.657 E172.88538
G1 X87.13 Y141.463 E172.91591
G1 X86.75 Y141.235 E172.94272
G1 X86.281 Y140.808 E172.98109
G1 X85.95 Y140.362 E173.01469
G1 X85.609 Y139.636 E173.06321
G1 X85.472 Y139.022 E173.10126
G1 X85.477 Y135.312 E173.32569
G1 X85.711 Y134.466 E173.37878
G1 X86.133 Y133.778 E173.42761
G1 X86.648 Y133.261 E173.47175
G1 X87.181 Y132.932 E173.50964
G1 X87.677 Y132.726 E173.54213
