;FLAVOR:Repetier
;TIME:6699
;MINX:61.931
;MINY:78.839
;MINZ:0.25
;MAXX:120.731
;MAXY:252.639
;MAXZ:50
;TARGET_MACHINE.NAME:Prusa i3 Mk2
;Generated with Cura_SteamEngine 5.6.0
M104 S240
M109 S240
M82 ;absolute extrusion mode
G28
G92 E0
G92 E0
G1 F3000 E-1
;LAYER_COUNT:200
;LAYER:0
M107
G0 F3150 X68.383 Y85.43 Z0.25
;TYPE:SKIRT
G1 F3000 E0
G1 F2100 X69.771 Y84.565 E0.09893
G1 X70.824 Y84.127 E0.16792
G1 X72.291 Y83.839 E0.25836
G1 X73.686 Y83.839 E0.34274
G1 X73.872 Y83.432 E0.36981
G1 X74.667 Y82.251 E0.45593
G1 X76.498 Y80.42 E0.61257
G1 X77.871 Y79.565 E0.71041
G1 X78.924 Y79.127 E0.7794
G1 X80.391 Y78.839 E0.86984
G1 X85.361 Y78.839 E1.17048
G1 X87.017 Y79.233 E1.27345
G1 X87.992 Y79.649 E1.33758
G1 X88.896 Y80.258 E1.40351
G1 X89.362 Y79.897 E1.43917
G1 X90.925 Y79.109 E1.54506
G1 X92.637 Y78.839 E1.6499
G1 X97.461 Y78.839 E1.94171
G1 X98.989 Y79.192 E2.03658
G1 X100.079 Y79.648 E2.10805
G1 X101.602 Y80.689 E2.21965
G1 X102.675 Y82.073 E2.32558
G1 X103.461 Y83.634 E2.4313
G1 X103.731 Y85.345 E2.53609
G1 X103.731 Y119.12 E4.5792
G1 X103.75 Y119.994 E4.63208
G1 X103.832 Y121.25 E4.70822
G1 X103.917 Y122.03 E4.75568
G1 X104.086 Y123.127 E4.82283
G1 X120.433 Y215.451 E10.49455
G1 X120.563 Y216.336 E10.54866
G1 X120.705 Y218.002 E10.6498
G1 X120.731 Y219.048 E10.71309
G1 X120.715 Y241.203 E12.05329
G1 X120.632 Y242.176 E12.11236
G1 X120.315 Y243.831 E12.2143
G1 X120.014 Y244.779 E12.27447
G1 X119.348 Y246.294 E12.37458
G1 X118.784 Y247.25 E12.44172
G1 X117.963 Y248.362 E12.52533
G1 X117.267 Y249.121 E12.58763
G1 X115.944 Y250.269 E12.69359
G1 X115.129 Y250.826 E12.7533
G1 X113.678 Y251.6 E12.85278
G1 X112.689 Y251.993 E12.91716
G1 X111.519 Y252.325 E12.99073
G1 X109.872 Y252.585 E13.09159
G1 X108.847 Y252.639 E13.15368
G1 X90.304 Y252.62 E14.27539
G1 X89.182 Y252.519 E14.34353
G1 X88.376 Y252.378 E14.39303
G1 X86.408 Y251.781 E14.51743
G1 X85.481 Y251.363 E14.57895
G1 X84.515 Y250.815 E14.64613
G1 X83.019 Y249.708 E14.75871
G1 X82.273 Y248.998 E14.82101
G1 X81.271 Y247.829 E14.91414
G1 X80.935 Y247.352 E14.94944
G1 X80.12 Y245.896 E15.05037
G1 X79.443 Y244.172 E15.16241
G1 X79.175 Y243.116 E15.22832
G1 X79.003 Y241.998 E15.29674
G1 X78.936 Y240.943 E15.36069
G1 X78.931 Y219.267 E16.67191
G1 X78.897 Y218.307 E16.73002
G1 X78.771 Y217.447 E16.7826
G1 X62.468 Y125.344 E22.44069
G1 X62.234 Y123.766 E22.53719
G1 X62.057 Y122.148 E22.63565
G1 X61.96 Y120.553 E22.73232
G1 X61.931 Y119.014 E22.82543
G1 X61.934 Y94.566 E24.30433
G1 X62.26 Y92.793 E24.41338
G1 X63.068 Y91.008 E24.53191
G1 X64.156 Y89.666 E24.63642
G1 X68.383 Y85.43 E24.99842
G0 F3150 X68.761 Y85.901
G1 F2100 X70.045 Y85.101 E25.08993
G1 X70.997 Y84.705 E25.1523
G1 X72.351 Y84.439 E25.23577
G1 X74.083 Y84.439 E25.34055
G1 X74.37 Y83.767 E25.38475
G1 X75.134 Y82.632 E25.46751
G1 X76.873 Y80.893 E25.61628
G1 X78.145 Y80.101 E25.70692
G1 X79.097 Y79.705 E25.76929
G1 X80.451 Y79.439 E25.85277
G1 X85.289 Y79.439 E26.14543
G1 X86.831 Y79.806 E26.24131
G1 X87.703 Y80.178 E26.29866
G1 X88.921 Y80.998 E26.38748
G1 X89.683 Y80.407 E26.44581
G1 X91.111 Y79.688 E26.54253
G1 X92.687 Y79.439 E26.63904
G1 X97.391 Y79.439 E26.9236
G1 X98.808 Y79.766 E27.01157
G1 X99.79 Y80.177 E27.07596
G1 X101.187 Y81.132 E27.17833
G1 X102.163 Y82.392 E27.27474
G1 X102.882 Y83.819 E27.3714
G1 X103.131 Y85.395 E27.46792
G1 X103.131 Y119.12 E29.50801
G1 X103.151 Y120.033 E29.56325
G1 X103.235 Y121.315 E29.64097
G1 X103.32 Y122.099 E29.68867
G1 X103.495 Y123.232 E29.75802
G1 X119.839 Y215.538 E35.42864
G1 X119.969 Y216.423 E35.48275
G1 X120.105 Y218.017 E35.57952
G1 X120.131 Y219.048 E35.64191
G1 X120.117 Y241.154 E36.97914
G1 X120.042 Y242.065 E37.03444
G1 X119.743 Y243.649 E37.13195
G1 X119.442 Y244.597 E37.19211
G1 X118.83 Y245.991 E37.28421
G1 X118.3 Y246.895 E37.3476
G1 X117.521 Y247.956 E37.42722
G1 X116.825 Y248.715 E37.48952
G1 X115.604 Y249.775 E37.58733
G1 X114.846 Y250.297 E37.643
G1 X113.456 Y251.042 E37.7384
G1 X112.467 Y251.435 E37.80278
G1 X111.425 Y251.732 E37.86832
G1 X109.778 Y251.992 E37.96918
G1 X108.848 Y252.039 E38.02551
G1 X90.358 Y252.022 E39.14401
G1 X89.236 Y251.921 E39.21216
G1 X88.481 Y251.787 E39.25854
G1 X86.655 Y251.234 E39.37395
G1 X85.728 Y250.816 E39.43547
G1 X84.871 Y250.332 E39.495
G1 X83.433 Y249.273 E39.60303
G1 X82.687 Y248.563 E39.66533
G1 X81.762 Y247.483 E39.75135
G1 X81.426 Y247.006 E39.78665
G1 X80.678 Y245.675 E39.879
G1 X80.025 Y244.024 E39.9864
G1 X79.757 Y242.968 E40.05231
G1 X79.602 Y241.96 E40.114
G1 X79.535 Y240.905 E40.17795
G1 X79.531 Y219.246 E41.48814
G1 X79.496 Y218.253 E41.54825
G1 X79.365 Y217.36 E41.60284
G1 X63.061 Y125.256 E47.26101
G1 X62.83 Y123.701 E47.3561
G1 X62.656 Y122.111 E47.45286
G1 X62.56 Y120.542 E47.54795
G1 X62.531 Y119.014 E47.6404
G1 X62.534 Y94.621 E49.11598
G1 X62.837 Y92.974 E49.21728
G1 X63.583 Y91.326 E49.32671
G1 X64.581 Y90.09 E49.42281
G1 X68.761 Y85.901 E49.78078
G0 F3150 X69.139 Y86.372
G1 F2100 X70.319 Y85.637 E49.86488
G1 X71.17 Y85.283 E49.92063
G1 X72.411 Y85.039 E49.99714
G1 X74.52 Y85.039 E50.12472
G1 X74.592 Y84.776 E50.14121
G1 X74.899 Y84.056 E50.18856
G1 X75.601 Y83.013 E50.26461
G1 X77.248 Y81.366 E50.40551
G1 X78.419 Y80.637 E50.48895
G1 X79.27 Y80.283 E50.54471
G1 X80.511 Y80.039 E50.62122
G1 X85.217 Y80.039 E50.90589
G1 X86.645 Y80.379 E50.99469
G1 X87.414 Y80.707 E51.04526
G1 X88.457 Y81.409 E51.12131
G1 X88.856 Y81.808 E51.15545
G1 X90.005 Y80.917 E51.2434
G1 X91.297 Y80.266 E51.33092
G1 X92.736 Y80.039 E51.41904
G1 X97.321 Y80.039 E51.6964
G1 X98.627 Y80.34 E51.77747
G1 X99.501 Y80.706 E51.83479
G1 X100.77 Y81.574 E51.92779
G1 X101.653 Y82.713 E52.01497
G1 X102.304 Y84.005 E52.10249
G1 X102.531 Y85.444 E52.19061
G1 X102.531 Y119.12 E54.22774
G1 X102.552 Y120.072 E54.28534
G1 X102.636 Y121.354 E54.36306
G1 X102.727 Y122.191 E54.41399
G1 X102.904 Y123.337 E54.48413
G1 X119.245 Y215.625 E60.15365
G1 X119.375 Y216.51 E60.20775
G1 X119.505 Y218.032 E60.30016
G1 X119.531 Y219.048 E60.36164
G1 X119.519 Y241.107 E61.69603
G1 X119.452 Y241.955 E61.74749
G1 X119.171 Y243.467 E61.84052
G1 X118.87 Y244.415 E61.90068
G1 X118.311 Y245.689 E61.98484
G1 X117.815 Y246.541 E62.04448
G1 X117.079 Y247.55 E62.12003
G1 X116.383 Y248.309 E62.18232
G1 X115.262 Y249.282 E62.27212
G1 X114.561 Y249.769 E62.32375
G1 X113.234 Y250.484 E62.41493
G1 X112.245 Y250.877 E62.47931
G1 X111.331 Y251.139 E62.53683
G1 X109.684 Y251.399 E62.63769
G1 X108.848 Y251.439 E62.68832
G1 X90.411 Y251.424 E63.80361
G1 X89.341 Y251.33 E63.86858
G1 X88.586 Y251.196 E63.91497
G1 X86.9 Y250.686 E64.02152
G1 X86.021 Y250.292 E64.07979
G1 X85.226 Y249.848 E64.13487
G1 X83.847 Y248.838 E64.23827
G1 X83.101 Y248.128 E64.30057
G1 X82.253 Y247.137 E64.37947
G1 X81.917 Y246.66 E64.41477
G1 X81.235 Y245.453 E64.49863
G1 X80.606 Y243.875 E64.60139
G1 X80.35 Y242.875 E64.66383
G1 X80.201 Y241.922 E64.72218
G1 X80.134 Y240.867 E64.78613
G1 X80.131 Y219.225 E66.09529
G1 X80.095 Y218.199 E66.1574
G1 X79.959 Y217.273 E66.21401
G1 X63.654 Y125.168 E71.87224
G1 X63.426 Y123.636 E71.96594
G1 X63.255 Y122.074 E72.06099
G1 X63.16 Y120.531 E72.15451
G1 X63.131 Y119.014 E72.24629
G1 X63.134 Y94.676 E73.71854
G1 X63.414 Y93.155 E73.8121
G1 X64.099 Y91.641 E73.91262
G1 X65.006 Y90.514 E74.00013
G1 X69.139 Y86.372 E74.35408
G0 F3150 X69.517 Y86.843
G1 F2100 X70.593 Y86.173 E74.43076
G1 X71.343 Y85.861 E74.4799
G1 X72.471 Y85.639 E74.54944
G1 X74.995 Y85.639 E74.70212
G1 X75.144 Y85.011 E74.74117
G1 X75.428 Y84.345 E74.78497
G1 X76.068 Y83.394 E74.85431
G1 X77.623 Y81.839 E74.98734
G1 X78.693 Y81.173 E75.06358
G1 X79.443 Y80.861 E75.11271
G1 X80.571 Y80.639 E75.18226
G1 X85.145 Y80.639 E75.45895
G1 X86.459 Y80.952 E75.54066
G1 X87.125 Y81.236 E75.58445
G1 X88.076 Y81.876 E75.6538
G1 X88.946 Y82.746 E75.72822
G1 X89.308 Y82.217 E75.767
G1 X90.327 Y81.427 E75.845
G1 X91.483 Y80.844 E75.92331
G1 X92.785 Y80.639 E76.00304
G1 X97.251 Y80.639 E76.2732
G1 X98.446 Y80.914 E76.34738
G1 X99.212 Y81.235 E76.39762
G1 X100.353 Y82.016 E76.48126
G1 X101.143 Y83.035 E76.55926
G1 X101.726 Y84.191 E76.63758
G1 X101.931 Y85.493 E76.71731
G1 X101.931 Y119.12 E78.75147
G1 X101.953 Y120.111 E78.81143
G1 X102.037 Y121.393 E78.88915
G1 X102.134 Y122.283 E78.9433
G1 X102.313 Y123.442 E79.01424
G1 X118.651 Y215.712 E84.68265
G1 X118.781 Y216.597 E84.73676
G1 X118.905 Y218.048 E84.82486
G1 X118.931 Y219.048 E84.88537
G1 X118.921 Y241.062 E86.21704
G1 X118.862 Y241.847 E86.26466
G1 X118.598 Y243.288 E86.35328
G1 X118.32 Y244.175 E86.40951
G1 X117.792 Y245.387 E86.48948
G1 X117.296 Y246.239 E86.54911
G1 X116.595 Y247.195 E86.62082
G1 X115.988 Y247.857 E86.67516
G1 X114.92 Y248.789 E86.7609
G1 X114.219 Y249.276 E86.81254
G1 X113.012 Y249.926 E86.89546
G1 X112.023 Y250.319 E86.95984
G1 X111.236 Y250.547 E87.0094
G1 X109.655 Y250.8 E87.10626
G1 X108.848 Y250.839 E87.15513
G1 X90.462 Y250.826 E88.26734
G1 X89.446 Y250.739 E88.32902
G1 X88.691 Y250.605 E88.37541
G1 X87.144 Y250.138 E88.47316
G1 X86.314 Y249.768 E88.52813
G1 X85.519 Y249.324 E88.58321
G1 X84.261 Y248.403 E88.67753
G1 X83.515 Y247.693 E88.73982
G1 X82.744 Y246.791 E88.8116
G1 X82.408 Y246.314 E88.8469
G1 X81.758 Y245.159 E88.92707
G1 X81.187 Y243.725 E89.02044
G1 X80.943 Y242.78 E89.07948
G1 X80.8 Y241.884 E89.13437
G1 X80.733 Y240.829 E89.19831
G1 X80.731 Y219.204 E90.50645
G1 X80.694 Y218.145 E90.57055
G1 X80.553 Y217.186 E90.62919
G1 X64.247 Y125.08 E96.28749
G1 X64.022 Y123.571 E96.37978
G1 X63.854 Y122.037 E96.47313
G1 X63.76 Y120.519 E96.56513
G1 X63.731 Y119.014 E96.65619
G1 X63.734 Y94.73 E98.12517
G1 X63.99 Y93.337 E98.21085
G1 X64.615 Y91.956 E98.30255
G1 X65.431 Y90.938 E98.38147
G1 X69.517 Y86.843 E98.7314
G0 F3150 X69.895 Y87.314
G1 F2100 X70.867 Y86.709 E98.80066
G1 X71.516 Y86.439 E98.84318
G1 X72.531 Y86.239 E98.90576
G1 X75.469 Y86.239 E99.08349
G1 X75.717 Y85.197 E99.14828
G1 X75.957 Y84.634 E99.1853
G1 X76.535 Y83.775 E99.24793
G1 X77.998 Y82.312 E99.37309
G1 X78.967 Y81.709 E99.44213
G1 X79.616 Y81.439 E99.48465
G1 X80.631 Y81.239 E99.54723
G1 X85.073 Y81.239 E99.81594
G1 X86.273 Y81.525 E99.89056
G1 X86.836 Y81.765 E99.92758
G1 X87.695 Y82.343 E99.99021
G1 X89.033 Y83.681 E100.10468
G1 X89.751 Y82.632 E100.18157
G1 X90.646 Y81.939 E100.25005
G1 X91.669 Y81.423 E100.31936
G1 X92.835 Y81.239 E100.39076
G1 X97.181 Y81.239 E100.65366
G1 X98.262 Y81.488 E100.72076
G1 X98.925 Y81.765 E100.76423
G1 X99.938 Y82.459 E100.83851
G1 X100.631 Y83.354 E100.90698
G1 X101.147 Y84.377 E100.97629
G1 X101.331 Y85.543 E101.0477
G1 X101.331 Y119.12 E103.07883
G1 X101.354 Y120.15 E103.14116
G1 X101.438 Y121.432 E103.21887
G1 X101.541 Y122.375 E103.27626
G1 X101.722 Y123.547 E103.34799
G1 X118.057 Y215.799 E109.0153
G1 X118.187 Y216.684 E109.06941
G1 X118.305 Y218.064 E109.15319
G1 X118.331 Y219.048 E109.21274
G1 X118.323 Y241.019 E110.5418
G1 X118.271 Y241.741 E110.58559
G1 X118.025 Y243.109 E110.66967
G1 X117.747 Y243.996 E110.7259
G1 X117.273 Y245.085 E110.79775
G1 X116.777 Y245.937 E110.85738
G1 X116.151 Y246.791 E110.92144
G1 X115.592 Y247.406 E110.97171
G1 X114.578 Y248.296 E111.05333
G1 X113.877 Y248.783 E111.10496
G1 X112.79 Y249.368 E111.17963
G1 X111.801 Y249.761 E111.24401
G1 X111.071 Y249.97 E111.28994
G1 X109.626 Y250.201 E111.37846
G1 X108.848 Y250.239 E111.42558
G1 X90.512 Y250.228 E112.53476
G1 X89.551 Y250.148 E112.59309
G1 X88.796 Y250.014 E112.63948
G1 X87.387 Y249.589 E112.7285
G1 X86.607 Y249.244 E112.7801
G1 X85.812 Y248.8 E112.83518
G1 X84.673 Y247.967 E112.92054
G1 X83.97 Y247.302 E112.97908
G1 X83.235 Y246.445 E113.04737
G1 X82.899 Y245.968 E113.08267
G1 X82.315 Y244.936 E113.1544
G1 X81.768 Y243.573 E113.24324
G1 X81.536 Y242.685 E113.29876
G1 X81.393 Y241.789 E113.35365
G1 X81.332 Y240.792 E113.41407
G1 X81.331 Y219.183 E114.72124
G1 X81.304 Y218.401 E114.76857
G1 X81.259 Y217.859 E114.80147
G1 X81.147 Y217.099 E114.84794
G1 X64.84 Y124.991 E120.50638
G1 X64.618 Y123.506 E120.5972
G1 X64.453 Y122 E120.68885
G1 X64.36 Y120.507 E120.77934
G1 X64.331 Y119.014 E120.86967
G1 X64.334 Y94.785 E122.33533
G1 X64.567 Y93.518 E122.41326
G1 X65.131 Y92.271 E122.49605
G1 X65.856 Y91.362 E122.56638
G1 X69.895 Y87.314 E122.9123
G0 F3150 X70.273 Y87.785
G1 F2100 X71.141 Y87.245 E122.97414
G1 X71.689 Y87.017 E123.01004
G1 X72.591 Y86.839 E123.06566
G1 X76.031 Y86.839 E123.27375
G1 X76.047 Y86.402 E123.3002
G1 X76.29 Y85.383 E123.36357
G1 X76.486 Y84.923 E123.39382
G1 X77.002 Y84.156 E123.44974
G1 X78.373 Y82.785 E123.56702
G1 X79.241 Y82.245 E123.62886
G1 X79.789 Y82.017 E123.66477
G1 X80.691 Y81.839 E123.72038
G1 X85.001 Y81.839 E123.9811
G1 X86.087 Y82.098 E124.04864
G1 X86.547 Y82.294 E124.07889
G1 X87.314 Y82.81 E124.13481
G1 X88.686 Y84.182 E124.25218
G1 X89.225 Y85.05 E124.31398
G1 X89.354 Y84.492 E124.34863
G1 X89.588 Y83.932 E124.38534
G1 X90.194 Y83.047 E124.45023
G1 X90.965 Y82.45 E124.50921
G1 X91.855 Y82.001 E124.56951
G1 X92.884 Y81.839 E124.63253
G1 X97.111 Y81.839 E124.88823
G1 X98.078 Y82.062 E124.94826
G1 X98.638 Y82.296 E124.98497
G1 X99.523 Y82.902 E125.04985
G1 X100.12 Y83.673 E125.10884
G1 X100.569 Y84.563 E125.16914
G1 X100.731 Y85.592 E125.23215
G1 X100.731 Y119.12 E127.26033
G1 X100.755 Y120.189 E127.32501
G1 X100.839 Y121.471 E127.40272
G1 X100.948 Y122.467 E127.46333
G1 X101.131 Y123.652 E127.53587
G1 X117.463 Y215.886 E133.20207
G1 X117.593 Y216.771 E133.25618
G1 X117.705 Y218.08 E133.33565
G1 X117.731 Y219.048 E133.39423
G1 X117.724 Y240.979 E134.72088
G1 X117.68 Y241.637 E134.76077
G1 X117.452 Y242.93 E134.84019
G1 X117.174 Y243.817 E134.89642
G1 X116.754 Y244.783 E134.96014
G1 X116.258 Y245.635 E135.01978
G1 X115.668 Y246.435 E135.07991
G1 X115.195 Y246.956 E135.12247
G1 X114.236 Y247.803 E135.19987
G1 X113.535 Y248.29 E135.25151
G1 X112.568 Y248.81 E135.31792
G1 X111.579 Y249.203 E135.3823
G1 X110.908 Y249.392 E135.42447
G1 X109.596 Y249.602 E135.50485
G1 X108.848 Y249.639 E135.55015
G1 X90.56 Y249.63 E136.65642
G1 X89.656 Y249.557 E136.71129
G1 X88.901 Y249.423 E136.75767
G1 X87.628 Y249.039 E136.83811
G1 X86.9 Y248.72 E136.88619
G1 X86.105 Y248.276 E136.94127
G1 X85.084 Y247.53 E137.01776
G1 X84.425 Y246.911 E137.07245
G1 X83.726 Y246.099 E137.13727
G1 X83.39 Y245.622 E137.17256
G1 X82.838 Y244.642 E137.2406
G1 X82.348 Y243.42 E137.32024
G1 X82.129 Y242.59 E137.37217
G1 X81.986 Y241.694 E137.42705
G1 X81.931 Y240.757 E137.48383
G1 X81.931 Y219.163 E138.79009
G1 X81.904 Y218.371 E138.83803
G1 X81.855 Y217.784 E138.87366
G1 X81.741 Y217.011 E138.92093
G1 X65.433 Y124.902 E144.57943
G1 X65.214 Y123.441 E144.6688
G1 X65.052 Y121.962 E144.7588
G1 X64.96 Y120.495 E144.84772
G1 X64.931 Y119.014 E144.93732
G1 X64.934 Y94.84 E146.39965
G1 X65.144 Y93.699 E146.46983
G1 X65.647 Y92.586 E146.54372
G1 X66.281 Y91.786 E146.60547
G1 X70.273 Y87.785 E146.94736
G0 F3150 X70.646 Y88.26
G1 F2100 X71.458 Y87.755 E147.0052
G1 X71.86 Y87.595 E147.03138
G1 X72.651 Y87.439 E147.08015
G1 X76.631 Y87.439 E147.32091
G1 X76.631 Y86.538 E147.37541
G1 X76.848 Y85.603 E147.43347
G1 X76.984 Y85.258 E147.4559
G1 X77.469 Y84.537 E147.50847
G1 X78.746 Y83.26 E147.61771
G1 X79.558 Y82.755 E147.67556
G1 X79.96 Y82.595 E147.70173
G1 X80.751 Y82.439 E147.7505
G1 X84.932 Y82.439 E148.00342
G1 X85.867 Y82.656 E148.06148
G1 X86.212 Y82.792 E148.08391
G1 X86.933 Y83.277 E148.13648
G1 X88.21 Y84.554 E148.24572
G1 X88.715 Y85.366 E148.30357
G1 X88.875 Y85.768 E148.32974
G1 X89.031 Y86.559 E148.37851
G1 X89.031 Y87.439 E148.43174
G1 X89.731 Y87.439 E148.47409
G1 X89.731 Y85.529 E148.58963
G1 X89.939 Y84.627 E148.64562
G1 X90.083 Y84.271 E148.66885
G1 X90.636 Y83.464 E148.72803
G1 X91.286 Y82.96 E148.77779
G1 X92.041 Y82.58 E148.82892
G1 X92.934 Y82.439 E148.88361
G1 X97.041 Y82.439 E149.13205
G1 X97.943 Y82.647 E149.18804
G1 X98.299 Y82.791 E149.21127
G1 X99.106 Y83.344 E149.27045
G1 X99.61 Y83.994 E149.32021
G1 X99.99 Y84.749 E149.37134
G1 X100.131 Y85.642 E149.42602
G1 X100.131 Y119.12 E151.45117
G1 X100.156 Y120.228 E151.51821
G1 X100.24 Y121.51 E151.59593
G1 X100.355 Y122.559 E151.65977
G1 X100.54 Y123.757 E151.73309
G1 X116.869 Y215.973 E157.39819
G1 X116.999 Y216.858 E157.4523
G1 X117.105 Y218.096 E157.52746
